Coldset/Coldset.cube
# VEGAS Pro LUT
TITLE "Coldset"
LUT_3D_SIZE 9
0.00000000 0.00000000 0.00000000
0.12231079 0.00000020 0.00013868
0.23127648 0.00000000 0.00163873
0.31813842 0.00000000 0.00665915
0.37686577 0.00000000 0.01752985
0.40415561 0.00000000 0.03614890
0.39943284 0.00000000 0.06352644
0.36485016 0.00000000 0.09947836
0.30528826 0.00000000 0.14246975
0.00000000 0.11593962 0.00153573
0.10644285 0.10644285 0.00638442
0.18936679 0.09468339 0.01700206
0.24402966 0.08134322 0.03531161
0.26841715 0.06710429 0.06236223
0.26324287 0.05264857 0.09801742
0.23194818 0.03865803 0.14079303
0.18070242 0.02581463 0.18784487
0.11840266 0.01751725 0.23510630
0.00000000 0.19029638 0.01648479
0.08185409 0.16370818 0.03448630
0.13527229 0.13527229 0.06120983
0.15952897 0.10635264 0.09656629
0.15662634 0.07831317 0.13912223
0.13129450 0.05251780 0.18608199
0.09099135 0.03288883 0.23341975
0.04590267 0.02111247 0.27616122
0.00894219 0.01811579 0.30881518
0.00000000 0.20450301 0.06006926
0.05370466 0.16111399 0.09512505
0.07931331 0.11896996 0.13745753
0.08011682 0.08011682 0.18431975
0.06213394 0.04900332 0.23172703
0.03411122 0.02822117 0.27473328
0.00752315 0.01930897 0.30785695
0.00000000 0.05568613 0.33213142
0.00000000 0.13225254 0.33340093
0.00000000 0.16063285 0.13579911
0.02715472 0.10861889 0.18255834
0.03181013 0.06587064 0.23002844
0.02127365 0.03587966 0.27329198
0.00558048 0.02079820 0.30687785
0.00000000 0.05305159 0.33156827
0.00000000 0.12951882 0.33371785
0.00000000 0.18809704 0.32141852
0.00000000 0.17345823 0.30243301
0.00000000 0.08350065 0.22832419
0.00736441 0.04410054 0.27183756
0.00308307 0.02259888 0.30587822
0.00000000 0.05045069 0.33095893
0.00000000 0.12676087 0.33401522
0.00000000 0.18675454 0.32189897
0.00000000 0.17535859 0.30348563
0.00000000 0.10768589 0.27375397
0.00000000 0.03535784 0.26212415
0.00000000 0.02472620 0.30485827
0.00000000 0.04788555 0.33030245
0.00000000 0.12398084 0.33429205
0.00000000 0.18533209 0.32238546
0.00000000 0.17719351 0.30452055
0.00000000 0.11052565 0.27471817
0.00000000 0.03759444 0.26186937
0.00000000 0.01345055 0.28827187
0.00000000 0.00906524 0.34207916
0.00000000 0.12118086 0.33454737
0.00000000 0.18383186 0.32287708
0.00000000 0.17896079 0.30553615
0.00000000 0.11335692 0.27570531
0.00000000 0.03988172 0.26167980
0.00000000 0.01371659 0.28675434
0.00000000 0.00913660 0.33971524
0.00000000 0.00925190 0.41202703
0.00000000 0.01282435 0.49610054
0.00000000 0.18065825 0.30653089
0.00000000 0.11617754 0.27671385
0.00000000 0.04221750 0.26155385
0.00000000 0.01399066 0.28527325
0.00000000 0.00921433 0.33737755
0.00000000 0.00917882 0.40911186
0.00000000 0.01264602 0.49288714
0.00000000 0.01837779 0.58111417
0.00000000 0.02513599 0.66620392
0.00000000 0.00000009 0.12468120
0.12015451 0.00000000 0.12059893
0.22457677 0.00000000 0.11529630
0.30528814 0.00000000 0.11175847
0.35703784 0.00000000 0.11289602
0.37730300 0.00000000 0.12099610
0.36628854 0.00000000 0.13732350
0.32692724 0.00000000 0.16187136
0.26487970 0.00000000 0.19326180
0.00000000 0.11262907 0.11547893
0.10218916 0.10218916 0.11182231
0.17949316 0.08974658 0.11274214
0.22794990 0.07598330 0.12055647
0.24632511 0.06158128 0.13657305
0.23611240 0.04722248 0.16083446
0.20153323 0.03358887 0.19201332
0.14953691 0.02180239 0.22745696
0.08980060 0.01576759 0.26338211
0.00000000 0.18046382 0.11259770
0.07650514 0.15301028 0.12012810
0.12422906 0.12422906 0.13583390
0.14322618 0.09548412 0.15980709
0.13627875 0.06813937 0.19077075
0.10889690 0.04388835 0.22611845
0.06931861 0.02745778 0.26210332
0.02850965 0.01885892 0.29417697
0.00016373 0.01955138 0.31747800
0.00000000 0.18794341 0.13510612
0.04826258 0.14478774 0.15878932
0.06910475 0.10365712 0.18953422
0.06659742 0.06681927 0.22478087
0.04753935 0.03981836 0.26081932
0.02145719 0.02330985 0.29312280
0.00060542 0.01944892 0.31683108
0.00000000 0.08445387 0.33548626
0.00000000 0.15864179 0.32920259
0.00000000 0.14014760 0.18830392
0.02262165 0.09060338 0.22344446
0.02444053 0.05286035 0.25953025
0.01354404 0.02821982 0.29205692
0.00074750 0.01953238 0.31616622
0.00000000 0.08159603 0.33534402
0.00000000 0.15628430 0.32966453
0.00000000 0.19528212 0.31675521
0.00000000 0.15043724 0.29085612
0.00000000 0.06659458 0.25823641
0.00474249 0.03360248 0.29097962
0.00055668 0.01981817 0.31548369
0.00000000 0.07874978 0.33516574
0.00000000 0.15388054 0.33011705
0.00000000 0.19579211 0.31730267
0.00000000 0.15288782 0.29200113
0.00000000 0.07828473 0.26548964
0.00000000 0.01863329 0.26874435
0.00000000 0.02032261 0.31478363
0.00000000 0.07591723 0.33495045
0.00000000 0.15143265 0.33055916
0.00000000 0.19590740 0.31777132
0.00000000 0.15529552 0.29314452
0.00000000 0.08108418 0.26612452
0.00000000 0.01903358 0.26784787
0.00000000 0.01115131 0.30605450
0.00000000 0.00868485 0.36802840
0.00000000 0.14894274 0.33098993
0.00000000 0.19531678 0.31816247
0.00000000 0.15765813 0.29428470
0.00000000 0.08389771 0.26679847
0.00000000 0.01944288 0.26699379
0.00000000 0.01133776 0.30418134
0.00000000 0.00869399 0.36541530
0.00000000 0.01027343 0.44310665
0.00000000 0.01483797 0.52966619
0.00000000 0.15997349 0.29542014
0.00000000 0.08672314 0.26750991
0.00000000 0.02065810 0.26615697
0.00000000 0.01153160 0.30234069
0.00000000 0.00870884 0.36282450
0.00000000 0.01015485 0.44004485
0.00000000 0.01463151 0.52641261
0.00000000 0.02090066 0.61433864
0.00000000 0.02772420 0.69623381
0.00000000 0.00000070 0.24683334
0.11751249 0.00000000 0.23607722
0.21710382 0.00000000 0.22212504
0.29157543 0.00000000 0.20868975
0.33645657 0.00000000 0.19918279
0.35000437 0.00000000 0.19622241
0.33320379 0.00000000 0.20129177
0.28976771 0.00000000 0.21454684
0.22613674 0.00000000 0.23477410
0.00000000 0.10892826 0.22265169
0.09764434 0.09764434 0.20913343
0.16923557 0.08461779 0.19942951
0.21159160 0.07053053 0.19619429
0.22425821 0.05606455 0.20095704
0.20950906 0.04190181 0.21392423
0.17234561 0.02872427 0.23393171
0.12049722 0.01896031 0.25854665
0.06442112 0.01476529 0.28431916
0.00000000 0.17023998 0.19968510
0.07105967 0.14211935 0.19617714
0.11319110 0.11319110 0.20063357
0.12722871 0.08481914 0.21331128
0.11673480 0.05836740 0.23309566
0.08799952 0.03680688 0.25759700
0.05004090 0.02316816 0.28339669
0.01460481 0.01796084 0.30644318
0.00000000 0.04175434 0.32848495
0.00000000 0.17138077 0.20032138
0.04291862 0.12875587 0.21270809
0.05929071 0.08893606 0.23226611
0.05396719 0.05543782 0.25664920
0.03452691 0.03216156 0.28247052
0.01127653 0.02024183 0.30569297
0.00000000 0.03932914 0.32765803
0.00000000 0.11423697 0.33507669
0.00000000 0.17983295 0.32409924
0.00000000 0.12043676 0.23144321
0.01838133 0.07486241 0.25570345
0.01785468 0.04175756 0.28154075
0.00728749 0.02288371 0.30493355
0.00000000 0.03694918 0.32677957
0.00000000 0.11138442 0.33525014
0.00000000 0.17808031 0.32460099
0.00000000 0.18451507 0.30887437
0.00000000 0.12304200 0.27927026
0.00000000 0.05196807 0.28060779
0.00260795 0.02590122 0.30416518
0.00000000 0.03461660 0.32584861
0.00000000 0.10852140 0.33539772
0.00000000 0.17625932 0.32510346
0.00000000 0.18595465 0.30978510
0.00000000 0.12580907 0.28034073
0.00000000 0.05062933 0.26158667
0.00000000 0.01500011 0.28044263
0.00000000 0.03233353 0.32486418
0.00000000 0.10565004 0.33551845
0.00000000 0.17437214 0.32560569
0.00000000 0.18731469 0.31066808
0.00000000 0.12855580 0.28142568
0.00000000 0.05315473 0.26172531
0.00000000 0.01531070 0.27912855
0.00000000 0.00963936 0.32729211
0.00000000 0.00891176 0.39632940
0.00000000 0.17242090 0.32610670
0.00000000 0.18859306 0.31152174
0.00000000 0.13127999 0.28252354
0.00000000 0.05571676 0.26191911
0.00000000 0.01562966 0.27785301
0.00000000 0.00975283 0.32510388
0.00000000 0.00886529 0.39350775
0.00000000 0.01172890 0.47547540
0.00000000 0.01710554 0.56341779
0.00000000 0.13397950 0.28363276
0.00000000 0.05831326 0.26216653
0.00000000 0.01595705 0.27661636
0.00000000 0.00987305 0.32294431
0.00000000 0.00882389 0.39070442
0.00000000 0.01157144 0.47230753
0.00000000 0.01687757 0.56016457
0.00000000 0.02350413 0.64668638
0.00000000 0.03021301 0.72428381
0.00000000 0.00000000 0.36489680
0.11442252 0.00000000 0.34535560
0.20893326 0.00000000 0.32121050
0.27711368 0.00000000 0.29680902
0.31527311 0.00000000 0.27599201
0.32244867 0.00000000 0.26165906
0.30040544 0.00000000 0.25548387
0.25363627 0.00000000 0.25777900
0.18936181 0.00000000 0.26751092
0.00000000 0.10487498 0.32212904
0.09284621 0.09284621 0.29766437
0.15866959 0.07933480 0.27665728
0.19506812 0.06502271 0.26204804
0.20236763 0.05059191 0.25555870
0.18362179 0.03672436 0.25755262
0.14461210 0.02410202 0.26704374
0.09384800 0.01677291 0.28185561
0.04256666 0.01455976 0.29893017
0.00000000 0.15970048 0.27733138
0.06555552 0.13111104 0.26244819
0.10223401 0.10223401 0.25564522
0.11164995 0.07443330 0.25733656
0.09814566 0.04907283 0.26658386
0.06879136 0.03071205 0.28124994
0.03338505 0.02010781 0.29830199
0.00445271 0.01848352 0.31426471
0.00000000 0.06903614 0.33425894
0.00000000 0.15492848 0.25574335
0.03771059 0.11313178 0.25713080
0.04994677 0.07492016 0.26613140
0.04233954 0.04536760 0.28064758
0.02324778 0.02615919 0.29767239
0.00375815 0.01912120 0.31373692
0.00000000 0.06626733 0.33390829
0.00000000 0.14266643 0.33199292
0.00000000 0.19345705 0.31918111
0.00000000 0.10165158 0.26568651
0.01447156 0.06074993 0.28004864
0.01212819 0.03272699 0.29704139
0.00261739 0.02001423 0.31320322
0.00000000 0.06352172 0.33351624
0.00000000 0.14004776 0.33237690
0.00000000 0.19253783 0.31961745
0.00000000 0.16544259 0.29817724
0.00000000 0.09369504 0.26940534
0.00000000 0.03982420 0.29640928
0.00099857 0.02117842 0.31266373
0.00000000 0.06080142 0.33308184
0.00000000 0.13739656 0.33274513
0.00000000 0.19152822 0.32006466
0.00000000 0.16757795 0.29928434
0.00000000 0.09654485 0.27023435
0.00000000 0.02714217 0.26377493
0.00000000 0.01225895 0.29623789
0.00000000 0.05810857 0.33260414
0.00000000 0.13471496 0.33309668
0.00000000 0.19043034 0.32052180
0.00000000 0.16965637 0.30037975
0.00000000 0.09939685 0.27109393
0.00000000 0.02915978 0.26325041
0.00000000 0.01248646 0.29454681
0.00000000 0.00884606 0.35156408
0.00000000 0.00967734 0.42656159
0.00000000 0.18924634 0.32098788
0.00000000 0.17167565 0.30146196
0.00000000 0.10224888 0.27198255
0.00000000 0.03123657 0.26279718
0.00000000 0.01272170 0.29289037
0.00000000 0.00889318 0.34910139
0.00000000 0.00958188 0.42357188
0.00000000 0.01354968 0.50871271
0.00000000 0.01955844 0.59693468
0.00000000 0.10509878 0.27289864
0.00000000 0.03337038 0.26241362
0.00000000 0.01296473 0.29126889
0.00000000 0.00894641 0.34666345
0.00000000 0.00949087 0.42059666
0.00000000 0.01335996 0.50547934
0.00000000 0.01931557 0.59372246
0.00000000 0.02611956 0.67773682
0.00000000 0.03253380 0.74993330
0.00000000 0.00000000 0.47748354
0.11092239 0.00000000 0.44737399
0.20014066 0.00000000 0.41178253
0.26201630 0.00000000 0.37560624
0.29363868 0.00000000 0.34305221
0.29482499 0.00000000 0.31726000
0.26812029 0.00000000 0.30007413
0.21879742 0.00000000 0.29196602
0.15485722 0.00102128 0.29210603
0.00000000 0.10050704 0.41313073
0.08783255 0.08783255 0.37689590
0.14787084 0.07393542 0.34414554
0.17849290 0.05949763 0.31806356
0.18080458 0.04520115 0.30054435
0.15863958 0.03172792 0.29210949
0.11855949 0.02065740 0.29197425
0.06985369 0.01529893 0.29826328
0.02453953 0.01519285 0.30837718
0.00000000 0.14892089 0.34524810
0.06003046 0.12006092 0.31887886
0.09143338 0.09143338 0.30102700
0.09660327 0.06440218 0.29226434
0.08066252 0.04110772 0.29185116
0.05146135 0.02570080 0.29794690
0.01957785 0.01835720 0.30797035
0.00000000 0.02695289 0.32221493
0.00000000 0.09858014 0.33569473
0.00000000 0.13869995 0.30152211
0.03267627 0.09802882 0.29243058
0.04114854 0.06238101 0.29173702
0.03182787 0.03674382 0.29763582
0.01385313 0.02193026 0.30756500
0.00000000 0.02485720 0.32103822
0.00000000 0.09569632 0.33571514
0.00000000 0.16737324 0.32732517
0.00000000 0.19137089 0.31348294
0.00000000 0.08448591 0.29163188
0.01093012 0.04843936 0.29733026
0.00733665 0.02592620 0.30716124
0.00000000 0.02282050 0.31980366
0.00000000 0.09281363 0.33570433
0.00000000 0.16521704 0.32781446
0.00000000 0.19235034 0.31422332
0.00000000 0.14048710 0.28639379
0.00000000 0.06481884 0.26299128
0.00000000 0.03035910 0.30675921
0.00000000 0.02084491 0.31851026
0.00000000 0.08993420 0.33566132
0.00000000 0.16300626 0.32829818
0.00000000 0.19323842 0.31492743
0.00000000 0.14308454 0.28753030
0.00000000 0.06751762 0.26341191
0.00000000 0.01715374 0.27264890
0.00000000 0.01034119 0.31570950
0.00000000 0.08706016 0.33558515
0.00000000 0.16074301 0.32877535
0.00000000 0.19403294 0.31559375
0.00000000 0.14564756 0.28867123
0.00000000 0.07024116 0.26387924
0.00000000 0.01751942 0.27159014
0.00000000 0.01049224 0.31368202
0.00000000 0.00870280 0.37844980
0.00000000 0.01091297 0.45830429
0.00000000 0.19473174 0.31622070
0.00000000 0.14817402 0.28981507
0.00000000 0.07298729 0.26439166
0.00000000 0.01789387 0.27057233
0.00000000 0.01065038 0.31168526
0.00000000 0.00869019 0.37575325
0.00000000 0.01077515 0.45518717
0.00000000 0.01566715 0.54239792
0.00000000 0.02212804 0.62979627
0.00000000 0.07575382 0.26494768
0.00000000 0.01827714 0.26959586
0.00000000 0.01081568 0.30971956
0.00000000 0.00868305 0.37307751
0.00000000 0.01064113 0.45208061
0.00000000 0.01545180 0.53913969
0.00000000 0.02187691 0.62666559
0.00000000 0.02867834 0.70706934
0.00000000 0.03461795 0.77276158
0.00000000 0.00000000 0.58337337
0.10704990 0.00000000 0.54122478
0.19080162 0.00000000 0.49321109
0.24639666 0.00000000 0.44470227
0.27170444 0.00000000 0.40021676
0.26732218 0.00000000 0.36310112
0.23657499 0.00000000 0.33535928
0.18551582 0.00000000 0.31763196
0.12292540 0.00247318 0.30932558
0.00000000 0.09586224 0.49501705
0.08264115 0.08264115 0.44644004
0.13691491 0.06845745 0.40173939
0.16197927 0.05399309 0.36430860
0.15972021 0.03993005 0.33620238
0.13475142 0.02695028 0.31811029
0.09441452 0.01805507 0.30947998
0.04877902 0.01459174 0.30879092
0.01064217 0.01669745 0.31397682
0.00000000 0.13797681 0.40327197
0.05452229 0.10904458 0.36552885
0.08086480 0.08086480 0.33705920
0.08220211 0.05480140 0.31860152
0.06443658 0.03438674 0.30964524
0.03619853 0.02186491 0.30869880
0.00884610 0.01798793 0.31370685
0.00000000 0.05162861 0.33124170
0.00000000 0.12801735 0.33388254
0.00000000 0.12280856 0.33792973
0.02785347 0.08356042 0.31910574
0.03297164 0.05147801 0.30982140
0.02254555 0.02969658 0.30861476
0.00649419 0.01958512 0.31344208
0.00000000 0.04904695 0.33060676
0.00000000 0.12524709 0.33416885
0.00000000 0.18598843 0.32216364
0.00000000 0.17636772 0.30405244
0.00000000 0.06933855 0.31000853
0.00779483 0.03809923 0.30853888
0.00355567 0.02150427 0.31318265
0.00000000 0.04650222 0.32992414
0.00000000 0.12245592 0.33443406
0.00000000 0.18452328 0.32265306
0.00000000 0.17816600 0.30507699
0.00000000 0.11207116 0.27525386
0.00000000 0.03883591 0.26175800
0.00000000 0.02376051 0.31292856
0.00000000 0.04399655 0.32919285
0.00000000 0.11964595 0.33467722
0.00000000 0.18298151 0.32314703
0.00000000 0.17989546 0.30608141
0.00000000 0.11489689 0.27625287
0.00000000 0.04114991 0.26160333
0.00000000 0.01386509 0.28594193
0.00000000 0.00917821 0.33843687
0.00000000 0.11681931 0.33489737
0.00000000 0.18136519 0.32364461
0.00000000 0.18155393 0.30706415
0.00000000 0.11771078 0.27727240
0.00000000 0.04351123 0.26151142
0.00000000 0.01414356 0.28448090
0.00000000 0.00925942 0.33611357
0.00000000 0.00914096 0.40752864
0.00000000 0.01255004 0.49113688
0.00000000 0.18313923 0.30802360
0.00000000 0.12051066 0.27831095
0.00000000 0.04591770 0.26148078
0.00000000 0.01443017 0.28305691
0.00000000 0.00934709 0.33381709
0.00000000 0.00907523 0.40463880
0.00000000 0.01237648 0.48793295
0.00000000 0.01801269 0.57611036
0.00000000 0.02474573 0.66158193
0.00000000 0.04836712 0.26150981
0.00000000 0.01472496 0.28167033
0.00000000 0.00944126 0.33154774
0.00000000 0.00901434 0.40176588
0.00000000 0.01220607 0.48473561
0.00000000 0.01777832 0.57286787
0.00000000 0.02449295 0.65857345
0.00000000 0.03111183 0.73426324
0.00000000 0.03639684 0.79234815
0.00000000 0.00000000 0.68150771
0.10284287 0.00000000 0.62614757
0.18099174 0.00000000 0.56500220
0.23036818 0.00000000 0.50384611
0.24962163 0.00000000 0.44746256
0.24012935 0.00000000 0.39938006
0.20599647 0.00000000 0.36175925
0.15405595 0.00027050 0.33542871
0.09386873 0.00424878 0.32007152
0.00000000 0.09097837 0.56728464
0.07730982 0.07730982 0.50603724
0.12587735 0.06293868 0.44940731
0.14564069 0.04854690 0.40097272
0.13926575 0.03481644 0.36294454
0.11214633 0.02259347 0.33619809
0.07240404 0.01613013 0.32045346
0.03088845 0.01469806 0.31460601
0.00117689 0.01909587 0.31720620
0.00000000 0.12694386 0.45136338
0.04906882 0.09813763 0.40257964
0.07060389 0.07060389 0.36414528
0.06855981 0.04576708 0.33698243
0.04961905 0.02868950 0.32084888
0.02319187 0.01928958 0.31466258
0.00141652 0.01906119 0.31697655
0.00000000 0.08004196 0.33525130
0.00000000 0.15497875 0.32991257
0.00000000 0.10736771 0.36536136
0.02327999 0.06983996 0.33778185
0.02549161 0.04193773 0.32125777
0.01460599 0.02434959 0.31473058
0.00132212 0.01922382 0.31675667
0.00000000 0.07720292 0.33505294
0.00000000 0.15255067 0.33035955
0.00000000 0.19602741 0.31758294
0.00000000 0.15420657 0.29262510
0.00000000 0.05588562 0.32168025
0.00510348 0.02989162 0.31481022
0.00086084 0.01960010 0.31654659
0.00000000 0.07437874 0.33481705
0.00000000 0.15007959 0.33079562
0.00000000 0.19559748 0.31798285
0.00000000 0.15658994 0.29376695
0.00000000 0.08261723 0.26648739
0.00000000 0.01925572 0.26737672
0.00000000 0.02020616 0.31634641
0.00000000 0.07157157 0.33454266
0.00000000 0.14756766 0.33121976
0.00000000 0.19495328 0.31838191
0.00000000 0.15892704 0.29490474
0.00000000 0.08543752 0.26718196
0.00000000 0.01986419 0.26653847
0.00000000 0.01144257 0.30317327
0.00000000 0.00870138 0.36399937
0.00000000 0.14501701 0.33163103
0.00000000 0.19421250 0.31879473
0.00000000 0.16121571 0.29603693
0.00000000 0.08826853 0.26791319
0.00000000 0.02162955 0.26572046
0.00000000 0.01164046 0.30135056
0.00000000 0.00871937 0.36142084
0.00000000 0.01009190 0.43837994
0.00000000 0.01451991 0.52463877
0.00000000 0.16345376 0.29716200
0.00000000 0.09110807 0.26867953
0.00000000 0.02346260 0.26497978
0.00000000 0.01184584 0.29956099
0.00000000 0.00874318 0.35886520
0.00000000 0.00997969 0.43533745
0.00000000 0.01431723 0.52138859
0.00000000 0.02051767 0.60942948
0.00000000 0.02734288 0.69187105
0.00000000 0.02536117 0.26431492
0.00000000 0.01205877 0.29780492
0.00000000 0.00877287 0.35633278
0.00000000 0.00987167 0.43230790
0.00000000 0.01411706 0.51814109
0.00000000 0.02027090 0.60624325
0.00000000 0.02709507 0.68902528
0.00000000 0.03335143 0.75889802
0.00000000 0.03780184 0.80827236
0.00000000 0.00000000 0.77098370
0.09833907 0.00000000 0.70152479
0.17078662 0.00000000 0.62679476
0.21404421 0.00000000 0.55291277
0.22754139 0.00000000 0.48488861
0.21343537 0.00000000 0.42641643
0.17661139 0.00000000 0.37981853
0.12468248 0.00153230 0.34613869
0.06798953 0.00636664 0.32538539
0.00000000 0.08589323 0.62956351
0.07187636 0.07187636 0.55555397
0.11483382 0.05741691 0.48724040
0.12959048 0.04319683 0.42836738
0.11959234 0.02989808 0.38130686
0.09101324 0.01960007 0.34714627
0.05275480 0.01493943 0.32592613
0.01644668 0.01565656 0.31702748
0.00000000 0.03802523 0.32718533
0.00000000 0.11589760 0.48960516
0.04370783 0.08741565 0.43033445
0.06072621 0.06072621 0.38281274
0.05578979 0.03845861 0.34817144
0.03636107 0.02411113 0.32648358
0.01263037 0.01805212 0.31714591
0.00000000 0.03567086 0.32627836
0.00000000 0.10982393 0.33533391
0.00000000 0.17709537 0.32487503
0.00000000 0.09249079 0.38433623
0.01899361 0.05811708 0.34921420
0.01878409 0.03389365 0.32705778
0.00812260 0.02081879 0.31727999
0.00000000 0.03336501 0.32531834
0.00000000 0.10695610 0.33546698
0.00000000 0.17523803 0.32537749
0.00000000 0.18670648 0.31027028
0.00000000 0.12730995 0.28093082
0.00000000 0.04429881 0.32764876
0.00289386 0.02397114 0.31742972
0.00000000 0.03110984 0.32430431
0.00000000 0.10408108 0.33557263
0.00000000 0.17331563 0.32587919
0.00000000 0.18802226 0.31113747
0.00000000 0.13004465 0.28202301
0.00000000 0.05454780 0.26182428
0.00000000 0.01548364 0.27842799
0.00000000 0.02890745 0.32323530
0.00000000 0.10120100 0.33564991
0.00000000 0.17133033 0.32637912
0.00000000 0.18925515 0.31197444
0.00000000 0.13275565 0.28312725
0.00000000 0.05712890 0.26204753
0.00000000 0.01580719 0.27717361
0.00000000 0.00981757 0.32392237
0.00000000 0.00884208 0.39197636
0.00000000 0.16928427 0.32687634
0.00000000 0.19040301 0.31277972
0.00000000 0.13544075 0.28424203
0.00000000 0.05974327 0.26232353
0.00000000 0.01613920 0.27595836
0.00000000 0.00994150 0.32177857
0.00000000 0.00880348 0.38918319
0.00000000 0.01148701 0.47058317
0.00000000 0.01675397 0.55838931
0.00000000 0.13809781 0.28536576
0.00000000 0.06238873 0.26265070
0.00000000 0.01647973 0.27478257
0.00000000 0.01007228 0.31966397
0.00000000 0.00877006 0.38640898
0.00000000 0.01133493 0.46742854
0.00000000 0.01652878 0.55513346
0.00000000 0.02311347 0.64193469
0.00000000 0.02985086 0.72024298
0.00000000 0.01682886 0.27364665
0.00000000 0.01020997 0.31757894
0.00000000 0.00874186 0.38365412
0.00000000 0.01118641 0.46428296
0.00000000 0.01630548 0.55187643
0.00000000 0.02286093 0.63884532
0.00000000 0.02961465 0.71760052
0.00000000 0.03532849 0.78055298
0.00000000 0.03876433 0.82011348
0.00000000 0.00000000 0.85104901
0.09357631 0.00000000 0.76687711
0.16026184 0.00000000 0.67835736
0.19753821 0.00000000 0.59190148
0.20561492 0.00000000 0.51271594
0.18742934 0.00000000 0.44465238
0.14864668 0.00000000 0.39020836
0.09766000 0.00310379 0.35067809
0.04559022 0.00883935 0.32645261
0.00000000 0.08064461 0.68161321
0.06637856 0.06637856 0.59498119
0.10385987 0.05192994 0.51545149
0.11394209 0.03798070 0.44692647
0.10085124 0.02521281 0.39195186
0.07154115 0.01724625 0.35186160
0.03569363 0.01453402 0.32707304
0.00571817 0.01749630 0.31753093
0.00000000 0.06476671 0.33369964
0.00000000 0.10491364 0.51820207
0.03847712 0.07695425 0.44921905
0.05130738 0.05130738 0.39371556
0.04400544 0.03211228 0.35306585
0.02481386 0.02074110 0.32771406
0.00470299 0.01822038 0.31761265
0.00000000 0.06203464 0.33328462
0.00000000 0.13860555 0.33257976
0.00000000 0.19199820 0.31986010
0.00000000 0.07829118 0.39549947
0.01503214 0.04771211 0.35429090
0.01292466 0.02747359 0.32837570
0.00320873 0.01921078 0.31771505
0.00000000 0.05932906 0.33282670
0.00000000 0.13593750 0.33293903
0.00000000 0.19094017 0.32031286
0.00000000 0.16871883 0.29988340
0.00000000 0.09810035 0.27069953
0.00000000 0.03474437 0.32905802
0.00120377 0.02048314 0.31783795
0.00000000 0.05665207 0.33232495
0.00000000 0.13324022 0.33328104
0.00000000 0.18979506 0.32077500
0.00000000 0.17076527 0.30097181
0.00000000 0.10095264 0.27157515
0.00000000 0.03028538 0.26299447
0.00000000 0.01261381 0.29363897
0.00000000 0.05400582 0.33177835
0.00000000 0.13051581 0.33360481
0.00000000 0.18856499 0.32124552
0.00000000 0.17275138 0.30204612
0.00000000 0.10380378 0.27247894
0.00000000 0.03239354 0.26257941
0.00000000 0.01285329 0.29200158
0.00000000 0.00892145 0.34776852
0.00000000 0.00953168 0.42194721
0.00000000 0.18725207 0.32172349
0.00000000 0.17467502 0.30310485
0.00000000 0.10665158 0.27340934
0.00000000 0.03455752 0.26223326
0.00000000 0.01310060 0.29039934
0.00000000 0.00897805 0.34534422
0.00000000 0.00944311 0.41898000
0.00000000 0.01325767 0.50371760
0.00000000 0.01918358 0.59196788
0.00000000 0.10949387 0.27436480
0.00000000 0.03677515 0.26195440
0.00000000 0.01335579 0.28883269
0.00000000 0.00904085 0.34294519
0.00000000 0.00935908 0.41602784
0.00000000 0.01307234 0.50049150
0.00000000 0.01894252 0.58874696
0.00000000 0.02573147 0.67320526
0.00000000 0.03220106 0.74627709
0.00000000 0.01361892 0.28730196
0.00000000 0.00910992 0.34057185
0.00000000 0.00927964 0.41309106
0.00000000 0.01288994 0.49727046
0.00000000 0.01870270 0.58552092
0.00000000 0.02547978 0.67025334
0.00000000 0.03198307 0.74387860
0.00000000 0.03697441 0.79880750
0.00000000 0.03921569 0.82745099
