Coldset/Coldset.cube
# VEGAS Pro LUT
TITLE "Coldset"
LUT_3D_SIZE 33
0.00000000 0.00000000 0.00000000
0.03124725 0.00000000 0.00000000
0.06216956 0.00000029 0.00000863
0.09258213 0.00000069 0.00004708
0.12231079 0.00000020 0.00013868
0.15119207 0.00000000 0.00031111
0.17907313 0.00000000 0.00059561
0.20581177 0.00000000 0.00102616
0.23127648 0.00000000 0.00163873
0.25534639 0.00000000 0.00247058
0.27791128 0.00000000 0.00355953
0.29887158 0.00000000 0.00494335
0.31813842 0.00000000 0.00665915
0.33563352 0.00000000 0.00874281
0.35128927 0.00000000 0.01122839
0.36504883 0.00000000 0.01414772
0.37686577 0.00000000 0.01752985
0.38670459 0.00000000 0.02140069
0.39454028 0.00000000 0.02578256
0.40035850 0.00000000 0.03069390
0.40415561 0.00000000 0.03614890
0.40593866 0.00000000 0.04215722
0.40572518 0.00000000 0.04872380
0.40354359 0.00000000 0.05584860
0.39943284 0.00000000 0.06352644
0.39344248 0.00000000 0.07174686
0.38563284 0.00000000 0.08049407
0.37607491 0.00000000 0.08974680
0.36485016 0.00000000 0.09947836
0.35205093 0.00000000 0.10965661
0.33778003 0.00000000 0.12024403
0.32215104 0.00000000 0.13119777
0.30528826 0.00000000 0.14246975
0.00000000 0.03109214 0.00000792
0.03087001 0.03087070 0.00004489
0.06117825 0.03058938 0.00013406
0.09075559 0.03025186 0.00030298
0.11944358 0.02986090 0.00058277
0.14709441 0.02941888 0.00100732
0.17357095 0.02892849 0.00161254
0.19874668 0.02839238 0.00243565
0.22250578 0.02781322 0.00351447
0.24474305 0.02719367 0.00488678
0.26536402 0.02653640 0.00658973
0.28428474 0.02584407 0.00865923
0.30143207 0.02511934 0.01112945
0.31674337 0.02436488 0.01403228
0.33016682 0.02358335 0.01739691
0.34166113 0.02277741 0.02124935
0.35119575 0.02194973 0.02561207
0.35875064 0.02110298 0.03050366
0.36431667 0.02023982 0.03593845
0.36789510 0.01936290 0.04192631
0.36949798 0.01847490 0.04847232
0.36914805 0.01757848 0.05557664
0.36687857 0.01667630 0.06323428
0.36273363 0.01577103 0.07143499
0.35676786 0.01486533 0.08016316
0.34904653 0.01396186 0.08939774
0.33964562 0.01306329 0.09911222
0.32865176 0.01217229 0.10927467
0.31616223 0.01129151 0.11984776
0.30228496 0.01042362 0.13078882
0.28713852 0.00957128 0.14205001
0.27085218 0.00873717 0.15357848
0.25356579 0.00792393 0.16531646
0.00000000 0.06120124 0.00012954
0.03026524 0.06053048 0.00029500
0.05975240 0.05975240 0.00057012
0.08830805 0.05887204 0.00098872
0.11578943 0.05789471 0.00158665
0.14206442 0.05682577 0.00240107
0.16701156 0.05567052 0.00346981
0.19052005 0.05443430 0.00483066
0.21248975 0.05312244 0.00652080
0.23283115 0.05174026 0.00857620
0.25146544 0.05029309 0.01103109
0.26832440 0.04878626 0.01391748
0.28335056 0.04722509 0.01726464
0.29649699 0.04561492 0.02109871
0.30772752 0.04396107 0.02544231
0.31701660 0.04226888 0.03031415
0.32434928 0.04054366 0.03572876
0.32972136 0.03879075 0.04169614
0.33313921 0.03701547 0.04822159
0.33461991 0.03522315 0.05530543
0.33419126 0.03341912 0.06294286
0.33189151 0.03160872 0.07112384
0.32776973 0.02979725 0.07983293
0.32188568 0.02799006 0.08904932
0.31430960 0.02619247 0.09874667
0.30512255 0.02440980 0.10889328
0.29441619 0.02264740 0.11945198
0.28229278 0.02091058 0.13038033
0.26886535 0.01920467 0.14163066
0.25425747 0.01753500 0.15315028
0.23860344 0.01590690 0.16488163
0.22204825 0.01432569 0.17676254
0.20474738 0.01279671 0.18872647
0.00000000 0.08967430 0.00055767
0.02945309 0.08835926 0.00097037
0.05793232 0.08689849 0.00156105
0.08529998 0.08529998 0.00236684
0.11142898 0.08357173 0.00342555
0.13620289 0.08172174 0.00477499
0.15951593 0.07975797 0.00645236
0.18127301 0.07768843 0.00849371
0.20138967 0.07552113 0.01093332
0.21979210 0.07326403 0.01380330
0.23641713 0.07092514 0.01713302
0.25121230 0.06851245 0.02094875
0.26413578 0.06603394 0.02527325
0.27515635 0.06349762 0.03012538
0.28425357 0.06091148 0.03551981
0.29141748 0.05828350 0.04146674
0.29664892 0.05562167 0.04797162
0.29995930 0.05293399 0.05503497
0.30137074 0.05022845 0.06265218
0.30091602 0.04751305 0.07081340
0.29863849 0.04479577 0.07950340
0.29459226 0.04208461 0.08870155
0.28884202 0.03938755 0.09838176
0.28146321 0.03671259 0.10851245
0.27254176 0.03406772 0.11905671
0.26217449 0.03146094 0.12997226
0.25046864 0.02890023 0.14121166
0.23754221 0.02639358 0.15272236
0.22352391 0.02394899 0.16444699
0.20855311 0.02157446 0.17632355
0.19277963 0.01927796 0.18828565
0.17636415 0.01715138 0.20026286
0.15947801 0.01579595 0.21218100
0.00000000 0.11593962 0.00153573
0.02845371 0.11381485 0.00233294
0.05575835 0.11151670 0.00338168
0.08179186 0.10905581 0.00471976
0.10644285 0.10644285 0.00638442
0.12961058 0.10368847 0.00841175
0.15120500 0.10080333 0.01083614
0.17114665 0.09779809 0.01368974
0.18936679 0.09468339 0.01700206
0.20580727 0.09146990 0.02079949
0.22042066 0.08816826 0.02510491
0.23317018 0.08478916 0.02993734
0.24402966 0.08134322 0.03531161
0.25298357 0.07784110 0.04123809
0.26002714 0.07429347 0.04772240
0.26516619 0.07071099 0.05476525
0.26841715 0.06710429 0.06236223
0.26980719 0.06348404 0.07050367
0.26937407 0.05986091 0.07917456
0.26716626 0.05624553 0.08835445
0.26324287 0.05264857 0.09801742
0.25767359 0.04908068 0.10813218
0.25053892 0.04555253 0.11866195
0.24192989 0.04207476 0.12956466
0.23194818 0.03865803 0.14079303
0.22070622 0.03531300 0.15229473
0.20832707 0.03205032 0.16401257
0.19494432 0.02888064 0.17588468
0.18070242 0.02581463 0.18784487
0.16575631 0.02292116 0.19982281
0.15027165 0.02085089 0.21174447
0.13442476 0.01904372 0.22353244
0.11840266 0.01751725 0.23510630
0.00000000 0.13950524 0.00333820
0.02728727 0.13643637 0.00466497
0.05327077 0.13317692 0.00631697
0.07784414 0.12974022 0.00833034
0.10091166 0.12613958 0.01073953
0.12238831 0.12238831 0.01357680
0.14219970 0.11849974 0.01687176
0.16028206 0.11448719 0.02065091
0.17658234 0.11036396 0.02493728
0.19105813 0.10614340 0.02975004
0.20367762 0.10183881 0.03510416
0.21441975 0.09746352 0.04101019
0.22327401 0.09303084 0.04747394
0.23024066 0.08855410 0.05449629
0.23533048 0.08404660 0.06207302
0.23856506 0.07952169 0.07019466
0.23997650 0.07499266 0.07884640
0.23960766 0.07047284 0.08800799
0.23751202 0.06597556 0.09765373
0.23375371 0.06151414 0.10775247
0.22840753 0.05710188 0.11826767
0.22155887 0.05275211 0.12915747
0.21330391 0.04847816 0.14037476
0.20374931 0.04429333 0.15186740
0.19301261 0.04021096 0.16357835
0.18122172 0.03624435 0.17544594
0.16851552 0.03240683 0.18740411
0.15504332 0.02874445 0.19938268
0.14096513 0.02595697 0.21130776
0.12645166 0.02346574 0.22310206
0.11168428 0.02129105 0.23468526
0.09685493 0.01945242 0.24597459
0.08216637 0.01796854 0.25688508
0.00000000 0.15996009 0.00625001
0.02597393 0.15584359 0.00824946
0.05050992 0.15152976 0.01064350
0.07351731 0.14703462 0.01346448
0.09491606 0.14237410 0.01674211
0.11463685 0.13756421 0.02050303
0.13262096 0.13262096 0.02477037
0.14882034 0.12756029 0.02956347
0.16319761 0.12239821 0.03489746
0.17572604 0.11715069 0.04078305
0.18638955 0.11183374 0.04722624
0.19518270 0.10646329 0.05422808
0.20211075 0.10105538 0.06178455
0.20718957 0.09562596 0.06988638
0.21044575 0.09019104 0.07851894
0.21191642 0.08476657 0.08766219
0.21164948 0.07936855 0.09729064
0.20970343 0.07401298 0.10737332
0.20614745 0.06871581 0.11787392
0.20106132 0.06349305 0.12875074
0.19453558 0.05836068 0.13995688
0.18667133 0.05333466 0.15144037
0.17758036 0.04843101 0.16314435
0.16738516 0.04366569 0.17500731
0.15621874 0.03905468 0.18696338
0.14422494 0.03462138 0.19894248
0.13155812 0.03111432 0.21087089
0.11838339 0.02793647 0.22267140
0.10487650 0.02511081 0.23426381
0.09122375 0.02265954 0.24556541
0.07762218 0.02060404 0.25649142
0.06427955 0.01896460 0.26695544
0.05141419 0.01776033 0.27687007
0.00000000 0.17697373 0.01054805
0.02453383 0.17173684 0.01335278
0.04751610 0.16630635 0.01661312
0.06887181 0.16070090 0.02035582
0.08853666 0.15493916 0.02460417
0.10645697 0.14903976 0.02937763
0.12258974 0.14302136 0.03469151
0.13690260 0.13690260 0.04055667
0.14937384 0.13070211 0.04697929
0.15999246 0.12443858 0.05396062
0.16875803 0.11813062 0.06149682
0.17568083 0.11179689 0.06957880
0.18078178 0.10545604 0.07819217
0.18409249 0.09912673 0.08731704
0.18565515 0.09282757 0.09692815
0.18552268 0.08657724 0.10699475
0.18375859 0.08039438 0.11748067
0.18043712 0.07429764 0.12834445
0.17564312 0.06830566 0.13953936
0.16947208 0.06243709 0.15101363
0.16203019 0.05671057 0.16271056
0.15343426 0.05114475 0.17456883
0.14381182 0.04575831 0.18652266
0.13330090 0.04056984 0.19850223
0.12205039 0.03632309 0.21043384
0.11021970 0.03245607 0.22224046
0.09797896 0.02897668 0.23384197
0.08550884 0.02590983 0.24515580
0.07300088 0.02327959 0.25609711
0.06065704 0.02110894 0.26657966
0.04869014 0.01941972 0.27651608
0.03732345 0.01823237 0.28581858
0.02679110 0.01756581 0.29439956
0.00000000 0.19029638 0.01648479
0.02298714 0.18389714 0.02020930
0.04432962 0.17731848 0.02443868
0.06396815 0.17058173 0.02919252
0.08185409 0.16370818 0.03448630
0.09794947 0.15671915 0.04033104
0.11222696 0.14963594 0.04673310
0.12466991 0.14247990 0.05369391
0.13527229 0.13527229 0.06120983
0.14403875 0.12803444 0.06927196
0.15098462 0.12078770 0.07786608
0.15613581 0.11355332 0.08697256
0.15952897 0.10635264 0.09656629
0.16121134 0.09920698 0.10661674
0.16124086 0.09213763 0.11708795
0.15968612 0.08516593 0.12793861
0.15662634 0.07831317 0.13912223
0.15215141 0.07160066 0.15058719
0.14636187 0.06504972 0.16227698
0.13936895 0.05868167 0.17413045
0.13129450 0.05251780 0.18608199
0.12227098 0.04657942 0.19806190
0.11244166 0.04158341 0.20999663
0.10196026 0.03702467 0.22180924
0.09099135 0.03288883 0.23341975
0.07970999 0.02920347 0.24474563
0.06830205 0.02599535 0.25570217
0.05696388 0.02329017 0.26620317
0.04590267 0.02111247 0.27616122
0.03533617 0.01948542 0.28548858
0.02549278 0.01843066 0.29409766
0.01661151 0.01796810 0.30190161
0.00894219 0.01811579 0.30881518
0.00000000 0.19975887 0.02427390
0.02135402 0.19218615 0.02900814
0.04099081 0.18445863 0.03428183
0.05886678 0.17660034 0.04010617
0.07494898 0.16863520 0.04648767
0.08921513 0.16058724 0.05342795
0.10165359 0.15248038 0.06092357
0.11226340 0.14433865 0.06896582
0.12105420 0.13618597 0.07754070
0.12804638 0.12804638 0.08662874
0.13327089 0.11994380 0.09620505
0.13676938 0.11190223 0.10623930
0.13859417 0.10394563 0.11669572
0.13880822 0.09609800 0.12753323
0.13748513 0.08838329 0.13870546
0.13470915 0.08082549 0.15016106
0.13057524 0.07344857 0.16184364
0.12518898 0.06627651 0.17369221
0.11866656 0.05933328 0.18564136
0.11113493 0.05264286 0.19762149
0.10273159 0.04689538 0.20955925
0.09360480 0.04164244 0.22137775
0.08391334 0.03684741 0.23299715
0.07382680 0.03254061 0.24433497
0.06352530 0.02875149 0.25530666
0.05319971 0.02550848 0.26582593
0.04305148 0.02283880 0.27580550
0.03329277 0.02076834 0.28515765
0.02414634 0.01932146 0.29379466
0.01584564 0.01852081 0.30162975
0.00863481 0.01838718 0.30857760
0.00276856 0.01893921 0.31455499
0.00000000 0.02499824 0.32112026
0.00000000 0.20527266 0.03407812
0.01965461 0.19654608 0.03988205
0.03753997 0.18769982 0.04624299
0.05362817 0.17876056 0.05316275
0.06790195 0.16975489 0.06063806
0.08035474 0.16070947 0.06866042
0.09099056 0.15165092 0.07721601
0.09982413 0.14260590 0.08628558
0.10688084 0.13360105 0.09584443
0.11219670 0.12466300 0.10586242
0.11581840 0.11581840 0.11630403
0.11780327 0.10709389 0.12712829
0.11821930 0.09851608 0.13828911
0.11714514 0.09011164 0.14973523
0.11467007 0.08190720 0.16141053
0.11089408 0.07392939 0.17325413
0.10592780 0.06620488 0.18520078
0.09989246 0.05876027 0.19718105
0.09291997 0.05225919 0.20912167
0.08515300 0.04630951 0.22094595
0.07674467 0.04085258 0.23257415
0.06785894 0.03592144 0.24392383
0.05867036 0.03154822 0.25491047
0.04936413 0.02776406 0.26544794
0.04013613 0.02459890 0.27544895
0.03119279 0.02208131 0.28482571
0.02275135 0.02023841 0.29349062
0.01503965 0.01909559 0.30135673
0.00829615 0.01867634 0.30833867
0.00276998 0.01900207 0.31435320
0.00000000 0.02448244 0.32081807
0.00000000 0.03971199 0.32779300
0.00000000 0.05701535 0.33239600
0.00000000 0.20682982 0.04599907
0.01790908 0.19699983 0.05289830
0.03401741 0.18709578 0.06035329
0.04831279 0.17714688 0.06835573
0.06079364 0.16718251 0.07689201
0.07146906 0.15723193 0.08594307
0.08035879 0.14732446 0.09548442
0.08749324 0.13748938 0.10548613
0.09291346 0.12775601 0.11591282
0.09667117 0.11815365 0.12672381
0.09882875 0.10871162 0.13787313
0.09945920 0.09945920 0.14930972
0.09864622 0.09042570 0.16097762
0.09648414 0.08164042 0.17281617
0.09307795 0.07313268 0.18476024
0.08854333 0.06493177 0.19674054
0.08300653 0.05767496 0.20868397
0.07660452 0.05102601 0.22051394
0.06948497 0.04490450 0.23215078
0.06180608 0.03934611 0.24351221
0.05373683 0.03438571 0.25451374
0.04545677 0.03005709 0.26506925
0.03715616 0.02639295 0.27509153
0.02903585 0.02342456 0.28449282
0.02130747 0.02118178 0.29318547
0.01419312 0.01969267 0.30108249
0.00792576 0.01898352 0.30809847
0.00274888 0.01907848 0.31415001
0.00000000 0.02397035 0.32051226
0.00000000 0.03911088 0.32758030
0.00000000 0.05634977 0.33226511
0.00000000 0.07501919 0.33487403
0.00000000 0.09445126 0.33571437
0.00000000 0.20450301 0.06006926
0.01613758 0.19365093 0.06805178
0.03046346 0.18278077 0.07656871
0.04298111 0.17192446 0.08560123
0.05370466 0.16111399 0.09512505
0.06265890 0.15038136 0.10511041
0.06987925 0.13975850 0.11552217
0.07541180 0.12927738 0.12631980
0.07931331 0.11896996 0.13745753
0.08165119 0.10886825 0.14888452
0.08250347 0.09900416 0.16054496
0.08195889 0.08940969 0.17237836
0.08011682 0.08011682 0.18431975
0.07708728 0.07115749 0.19630000
0.07299094 0.06314279 0.20824613
0.06795916 0.05579210 0.22008166
0.06213394 0.04900332 0.23172703
0.05566787 0.04281479 0.24310009
0.04872434 0.03726412 0.25411636
0.04147724 0.03238778 0.26468983
0.03411122 0.02822117 0.27473328
0.02682153 0.02479830 0.28415897
0.01981414 0.02215174 0.29287922
0.01330559 0.02031230 0.30080706
0.00752315 0.01930897 0.30785695
0.00270470 0.01916867 0.31394541
0.00000000 0.02346201 0.32020280
0.00000000 0.03851260 0.32736439
0.00000000 0.05568613 0.33213142
0.00000000 0.07431475 0.33481127
0.00000000 0.09373060 0.33571121
0.00000000 0.11326582 0.33513868
0.00000000 0.13225254 0.33340093
0.00000000 0.19844566 0.07624611
0.01436027 0.18668351 0.08526006
0.02691842 0.17496975 0.09476630
0.03769361 0.16333899 0.10473528
0.04671566 0.15182590 0.11513202
0.05402504 0.14046510 0.12591623
0.05967286 0.12929119 0.13704233
0.06372093 0.11833885 0.14845963
0.06624165 0.10764268 0.16011253
0.06731815 0.09723733 0.17194068
0.06704416 0.08715741 0.18387930
0.06552407 0.07743753 0.19585940
0.06287299 0.06866285 0.20780811
0.05921657 0.06060794 0.21964909
0.05469123 0.05314918 0.23130293
0.04944398 0.04632766 0.24268748
0.04363251 0.04018362 0.25371841
0.03742514 0.03475629 0.26430970
0.03100090 0.03008376 0.27437419
0.02454941 0.02620275 0.28382418
0.01827098 0.02314854 0.29257190
0.01237655 0.02095468 0.30053046
0.00708779 0.01965292 0.30761412
0.00263694 0.01927289 0.31373939
0.00000000 0.02295745 0.31988969
0.00000000 0.03791720 0.32714522
0.00000000 0.05502446 0.33199492
0.00000000 0.07361138 0.33474609
0.00000000 0.09301010 0.33570608
0.00000000 0.11255276 0.33518225
0.00000000 0.13157150 0.33348194
0.00000000 0.14939848 0.33091250
0.00000000 0.16536582 0.32778126
0.00000000 0.18889169 0.09440817
0.01259731 0.17636231 0.10436071
0.02342261 0.16395827 0.11474241
0.03251076 0.15171687 0.12551314
0.03990725 0.13967539 0.13662753
0.04566825 0.12787110 0.14803508
0.04986058 0.11634135 0.15968034
0.05256170 0.10512340 0.17150317
0.05385974 0.09425455 0.18343891
0.05385347 0.08377208 0.19541876
0.05265236 0.07423525 0.20736995
0.05037648 0.06547365 0.21921630
0.04715659 0.05734226 0.23087844
0.04313408 0.04988487 0.24227439
0.03846104 0.04314443 0.25331980
0.03330015 0.03716284 0.26392883
0.02782479 0.03198089 0.27401429
0.02221902 0.02763809 0.28348842
0.01667751 0.02417239 0.29226357
0.01140557 0.02162008 0.30025265
0.00661924 0.02001563 0.30736995
0.00254513 0.01939142 0.31353197
0.00000000 0.02245669 0.31957290
0.00000000 0.03732470 0.32692280
0.00000000 0.05436479 0.33185557
0.00000000 0.07290911 0.33467850
0.00000000 0.09228979 0.33569893
0.00000000 0.11183899 0.33522424
0.00000000 0.13088885 0.33356178
0.00000000 0.14877149 0.33101887
0.00000000 0.16481909 0.32790285
0.00000000 0.17836376 0.32452109
0.00000000 0.18873765 0.32118091
0.00000000 0.17615567 0.11435332
0.01086885 0.16303277 0.12511051
0.02001634 0.15012257 0.13621311
0.02749302 0.13746509 0.14761083
0.03336006 0.12510024 0.15924838
0.03768933 0.11306799 0.17106582
0.04056333 0.10140832 0.18299860
0.04207521 0.09016117 0.19497809
0.04232880 0.07986011 0.20693167
0.04143859 0.07038938 0.21878326
0.03952965 0.06158269 0.23045363
0.03673781 0.05348657 0.24186082
0.03320950 0.04614665 0.25292069
0.02910182 0.03960756 0.26354727
0.02458251 0.03391279 0.27365354
0.01982999 0.02910456 0.28315172
0.01503330 0.02522351 0.29195410
0.01039216 0.02230869 0.29997364
0.00611695 0.02039729 0.30712456
0.00242873 0.01952448 0.31332317
0.00000000 0.02195978 0.31925240
0.00000000 0.03673514 0.32669711
0.00000000 0.05370715 0.33171335
0.00000000 0.07220796 0.33460847
0.00000000 0.09156971 0.33568978
0.00000000 0.11112455 0.33526465
0.00000000 0.13020460 0.33364043
0.00000000 0.14814202 0.33112445
0.00000000 0.16426896 0.32802409
0.00000000 0.17791754 0.32464665
0.00000000 0.18841992 0.32129949
0.00000000 0.19510825 0.31828997
0.00000000 0.19274516 0.31453189
0.00000000 0.16063285 0.13579911
0.00919505 0.14712086 0.14718691
0.01673993 0.13391945 0.15881670
0.02270086 0.12107125 0.17062861
0.02715472 0.10861889 0.18255834
0.03018906 0.09660500 0.19453736
0.03190207 0.08553763 0.20649323
0.03240259 0.07535525 0.21834995
0.03181013 0.06587064 0.23002844
0.03025488 0.05713298 0.24144678
0.02787761 0.04919054 0.25252095
0.02482983 0.04209071 0.26316500
0.02127365 0.03587966 0.27329198
0.01738186 0.03060233 0.28281409
0.01333788 0.02630209 0.29164365
0.00933585 0.02302075 0.29969350
0.00558048 0.02079820 0.30687785
0.00228722 0.01967235 0.31311294
0.00000000 0.02146675 0.31892824
0.00000000 0.03614856 0.32646814
0.00000000 0.05305159 0.33156827
0.00000000 0.07150799 0.33453596
0.00000000 0.09084990 0.33567858
0.00000000 0.11040946 0.33530343
0.00000000 0.12951882 0.33371785
0.00000000 0.14751011 0.33122924
0.00000000 0.16371548 0.32814494
0.00000000 0.17746708 0.32477224
0.00000000 0.18809704 0.32141852
0.00000000 0.19493751 0.31839114
0.00000000 0.19296589 0.31470743
0.00000000 0.18501464 0.30918786
0.00000000 0.17345823 0.30243301
0.00000000 0.14279906 0.15838523
0.00759607 0.12913325 0.17019156
0.01363369 0.11588634 0.18211815
0.01819476 0.10310364 0.19409661
0.02137186 0.09126786 0.20605466
0.02326822 0.08037143 0.21791641
0.02399772 0.07020626 0.22960287
0.02368491 0.06082417 0.24103230
0.02246498 0.05227621 0.25212061
0.02048376 0.04461239 0.26278207
0.01789780 0.03788168 0.27292958
0.01487422 0.03213162 0.28247550
0.01159088 0.02740842 0.29133210
0.00823621 0.02375652 0.29941216
0.00500935 0.02121857 0.30662987
0.00212012 0.01983525 0.31290132
0.00000000 0.02097762 0.31860033
0.00000000 0.03556498 0.32623586
0.00000000 0.05239813 0.33142030
0.00000000 0.07080922 0.33446100
0.00000000 0.09013038 0.33566532
0.00000000 0.10969377 0.33534053
0.00000000 0.12883152 0.33379409
0.00000000 0.14687578 0.33133325
0.00000000 0.16315868 0.32826540
0.00000000 0.17701238 0.32489786
0.00000000 0.18776903 0.32153800
0.00000000 0.19476074 0.31849319
0.00000000 0.19318081 0.31488061
0.00000000 0.18537521 0.30941579
0.00000000 0.17393933 0.30269775
0.00000000 0.15955612 0.29521412
0.00000000 0.14290850 0.28745264
0.00000000 0.12321079 0.18167803
0.00609207 0.10965722 0.19365585
0.01073793 0.09705094 0.20561597
0.01403518 0.08543807 0.21748264
0.01609210 0.07458968 0.22917700
0.01702760 0.06456041 0.24061733
0.01697124 0.05540385 0.25171971
0.01606328 0.04717288 0.26239839
0.01445457 0.03991903 0.27256641
0.01230668 0.03369267 0.28213599
0.00979178 0.02854263 0.29101947
0.00709273 0.02451616 0.29912966
0.00440307 0.02165867 0.30638057
0.00192691 0.02001346 0.31268829
0.00000000 0.02049244 0.31826872
0.00000000 0.03498444 0.32600027
0.00000000 0.05174680 0.33126944
0.00000000 0.07011167 0.33438355
0.00000000 0.08941118 0.33564997
0.00000000 0.10897750 0.33537602
0.00000000 0.12814274 0.33386904
0.00000000 0.14623906 0.33143643
0.00000000 0.16259860 0.32838544
0.00000000 0.17655350 0.32502350
0.00000000 0.18743591 0.32165793
0.00000000 0.19457796 0.31859604
0.00000000 0.19338989 0.31505144
0.00000000 0.18573087 0.30964205
0.00000000 0.17441645 0.30296144
0.00000000 0.16012958 0.29549736
0.00000000 0.14355317 0.28773746
0.00000000 0.12537016 0.28016943
0.00000000 0.10626352 0.27328095
0.00000000 0.10288706 0.20517714
0.00470319 0.09055530 0.21704863
0.00809296 0.07902109 0.22875077
0.01028261 0.06834175 0.24020194
0.01139607 0.05857365 0.25131825
0.01156798 0.04977227 0.26201406
0.01094357 0.04199190 0.27220240
0.00967878 0.03528561 0.28179556
0.00794019 0.02970501 0.29070583
0.00590500 0.02529998 0.29884601
0.00376113 0.02211868 0.30613002
0.00170709 0.02020721 0.31247392
0.00000000 0.02001124 0.31793332
0.00000000 0.03440697 0.32576135
0.00000000 0.05109764 0.33111566
0.00000000 0.06941539 0.33430362
0.00000000 0.08869235 0.33563256
0.00000000 0.10826068 0.33540982
0.00000000 0.12745251 0.33394277
0.00000000 0.14559999 0.33153874
0.00000000 0.16203526 0.32850507
0.00000000 0.17609046 0.32514912
0.00000000 0.18709774 0.32177824
0.00000000 0.19438922 0.31869975
0.00000000 0.19359311 0.31521988
0.00000000 0.18608160 0.30986655
0.00000000 0.17488955 0.30322409
0.00000000 0.16069992 0.29578018
0.00000000 0.14419565 0.28802252
0.00000000 0.12605965 0.28043878
0.00000000 0.10697488 0.27351668
0.00000000 0.08762428 0.26774389
0.00000000 0.06869079 0.26360807
0.00000000 0.08350065 0.22832419
0.00344961 0.07216844 0.23978606
0.00573911 0.06178581 0.25091621
0.00699750 0.05241081 0.26162902
0.00736441 0.04410054 0.27183756
0.00699013 0.03691073 0.28145421
0.00603564 0.03089571 0.29039115
0.00467253 0.02610816 0.29856116
0.00308307 0.02259888 0.30587822
0.00146016 0.02041676 0.31225812
0.00000739 0.01960842 0.31761953
0.00000000 0.03383261 0.32551906
0.00000000 0.05045069 0.33095893
0.00000000 0.06872041 0.33422115
0.00000000 0.08797392 0.33561304
0.00000000 0.10754336 0.33544195
0.00000000 0.12676087 0.33401522
0.00000000 0.14495860 0.33164021
0.00000000 0.16146870 0.32862428
0.00000000 0.17562330 0.32527474
0.00000000 0.18675454 0.32189897
0.00000000 0.19419456 0.31880426
0.00000000 0.19379042 0.31538594
0.00000000 0.18642734 0.31008932
0.00000000 0.17535859 0.30348563
0.00000000 0.16126715 0.29606259
0.00000000 0.14483592 0.28830782
0.00000000 0.12674785 0.28070906
0.00000000 0.10768589 0.27375397
0.00000000 0.08833297 0.26793024
0.00000000 0.06937203 0.26372558
0.00000000 0.05148601 0.26162764
0.00000000 0.03535784 0.26212415
0.00000000 0.06504041 0.25051361
0.00235146 0.05508866 0.26124331
0.00371668 0.04624510 0.27147195
0.00424032 0.03856819 0.28111193
0.00407773 0.03211502 0.29007539
0.00339487 0.02694090 0.29827517
0.00236840 0.02309950 0.30562511
0.00118562 0.02064236 0.31204098
0.00004447 0.01961886 0.31744125
0.00000000 0.03326139 0.32527342
0.00000000 0.04980597 0.33079928
0.00000000 0.06802676 0.33413616
0.00000000 0.08725590 0.33559141
0.00000000 0.10682556 0.33547238
0.00000000 0.12606785 0.33408639
0.00000000 0.14431493 0.33174083
0.00000000 0.16089895 0.32874304
0.00000000 0.17515203 0.32540032
0.00000000 0.18640633 0.32202005
0.00000000 0.19399399 0.31890956
0.00000000 0.19398178 0.31554955
0.00000000 0.18676805 0.31031033
0.00000000 0.17582354 0.30374610
0.00000000 0.16183120 0.29634455
0.00000000 0.14547394 0.28859332
0.00000000 0.12743473 0.28098020
0.00000000 0.10839651 0.27399278
0.00000000 0.08904219 0.26811880
0.00000000 0.07005472 0.26384592
0.00000000 0.05211706 0.26166183
0.00000000 0.03591212 0.26205426
0.00000000 0.02212285 0.26551086
