Coldset/Coldset.cube
# VEGAS Pro LUT
TITLE "Coldset"
LUT_3D_SIZE 5
0.00000000 0.00000000 0.00000000
0.23127648 0.00000000 0.00163873
0.37686577 0.00000000 0.01752985
0.39943284 0.00000000 0.06352644
0.30528826 0.00000000 0.14246975
0.00000000 0.19029638 0.01648479
0.13527229 0.13527229 0.06120983
0.15662634 0.07831317 0.13912223
0.09099135 0.03288883 0.23341975
0.00894219 0.01811579 0.30881518
0.00000000 0.16063285 0.13579911
0.03181013 0.06587064 0.23002844
0.00558048 0.02079820 0.30687785
0.00000000 0.12951882 0.33371785
0.00000000 0.17345823 0.30243301
0.00000000 0.02472620 0.30485827
0.00000000 0.12398084 0.33429205
0.00000000 0.17719351 0.30452055
0.00000000 0.03759444 0.26186937
0.00000000 0.00906524 0.34207916
0.00000000 0.18065825 0.30653089
0.00000000 0.04221750 0.26155385
0.00000000 0.00921433 0.33737755
0.00000000 0.01264602 0.49288714
0.00000000 0.02513599 0.66620392
0.00000000 0.00000070 0.24683334
0.21710382 0.00000000 0.22212504
0.33645657 0.00000000 0.19918279
0.33320379 0.00000000 0.20129177
0.22613674 0.00000000 0.23477410
0.00000000 0.17023998 0.19968510
0.11319110 0.11319110 0.20063357
0.11673480 0.05836740 0.23309566
0.05004090 0.02316816 0.28339669
0.00000000 0.04175434 0.32848495
0.00000000 0.12043676 0.23144321
0.01785468 0.04175756 0.28154075
0.00000000 0.03694918 0.32677957
0.00000000 0.17808031 0.32460099
0.00000000 0.12304200 0.27927026
0.00000000 0.03233353 0.32486418
0.00000000 0.17437214 0.32560569
0.00000000 0.12855580 0.28142568
0.00000000 0.01531070 0.27912855
0.00000000 0.00891176 0.39632940
0.00000000 0.13397950 0.28363276
0.00000000 0.01595705 0.27661636
0.00000000 0.00882389 0.39070442
0.00000000 0.01687757 0.56016457
0.00000000 0.03021301 0.72428381
0.00000000 0.00000000 0.47748354
0.20014066 0.00000000 0.41178253
0.29363868 0.00000000 0.34305221
0.26812029 0.00000000 0.30007413
0.15485722 0.00102128 0.29210603
0.00000000 0.14892089 0.34524810
0.09143338 0.09143338 0.30102700
0.08066252 0.04110772 0.29185116
0.01957785 0.01835720 0.30797035
0.00000000 0.09858014 0.33569473
0.00000000 0.08448591 0.29163188
0.00733665 0.02592620 0.30716124
0.00000000 0.09281363 0.33570433
0.00000000 0.19235034 0.31422332
0.00000000 0.06481884 0.26299128
0.00000000 0.08706016 0.33558515
0.00000000 0.19403294 0.31559375
0.00000000 0.07024116 0.26387924
0.00000000 0.01049224 0.31368202
0.00000000 0.01091297 0.45830429
0.00000000 0.07575382 0.26494768
0.00000000 0.01081568 0.30971956
0.00000000 0.01064113 0.45208061
0.00000000 0.02187691 0.62666559
0.00000000 0.03461795 0.77276158
0.00000000 0.00000000 0.68150771
0.18099174 0.00000000 0.56500220
0.24962163 0.00000000 0.44746256
0.20599647 0.00000000 0.36175925
0.09386873 0.00424878 0.32007152
0.00000000 0.12694386 0.45136338
0.07060389 0.07060389 0.36414528
0.04961905 0.02868950 0.32084888
0.00141652 0.01906119 0.31697655
0.00000000 0.15497875 0.32991257
0.00000000 0.05588562 0.32168025
0.00086084 0.01960010 0.31654659
0.00000000 0.15007959 0.33079562
0.00000000 0.15658994 0.29376695
0.00000000 0.01925572 0.26737672
0.00000000 0.14501701 0.33163103
0.00000000 0.16121571 0.29603693
0.00000000 0.02162955 0.26572046
0.00000000 0.00871937 0.36142084
0.00000000 0.01451991 0.52463877
0.00000000 0.02536117 0.26431492
0.00000000 0.00877287 0.35633278
0.00000000 0.01411706 0.51814109
0.00000000 0.02709507 0.68902528
0.00000000 0.03780184 0.80827236
0.00000000 0.00000000 0.85104901
0.16026184 0.00000000 0.67835736
0.20561492 0.00000000 0.51271594
0.14864668 0.00000000 0.39020836
0.04559022 0.00883935 0.32645261
0.00000000 0.10491364 0.51820207
0.05130738 0.05130738 0.39371556
0.02481386 0.02074110 0.32771406
0.00000000 0.06203464 0.33328462
0.00000000 0.19199820 0.31986010
0.00000000 0.03474437 0.32905802
0.00000000 0.05665207 0.33232495
0.00000000 0.18979506 0.32077500
0.00000000 0.10095264 0.27157515
0.00000000 0.01261381 0.29363897
0.00000000 0.18725207 0.32172349
0.00000000 0.10665158 0.27340934
0.00000000 0.01310060 0.29039934
0.00000000 0.00944311 0.41898000
0.00000000 0.01918358 0.59196788
0.00000000 0.01361892 0.28730196
0.00000000 0.00927964 0.41309106
0.00000000 0.01870270 0.58552092
0.00000000 0.03198307 0.74387860
0.00000000 0.03921569 0.82745099
