YELLOW Major/YELLOW Major.cube
# VEGAS Pro LUT
TITLE "YELLOW Major"
LUT_3D_SIZE 5
1.00000000 1.00000000 0.00000000
0.92180556 0.92180556 0.00000000
0.76840705 0.76840705 0.00000000
0.57188147 0.57188147 0.00000000
0.36430591 0.36430591 0.00000000
0.77501100 0.77501100 0.00000000
0.57950372 0.57950372 0.00000000
0.37176633 0.37176633 0.00000000
0.18387598 0.18387598 0.00000000
0.04790974 0.04790974 0.00000000
0.37925360 0.37925360 0.00000000
0.19006476 0.19006476 0.00000000
0.05161993 0.05161993 0.00000000
0.01005302 0.01005302 0.00000000
0.10900940 0.10900940 0.00000000
0.05544222 0.05544222 0.00000000
0.00811680 0.00811680 0.00000000
0.10397495 0.10397495 0.00000000
0.26860034 0.26860034 0.00000000
0.46991590 0.46991590 0.00000000
0.09903356 0.09903356 0.00000000
0.26169738 0.26169738 0.00000000
0.46223149 0.46223149 0.00000000
0.66855878 0.66855878 0.00000000
0.84860218 0.84860218 0.00000000
0.98109871 0.98109871 0.00000000
0.87044758 0.87044758 0.00000000
0.69682240 0.69682240 0.00000000
0.49230027 0.49230027 0.00000000
0.28895819 0.28895819 0.00000000
0.70395380 0.70395380 0.00000000
0.50000000 0.50000000 0.00000000
0.29604617 0.29604617 0.00000000
0.12416944 0.12416944 0.00000000
0.01644685 0.01644685 0.00000000
0.30317757 0.30317757 0.00000000
0.12955239 0.12955239 0.00000000
0.01890129 0.01890129 0.00000000
0.03776867 0.03776867 0.00000000
0.16627762 0.16627762 0.00000000
0.02148438 0.02148438 0.00000000
0.03451199 0.03451199 0.00000000
0.16037263 0.16037263 0.00000000
0.34277046 0.34277046 0.00000000
0.54962844 0.54962844 0.00000000
0.15454417 0.15454417 0.00000000
0.33543038 0.33543038 0.00000000
0.54195678 0.54195678 0.00000000
0.74204636 0.74204636 0.00000000
0.90362191 0.90362191 0.00000000
0.94838005 0.94838005 0.00000000
0.80993521 0.80993521 0.00000000
0.62074637 0.62074637 0.00000000
0.41289061 0.41289061 0.00000000
0.21844500 0.21844500 0.00000000
0.62823367 0.62823367 0.00000000
0.42049631 0.42049631 0.00000000
0.22498900 0.22498900 0.00000000
0.07378883 0.07378883 0.00000000
0.00117233 0.00117233 0.00000000
0.23159297 0.23159297 0.00000000
0.07819442 0.07819442 0.00000000
0.00000000 0.00000000 0.00000000
0.07819442 0.07819442 0.00000000
0.23159297 0.23159297 0.00000000
0.00117233 0.00117233 0.00000000
0.07378883 0.07378883 0.00000000
0.22498900 0.22498900 0.00000000
0.42049631 0.42049631 0.00000000
0.62823367 0.62823367 0.00000000
0.21844500 0.21844500 0.00000000
0.41289061 0.41289061 0.00000000
0.62074637 0.62074637 0.00000000
0.80993521 0.80993521 0.00000000
0.94838005 0.94838005 0.00000000
0.90362191 0.90362191 0.00000000
0.74204636 0.74204636 0.00000000
0.54195678 0.54195678 0.00000000
0.33543038 0.33543038 0.00000000
0.15454417 0.15454417 0.00000000
0.54962844 0.54962844 0.00000000
0.34277046 0.34277046 0.00000000
0.16037263 0.16037263 0.00000000
0.03451199 0.03451199 0.00000000
0.02148438 0.02148438 0.00000000
0.16627762 0.16627762 0.00000000
0.03776867 0.03776867 0.00000000
0.01890129 0.01890129 0.00000000
0.12955239 0.12955239 0.00000000
0.30317757 0.30317757 0.00000000
0.01644685 0.01644685 0.00000000
0.12416944 0.12416944 0.00000000
0.29604617 0.29604617 0.00000000
0.50000000 0.50000000 0.00000000
0.70395380 0.70395380 0.00000000
0.28895819 0.28895819 0.00000000
0.49230027 0.49230027 0.00000000
0.69682240 0.69682240 0.00000000
0.87044758 0.87044758 0.00000000
0.98109871 0.98109871 0.00000000
0.84860218 0.84860218 0.00000000
0.66855878 0.66855878 0.00000000
0.46223149 0.46223149 0.00000000
0.26169738 0.26169738 0.00000000
0.09903356 0.09903356 0.00000000
0.46991590 0.46991590 0.00000000
0.26860034 0.26860034 0.00000000
0.10397495 0.10397495 0.00000000
0.00811680 0.00811680 0.00000000
0.05544222 0.05544222 0.00000000
0.10900940 0.10900940 0.00000000
0.01005302 0.01005302 0.00000000
0.05161993 0.05161993 0.00000000
0.19006476 0.19006476 0.00000000
0.37925360 0.37925360 0.00000000
0.04790974 0.04790974 0.00000000
0.18387598 0.18387598 0.00000000
0.37176633 0.37176633 0.00000000
0.57950372 0.57950372 0.00000000
0.77501100 0.77501100 0.00000000
0.36430591 0.36430591 0.00000000
0.57188147 0.57188147 0.00000000
0.76840705 0.76840705 0.00000000
0.92180556 0.92180556 0.00000000
1.00000000 1.00000000 0.00000000
