YELLOW Major/YELLOW Major.cube
# VEGAS Pro LUT
TITLE "YELLOW Major"
LUT_3D_SIZE 33
1.00000000 1.00000000 0.00000000
0.99543482 0.99543482 0.00000000
0.98925602 0.98925602 0.00000000
0.98152620 0.98152620 0.00000000
0.97230810 0.97230810 0.00000000
0.96166438 0.96166438 0.00000000
0.94965756 0.94965756 0.00000000
0.93635046 0.93635046 0.00000000
0.92180556 0.92180556 0.00000000
0.90608567 0.90608567 0.00000000
0.88925332 0.88925332 0.00000000
0.87137121 0.87137121 0.00000000
0.85250199 0.85250199 0.00000000
0.83270836 0.83270836 0.00000000
0.81205285 0.81205285 0.00000000
0.79059821 0.79059821 0.00000000
0.76840705 0.76840705 0.00000000
0.74554205 0.74554205 0.00000000
0.72206581 0.72206581 0.00000000
0.69804102 0.69804102 0.00000000
0.67353028 0.67353028 0.00000000
0.64859635 0.64859635 0.00000000
0.62330180 0.62330180 0.00000000
0.59770930 0.59770930 0.00000000
0.57188147 0.57188147 0.00000000
0.54588097 0.54588097 0.00000000
0.51977050 0.51977050 0.00000000
0.49361265 0.49361265 0.00000000
0.46747011 0.46747011 0.00000000
0.44140550 0.44140550 0.00000000
0.41548151 0.41548151 0.00000000
0.38976076 0.38976076 0.00000000
0.36430591 0.36430591 0.00000000
0.98951119 0.98951119 0.00000000
0.98183733 0.98183733 0.00000000
0.97267288 0.97267288 0.00000000
0.96208048 0.96208048 0.00000000
0.95012271 0.95012271 0.00000000
0.93686229 0.93686229 0.00000000
0.92236185 0.92236185 0.00000000
0.90668410 0.90668410 0.00000000
0.88989156 0.88989156 0.00000000
0.87204695 0.87204695 0.00000000
0.85321295 0.85321295 0.00000000
0.83345217 0.83345217 0.00000000
0.81282729 0.81282729 0.00000000
0.79140091 0.79140091 0.00000000
0.76923573 0.76923573 0.00000000
0.74639440 0.74639440 0.00000000
0.72293955 0.72293955 0.00000000
0.69893384 0.69893384 0.00000000
0.67443991 0.67443991 0.00000000
0.64952046 0.64952046 0.00000000
0.62423801 0.62423801 0.00000000
0.59865534 0.59865534 0.00000000
0.57283509 0.57283509 0.00000000
0.54683983 0.54683983 0.00000000
0.52073228 0.52073228 0.00000000
0.49457508 0.49457508 0.00000000
0.46843088 0.46843088 0.00000000
0.44236231 0.44236231 0.00000000
0.41643202 0.41643202 0.00000000
0.39070269 0.39070269 0.00000000
0.36523694 0.36523694 0.00000000
0.34009743 0.34009743 0.00000000
0.31534684 0.31534684 0.00000000
0.97303575 0.97303575 0.00000000
0.96249473 0.96249473 0.00000000
0.95058608 0.95058608 0.00000000
0.93737251 0.93737251 0.00000000
0.92291659 0.92291659 0.00000000
0.90728098 0.90728098 0.00000000
0.89052838 0.89052838 0.00000000
0.87272137 0.87272137 0.00000000
0.85392267 0.85392267 0.00000000
0.83419484 0.83419484 0.00000000
0.81360066 0.81360066 0.00000000
0.79220265 0.79220265 0.00000000
0.77006358 0.77006358 0.00000000
0.74724597 0.74724597 0.00000000
0.72381258 0.72381258 0.00000000
0.69982606 0.69982606 0.00000000
0.67534894 0.67534894 0.00000000
0.65044403 0.65044403 0.00000000
0.62517387 0.62517387 0.00000000
0.59960115 0.59960115 0.00000000
0.57378846 0.57378846 0.00000000
0.54779857 0.54779857 0.00000000
0.52169406 0.52169406 0.00000000
0.49553755 0.49553755 0.00000000
0.46939173 0.46939173 0.00000000
0.44331929 0.44331929 0.00000000
0.41738281 0.41738281 0.00000000
0.39164495 0.39164495 0.00000000
0.36616841 0.36616841 0.00000000
0.34101579 0.34101579 0.00000000
0.31624976 0.31624976 0.00000000
0.29193297 0.29193297 0.00000000
0.26812810 0.26812810 0.00000000
0.95104772 0.95104772 0.00000000
0.93788099 0.93788099 0.00000000
0.92346966 0.92346966 0.00000000
0.90787637 0.90787637 0.00000000
0.89116377 0.89116377 0.00000000
0.87339443 0.87339443 0.00000000
0.85463107 0.85463107 0.00000000
0.83493638 0.83493638 0.00000000
0.81437290 0.81437290 0.00000000
0.79300338 0.79300338 0.00000000
0.77089047 0.77089047 0.00000000
0.74809670 0.74809670 0.00000000
0.72468489 0.72468489 0.00000000
0.70071757 0.70071757 0.00000000
0.67625743 0.67625743 0.00000000
0.65136713 0.65136713 0.00000000
0.62610924 0.62610924 0.00000000
0.60054654 0.60054654 0.00000000
0.57474160 0.57474160 0.00000000
0.54875714 0.54875714 0.00000000
0.52265573 0.52265573 0.00000000
0.49650002 0.49650002 0.00000000
0.47035271 0.47035271 0.00000000
0.44427645 0.44427645 0.00000000
0.41833386 0.41833386 0.00000000
0.39258760 0.39258760 0.00000000
0.36710033 0.36710033 0.00000000
0.34193468 0.34193468 0.00000000
0.31715330 0.31715330 0.00000000
0.29281890 0.29281890 0.00000000
0.26899406 0.26899406 0.00000000
0.24574146 0.24574146 0.00000000
0.22312374 0.22312374 0.00000000
0.92402118 0.92402118 0.00000000
0.90847027 0.90847027 0.00000000
0.89179772 0.89179772 0.00000000
0.87406617 0.87406617 0.00000000
0.85533828 0.85533828 0.00000000
0.83567667 0.83567667 0.00000000
0.81514412 0.81514412 0.00000000
0.79380310 0.79380310 0.00000000
0.77171642 0.77171642 0.00000000
0.74894661 0.74894661 0.00000000
0.72555643 0.72555643 0.00000000
0.70160842 0.70160842 0.00000000
0.67716527 0.67716527 0.00000000
0.65228969 0.65228969 0.00000000
0.62704426 0.62704426 0.00000000
0.60149169 0.60149169 0.00000000
0.57569456 0.57569456 0.00000000
0.54971552 0.54971552 0.00000000
0.52361733 0.52361733 0.00000000
0.49746251 0.49746251 0.00000000
0.47131377 0.47131377 0.00000000
0.44523379 0.44523379 0.00000000
0.41928518 0.41928518 0.00000000
0.39353058 0.39353058 0.00000000
0.36803266 0.36803266 0.00000000
0.34285408 0.34285408 0.00000000
0.31805748 0.31805748 0.00000000
0.29370549 0.29370549 0.00000000
0.26986080 0.26986080 0.00000000
0.24658604 0.24658604 0.00000000
0.22394386 0.22394386 0.00000000
0.20199691 0.20199691 0.00000000
0.18080784 0.18080784 0.00000000
0.89243019 0.89243019 0.00000000
0.87473649 0.87473649 0.00000000
0.85604417 0.85604417 0.00000000
0.83641583 0.83641583 0.00000000
0.81591421 0.81591421 0.00000000
0.79460186 0.79460186 0.00000000
0.77254146 0.77254146 0.00000000
0.74979568 0.74979568 0.00000000
0.72642720 0.72642720 0.00000000
0.70249861 0.70249861 0.00000000
0.67807257 0.67807257 0.00000000
0.65321177 0.65321177 0.00000000
0.62797886 0.62797886 0.00000000
0.60243642 0.60243642 0.00000000
0.57664722 0.57664722 0.00000000
0.55067378 0.55067378 0.00000000
0.52457881 0.52457881 0.00000000
0.49842501 0.49842501 0.00000000
0.47227493 0.47227493 0.00000000
0.44619131 0.44619131 0.00000000
0.42023674 0.42023674 0.00000000
0.39447391 0.39447391 0.00000000
0.36896545 0.36896545 0.00000000
0.34377399 0.34377399 0.00000000
0.31896222 0.31896222 0.00000000
0.29459277 0.29459277 0.00000000
0.27072832 0.27072832 0.00000000
0.24743147 0.24743147 0.00000000
0.22476491 0.22476491 0.00000000
0.20279127 0.20279127 0.00000000
0.18157323 0.18157323 0.00000000
0.16117339 0.16117339 0.00000000
0.14165445 0.14165445 0.00000000
0.85674882 0.85674882 0.00000000
0.83715379 0.83715379 0.00000000
0.81668317 0.81668317 0.00000000
0.79539955 0.79539955 0.00000000
0.77336556 0.77336556 0.00000000
0.75064391 0.75064391 0.00000000
0.72729719 0.72729719 0.00000000
0.70338809 0.70338809 0.00000000
0.67897928 0.67897928 0.00000000
0.65413338 0.65413338 0.00000000
0.62891304 0.62891304 0.00000000
0.60338092 0.60338092 0.00000000
0.57759964 0.57759964 0.00000000
0.55163187 0.55163187 0.00000000
0.52554029 0.52554029 0.00000000
0.49938750 0.49938750 0.00000000
0.47323620 0.47323620 0.00000000
0.44714901 0.44714901 0.00000000
0.42118859 0.42118859 0.00000000
0.39541757 0.39541757 0.00000000
0.36989865 0.36989865 0.00000000
0.34469444 0.34469444 0.00000000
0.31986758 0.31986758 0.00000000
0.29548076 0.29548076 0.00000000
0.27159661 0.27159661 0.00000000
0.24827777 0.24827777 0.00000000
0.22558691 0.22558691 0.00000000
0.20358667 0.20358667 0.00000000
0.18233970 0.18233970 0.00000000
0.16190866 0.16190866 0.00000000
0.14235620 0.14235620 0.00000000
0.12374496 0.12374496 0.00000000
0.10613759 0.10613759 0.00000000
0.81745106 0.81745106 0.00000000
0.79619622 0.79619622 0.00000000
0.77418876 0.77418876 0.00000000
0.75149131 0.75149131 0.00000000
0.72816646 0.72816646 0.00000000
0.70427698 0.70427698 0.00000000
0.67988539 0.67988539 0.00000000
0.65505445 0.65505445 0.00000000
0.62984675 0.62984675 0.00000000
0.60432500 0.60432500 0.00000000
0.57855177 0.57855177 0.00000000
0.55258977 0.55258977 0.00000000
0.52650166 0.52650166 0.00000000
0.50035000 0.50035000 0.00000000
0.47419754 0.47419754 0.00000000
0.44810686 0.44810686 0.00000000
0.42214066 0.42214066 0.00000000
0.39636159 0.39636159 0.00000000
0.37083226 0.37083226 0.00000000
0.34561536 0.34561536 0.00000000
0.32077354 0.32077354 0.00000000
0.29636940 0.29636940 0.00000000
0.27246565 0.27246565 0.00000000
0.24912490 0.24912490 0.00000000
0.22640984 0.22640984 0.00000000
0.20438308 0.20438308 0.00000000
0.18310729 0.18310729 0.00000000
0.16264512 0.16264512 0.00000000
0.14305922 0.14305922 0.00000000
0.12441225 0.12441225 0.00000000
0.10676684 0.10676684 0.00000000
0.09018565 0.09018565 0.00000000
0.07473134 0.07473134 0.00000000
0.77501100 0.77501100 0.00000000
0.75233781 0.75233781 0.00000000
0.72903496 0.72903496 0.00000000
0.70516509 0.70516509 0.00000000
0.68079090 0.68079090 0.00000000
0.65597504 0.65597504 0.00000000
0.63078010 0.63078010 0.00000000
0.60526878 0.60526878 0.00000000
0.57950372 0.57950372 0.00000000
0.55354750 0.55354750 0.00000000
0.52746290 0.52746290 0.00000000
0.50131249 0.50131249 0.00000000
0.47515896 0.47515896 0.00000000
0.44906491 0.44906491 0.00000000
0.42309302 0.42309302 0.00000000
0.39730594 0.39730594 0.00000000
0.37176633 0.37176633 0.00000000
0.34653682 0.34653682 0.00000000
0.32168007 0.32168007 0.00000000
0.29725873 0.29725873 0.00000000
0.27333546 0.27333546 0.00000000
0.24997289 0.24997289 0.00000000
0.22723369 0.22723369 0.00000000
0.20518051 0.20518051 0.00000000
0.18387598 0.18387598 0.00000000
0.16338277 0.16338277 0.00000000
0.14376353 0.14376353 0.00000000
0.12508090 0.12508090 0.00000000
0.10739753 0.10739753 0.00000000
0.09077608 0.09077608 0.00000000
0.07527920 0.07527920 0.00000000
0.06096954 0.06096954 0.00000000
0.04790974 0.04790974 0.00000000
0.72990268 0.72990268 0.00000000
0.70605260 0.70605260 0.00000000
0.68169582 0.68169582 0.00000000
0.65689510 0.65689510 0.00000000
0.63171297 0.63171297 0.00000000
0.60621220 0.60621220 0.00000000
0.58045536 0.58045536 0.00000000
0.55450511 0.55450511 0.00000000
0.52842408 0.52842408 0.00000000
0.50227499 0.50227499 0.00000000
0.47612044 0.47612044 0.00000000
0.45002311 0.45002311 0.00000000
0.42404562 0.42404562 0.00000000
0.39825064 0.39825064 0.00000000
0.37270081 0.37270081 0.00000000
0.34745878 0.34745878 0.00000000
0.32258719 0.32258719 0.00000000
0.29814872 0.29814872 0.00000000
0.27420601 0.27420601 0.00000000
0.25082174 0.25082174 0.00000000
0.22805849 0.22805849 0.00000000
0.20597894 0.20597894 0.00000000
0.18464577 0.18464577 0.00000000
0.16412160 0.16412160 0.00000000
0.14446910 0.14446910 0.00000000
0.12575090 0.12575090 0.00000000
0.10802966 0.10802966 0.00000000
0.09136803 0.09136803 0.00000000
0.07582866 0.07582866 0.00000000
0.06147422 0.06147422 0.00000000
0.04836733 0.04836733 0.00000000
0.03657065 0.03657065 0.00000000
0.02614684 0.02614684 0.00000000
0.68260014 0.68260014 0.00000000
0.65781462 0.65781462 0.00000000
0.63264543 0.63264543 0.00000000
0.60715526 0.60715526 0.00000000
0.58140671 0.58140671 0.00000000
0.55546248 0.55546248 0.00000000
0.52938521 0.52938521 0.00000000
0.50323749 0.50323749 0.00000000
0.47708201 0.47708201 0.00000000
0.45098147 0.45098147 0.00000000
0.42499846 0.42499846 0.00000000
0.39919564 0.39919564 0.00000000
0.37363568 0.37363568 0.00000000
0.34838122 0.34838122 0.00000000
0.32349491 0.32349491 0.00000000
0.29903942 0.29903942 0.00000000
0.27507734 0.27507734 0.00000000
0.25167140 0.25167140 0.00000000
0.22888419 0.22888419 0.00000000
0.20677839 0.20677839 0.00000000
0.18541665 0.18541665 0.00000000
0.16486160 0.16486160 0.00000000
0.14517592 0.14517592 0.00000000
0.12642224 0.12642224 0.00000000
0.10866322 0.10866322 0.00000000
0.09196150 0.09196150 0.00000000
0.07637974 0.07637974 0.00000000
0.06198059 0.06198059 0.00000000
0.04882669 0.04882669 0.00000000
0.03698070 0.03698070 0.00000000
0.02650527 0.02650527 0.00000000
0.01746306 0.01746306 0.00000000
0.00991670 0.00991670 0.00000000
0.63357747 0.63357747 0.00000000
0.60809797 0.60809797 0.00000000
0.58235782 0.58235782 0.00000000
0.55641967 0.55641967 0.00000000
0.53034616 0.53034616 0.00000000
0.50419998 0.50419998 0.00000000
0.47804368 0.47804368 0.00000000
0.45194000 0.45194000 0.00000000
0.42595154 0.42595154 0.00000000
0.40014100 0.40014100 0.00000000
0.37457100 0.37457100 0.00000000
0.34930417 0.34930417 0.00000000
0.32440323 0.32440323 0.00000000
0.29993075 0.29993075 0.00000000
0.27594942 0.27594942 0.00000000
0.25252190 0.25252190 0.00000000
0.22971083 0.22971083 0.00000000
0.20757885 0.20757885 0.00000000
0.18618862 0.18618862 0.00000000
0.16560279 0.16560279 0.00000000
0.14588402 0.14588402 0.00000000
0.12709494 0.12709494 0.00000000
0.10929821 0.10929821 0.00000000
0.09255648 0.09255648 0.00000000
0.07693241 0.07693241 0.00000000
0.06248864 0.06248864 0.00000000
0.04928782 0.04928782 0.00000000
0.03739261 0.03739261 0.00000000
0.02686565 0.02686565 0.00000000
0.01776959 0.01776959 0.00000000
0.01016709 0.01016709 0.00000000
0.00412080 0.00412080 0.00000000
0.00031835 0.00031835 0.00000000
0.58330870 0.58330870 0.00000000
0.55737674 0.55737674 0.00000000
0.53130710 0.53130710 0.00000000
0.50516242 0.50516242 0.00000000
0.47900540 0.47900540 0.00000000
0.45289868 0.45289868 0.00000000
0.42690489 0.42690489 0.00000000
0.40108666 0.40108666 0.00000000
0.37550670 0.37550670 0.00000000
0.35022762 0.35022762 0.00000000
0.32531211 0.32531211 0.00000000
0.30082276 0.30082276 0.00000000
0.27682227 0.27682227 0.00000000
0.25337324 0.25337324 0.00000000
0.23053838 0.23053838 0.00000000
0.20838031 0.20838031 0.00000000
0.18696168 0.18696168 0.00000000
0.16634515 0.16634515 0.00000000
0.14659336 0.14659336 0.00000000
0.12776898 0.12776898 0.00000000
0.10993463 0.10993463 0.00000000
0.09315298 0.09315298 0.00000000
0.07748668 0.07748668 0.00000000
0.06299838 0.06299838 0.00000000
0.04975072 0.04975072 0.00000000
0.03780637 0.03780637 0.00000000
0.02722796 0.02722796 0.00000000
0.01807815 0.01807815 0.00000000
0.01041960 0.01041960 0.00000000
0.00431494 0.00431494 0.00000000
0.00017684 0.00017684 0.00000000
0.00481898 0.00481898 0.00000000
0.01107181 0.01107181 0.00000000
0.53226787 0.53226787 0.00000000
0.50612485 0.50612485 0.00000000
0.47996718 0.47996718 0.00000000
0.45385751 0.45385751 0.00000000
0.42785844 0.42785844 0.00000000
0.40203267 0.40203267 0.00000000
0.37644282 0.37644282 0.00000000
0.35115159 0.35115159 0.00000000
0.32622156 0.32622156 0.00000000
0.30171543 0.30171543 0.00000000
0.27769583 0.27769583 0.00000000
0.25422543 0.25422543 0.00000000
0.23136686 0.23136686 0.00000000
0.20918277 0.20918277 0.00000000
0.18773584 0.18773584 0.00000000
0.16708869 0.16708869 0.00000000
0.14730397 0.14730397 0.00000000
0.12844436 0.12844436 0.00000000
0.11057247 0.11057247 0.00000000
0.09375099 0.09375099 0.00000000
0.07804254 0.07804254 0.00000000
0.06350979 0.06350979 0.00000000
0.05021539 0.05021539 0.00000000
0.03822197 0.03822197 0.00000000
0.02759220 0.02759220 0.00000000
0.01838873 0.01838873 0.00000000
0.01067420 0.01067420 0.00000000
0.00451127 0.00451127 0.00000000
0.00003758 0.00003758 0.00000000
0.00461928 0.00461928 0.00000000
0.01081396 0.01081396 0.00000000
0.01855898 0.01855898 0.00000000
0.02779170 0.02779170 0.00000000
0.48092905 0.48092905 0.00000000
0.45481649 0.45481649 0.00000000
0.42881224 0.42881224 0.00000000
0.40297899 0.40297899 0.00000000
0.37737936 0.37737936 0.00000000
0.35207599 0.35207599 0.00000000
0.32713160 0.32713160 0.00000000
0.30260876 0.30260876 0.00000000
0.27857015 0.27857015 0.00000000
0.25507843 0.25507843 0.00000000
0.23219624 0.23219624 0.00000000
0.20998624 0.20998624 0.00000000
0.18851107 0.18851107 0.00000000
0.16783339 0.16783339 0.00000000
0.14801583 0.14801583 0.00000000
0.12912107 0.12912107 0.00000000
0.11121174 0.11121174 0.00000000
0.09435050 0.09435050 0.00000000
0.07860000 0.07860000 0.00000000
0.06402288 0.06402288 0.00000000
0.05068181 0.05068181 0.00000000
0.03863942 0.03863942 0.00000000
0.02795838 0.02795838 0.00000000
0.01870132 0.01870132 0.00000000
0.01093091 0.01093091 0.00000000
0.00470978 0.00470978 0.00000000
0.00010060 0.00010060 0.00000000
0.00442176 0.00442176 0.00000000
0.01055821 0.01055821 0.00000000
0.01824731 0.01824731 0.00000000
0.02742640 0.02742640 0.00000000
0.03803283 0.03803283 0.00000000
0.05000396 0.05000396 0.00000000
0.42976627 0.42976627 0.00000000
0.40392563 0.40392563 0.00000000
0.37831628 0.37831628 0.00000000
0.35300091 0.35300091 0.00000000
0.32804218 0.32804218 0.00000000
0.30350274 0.30350274 0.00000000
0.27944520 0.27944520 0.00000000
0.25593224 0.25593224 0.00000000
0.23302653 0.23302653 0.00000000
0.21079069 0.21079069 0.00000000
0.18928738 0.18928738 0.00000000
0.16857925 0.16857925 0.00000000
0.14872894 0.14872894 0.00000000
0.12979911 0.12979911 0.00000000
0.11185243 0.11185243 0.00000000
0.09495152 0.09495152 0.00000000
0.07915904 0.07915904 0.00000000
0.06453765 0.06453765 0.00000000
0.05114999 0.05114999 0.00000000
0.03905872 0.03905872 0.00000000
0.02832648 0.02832648 0.00000000
0.01901593 0.01901593 0.00000000
0.01118971 0.01118971 0.00000000
0.00491048 0.00491048 0.00000000
0.00024088 0.00024088 0.00000000
0.00422643 0.00422643 0.00000000
0.01030456 0.01030456 0.00000000
0.01793765 0.01793765 0.00000000
0.02706303 0.02706303 0.00000000
0.03761806 0.03761806 0.00000000
0.04954010 0.04954010 0.00000000
0.06276647 0.06276647 0.00000000
0.07723454 0.07723454 0.00000000
0.37925360 0.37925360 0.00000000
0.35392633 0.35392633 0.00000000
0.32895336 0.32895336 0.00000000
0.30439737 0.30439737 0.00000000
0.28032100 0.28032100 0.00000000
0.25678691 0.25678691 0.00000000
0.23385774 0.23385774 0.00000000
0.21159613 0.21159613 0.00000000
0.19006476 0.19006476 0.00000000
0.16932626 0.16932626 0.00000000
0.14944330 0.14944330 0.00000000
0.13047850 0.13047850 0.00000000
0.11249453 0.11249453 0.00000000
0.09555404 0.09555404 0.00000000
0.07971967 0.07971967 0.00000000
0.06505409 0.06505409 0.00000000
0.05161993 0.05161993 0.00000000
0.03947985 0.03947985 0.00000000
0.02869651 0.02869651 0.00000000
0.01933254 0.01933254 0.00000000
0.01145060 0.01145060 0.00000000
0.00511335 0.00511335 0.00000000
0.00038343 0.00038343 0.00000000
0.00403328 0.00403328 0.00000000
0.01005302 0.01005302 0.00000000
0.01763001 0.01763001 0.00000000
0.02670160 0.02670160 0.00000000
0.03720515 0.03720515 0.00000000
0.04907800 0.04907800 0.00000000
0.06225750 0.06225750 0.00000000
0.07668100 0.07668100 0.00000000
0.09228585 0.09228585 0.00000000
0.10900940 0.10900940 0.00000000
0.32986510 0.32986510 0.00000000
0.30529267 0.30529267 0.00000000
0.28119752 0.28119752 0.00000000
0.25764239 0.25764239 0.00000000
0.23468983 0.23468983 0.00000000
0.21240257 0.21240257 0.00000000
0.19084322 0.19084322 0.00000000
0.17007445 0.17007445 0.00000000
0.15015888 0.15015888 0.00000000
0.13115920 0.13115920 0.00000000
0.11313804 0.11313804 0.00000000
0.09615805 0.09615805 0.00000000
0.08028188 0.08028188 0.00000000
0.06557219 0.06557219 0.00000000
0.05209162 0.05209162 0.00000000
0.03990282 0.03990282 0.00000000
0.02906845 0.02906845 0.00000000
0.01965116 0.01965116 0.00000000
0.01171359 0.01171359 0.00000000
0.00531840 0.00531840 0.00000000
0.00052823 0.00052823 0.00000000
0.00384233 0.00384233 0.00000000
0.00980358 0.00980358 0.00000000
0.01732439 0.01732439 0.00000000
0.02634211 0.02634211 0.00000000
0.03679409 0.03679409 0.00000000
0.04861767 0.04861767 0.00000000
0.06175021 0.06175021 0.00000000
0.07612905 0.07612905 0.00000000
0.09169155 0.09169155 0.00000000
0.10837506 0.10837506 0.00000000
0.12611692 0.12611692 0.00000000
0.14485449 0.14485449 0.00000000
0.28207478 0.28207478 0.00000000
0.25849867 0.25849867 0.00000000
0.23552284 0.23552284 0.00000000
0.21320999 0.21320999 0.00000000
0.19162275 0.19162275 0.00000000
0.17082378 0.17082378 0.00000000
0.15087573 0.15087573 0.00000000
0.13184124 0.13184124 0.00000000
0.11378296 0.11378296 0.00000000
0.09676356 0.09676356 0.00000000
0.08084567 0.08084567 0.00000000
0.06609195 0.06609195 0.00000000
0.05256505 0.05256505 0.00000000
0.04032763 0.04032763 0.00000000
0.02944232 0.02944232 0.00000000
0.01997178 0.01997178 0.00000000
0.01197866 0.01197866 0.00000000
0.00552562 0.00552562 0.00000000
0.00067530 0.00067530 0.00000000
0.00365357 0.00365357 0.00000000
0.00955626 0.00955626 0.00000000
0.01702080 0.01702080 0.00000000
0.02598456 0.02598456 0.00000000
0.03638488 0.03638488 0.00000000
0.04815911 0.04815911 0.00000000
0.06124460 0.06124460 0.00000000
0.07557871 0.07557871 0.00000000
0.09109877 0.09109877 0.00000000
0.10774215 0.10774215 0.00000000
0.12544619 0.12544619 0.00000000
0.14414822 0.14414822 0.00000000
0.16378562 0.16378562 0.00000000
0.18429573 0.18429573 0.00000000
0.23635675 0.23635675 0.00000000
0.21401839 0.21401839 0.00000000
0.19240335 0.19240335 0.00000000
0.17157426 0.17157426 0.00000000
0.15159380 0.15159380 0.00000000
0.13252459 0.13252459 0.00000000
0.11442930 0.11442930 0.00000000
0.09737056 0.09737056 0.00000000
0.08141103 0.08141103 0.00000000
0.06661338 0.06661338 0.00000000
0.05304024 0.05304024 0.00000000
0.04075426 0.04075426 0.00000000
0.02981810 0.02981810 0.00000000
0.02029440 0.02029440 0.00000000
0.01224582 0.01224582 0.00000000
0.00573501 0.00573501 0.00000000
0.00082461 0.00082461 0.00000000
0.00346702 0.00346702 0.00000000
0.00931104 0.00931104 0.00000000
0.01671924 0.01671924 0.00000000
0.02562895 0.02562895 0.00000000
0.03597753 0.03597753 0.00000000
0.04770233 0.04770233 0.00000000
0.06074069 0.06074069 0.00000000
0.07502997 0.07502997 0.00000000
0.09050751 0.09050751 0.00000000
0.10711067 0.10711067 0.00000000
0.12477680 0.12477680 0.00000000
0.14344323 0.14344323 0.00000000
0.16304733 0.16304733 0.00000000
0.18352644 0.18352644 0.00000000
0.20481791 0.20481791 0.00000000
0.22685909 0.22685909 0.00000000
0.19318502 0.19318502 0.00000000
0.17232591 0.17232591 0.00000000
0.15231310 0.15231310 0.00000000
0.13320926 0.13320926 0.00000000
0.11507703 0.11507703 0.00000000
0.09797905 0.09797905 0.00000000
0.08197797 0.08197797 0.00000000
0.06713646 0.06713646 0.00000000
0.05351716 0.05351716 0.00000000
0.04118272 0.04118272 0.00000000
0.03019579 0.03019579 0.00000000
0.02061902 0.02061902 0.00000000
0.01251506 0.01251506 0.00000000
0.00594656 0.00594656 0.00000000
0.00097618 0.00097618 0.00000000
0.00328266 0.00328266 0.00000000
0.00906795 0.00906795 0.00000000
0.01641971 0.01641971 0.00000000
0.02527529 0.02527529 0.00000000
0.03557205 0.03557205 0.00000000
0.04724732 0.04724732 0.00000000
0.06023847 0.06023847 0.00000000
0.07448284 0.07448284 0.00000000
0.08991778 0.08991778 0.00000000
0.10648064 0.10648064 0.00000000
0.12410876 0.12410876 0.00000000
0.14273950 0.14273950 0.00000000
0.16231023 0.16231023 0.00000000
0.18275826 0.18275826 0.00000000
0.20402095 0.20402095 0.00000000
0.22603565 0.22603565 0.00000000
0.24873973 0.24873973 0.00000000
0.27207053 0.27207053 0.00000000
0.15303364 0.15303364 0.00000000
0.13389525 0.13389525 0.00000000
0.11572615 0.11572615 0.00000000
0.09858902 0.09858902 0.00000000
0.08254648 0.08254648 0.00000000
0.06766120 0.06766120 0.00000000
0.05399583 0.05399583 0.00000000
0.04161300 0.04161300 0.00000000
0.03057539 0.03057539 0.00000000
0.02094563 0.02094563 0.00000000
0.01278638 0.01278638 0.00000000
0.00616028 0.00616028 0.00000000
0.00112999 0.00112999 0.00000000
0.00310051 0.00310051 0.00000000
0.00882697 0.00882697 0.00000000
0.01612221 0.01612221 0.00000000
0.02492358 0.02492358 0.00000000
0.03516843 0.03516843 0.00000000
0.04679410 0.04679410 0.00000000
0.05973795 0.05973795 0.00000000
0.07393733 0.07393733 0.00000000
0.08932957 0.08932957 0.00000000
0.10585205 0.10585205 0.00000000
0.12344209 0.12344209 0.00000000
0.14203706 0.14203706 0.00000000
0.16157430 0.16157430 0.00000000
0.18199116 0.18199116 0.00000000
0.20322500 0.20322500 0.00000000
0.22521316 0.22521316 0.00000000
0.24789298 0.24789298 0.00000000
0.27120182 0.27120182 0.00000000
0.29507706 0.29507706 0.00000000
