YELLOW Major/YELLOW Major.cube
# VEGAS Pro LUT
TITLE "YELLOW Major"
LUT_3D_SIZE 9
1.00000000 1.00000000 0.00000000
0.97230810 0.97230810 0.00000000
0.92180556 0.92180556 0.00000000
0.85250199 0.85250199 0.00000000
0.76840705 0.76840705 0.00000000
0.67353028 0.67353028 0.00000000
0.57188147 0.57188147 0.00000000
0.46747011 0.46747011 0.00000000
0.36430591 0.36430591 0.00000000
0.92402118 0.92402118 0.00000000
0.85533828 0.85533828 0.00000000
0.77171642 0.77171642 0.00000000
0.67716527 0.67716527 0.00000000
0.57569456 0.57569456 0.00000000
0.47131377 0.47131377 0.00000000
0.36803266 0.36803266 0.00000000
0.26986080 0.26986080 0.00000000
0.18080784 0.18080784 0.00000000
0.77501100 0.77501100 0.00000000
0.68079090 0.68079090 0.00000000
0.57950372 0.57950372 0.00000000
0.47515896 0.47515896 0.00000000
0.37176633 0.37176633 0.00000000
0.27333546 0.27333546 0.00000000
0.18387598 0.18387598 0.00000000
0.10739753 0.10739753 0.00000000
0.04790974 0.04790974 0.00000000
0.58330870 0.58330870 0.00000000
0.47900540 0.47900540 0.00000000
0.37550670 0.37550670 0.00000000
0.27682227 0.27682227 0.00000000
0.18696168 0.18696168 0.00000000
0.10993463 0.10993463 0.00000000
0.04975072 0.04975072 0.00000000
0.01041960 0.01041960 0.00000000
0.01107181 0.01107181 0.00000000
0.37925360 0.37925360 0.00000000
0.28032100 0.28032100 0.00000000
0.19006476 0.19006476 0.00000000
0.11249453 0.11249453 0.00000000
0.05161993 0.05161993 0.00000000
0.01145060 0.01145060 0.00000000
0.01005302 0.01005302 0.00000000
0.04907800 0.04907800 0.00000000
0.10900940 0.10900940 0.00000000
0.19318502 0.19318502 0.00000000
0.11507703 0.11507703 0.00000000
0.05351716 0.05351716 0.00000000
0.01251506 0.01251506 0.00000000
0.00906795 0.00906795 0.00000000
0.04724732 0.04724732 0.00000000
0.10648064 0.10648064 0.00000000
0.18275826 0.18275826 0.00000000
0.27207053 0.27207053 0.00000000
0.05544222 0.05544222 0.00000000
0.01361277 0.01361277 0.00000000
0.00811680 0.00811680 0.00000000
0.04544515 0.04544515 0.00000000
0.10397495 0.10397495 0.00000000
0.17969655 0.17969655 0.00000000
0.26860034 0.26860034 0.00000000
0.36667666 0.36667666 0.00000000
0.46991590 0.46991590 0.00000000
0.00719977 0.00719977 0.00000000
0.04367167 0.04367167 0.00000000
0.10149252 0.10149252 0.00000000
0.17665270 0.17665270 0.00000000
0.26514256 0.26514256 0.00000000
0.36295247 0.36295247 0.00000000
0.46607283 0.46607283 0.00000000
0.57049394 0.57049394 0.00000000
0.67220622 0.67220622 0.00000000
0.09903356 0.09903356 0.00000000
0.17362688 0.17362688 0.00000000
0.26169738 0.26169738 0.00000000
0.35923547 0.35923547 0.00000000
0.46223149 0.46223149 0.00000000
0.56667578 0.56667578 0.00000000
0.66855878 0.66855878 0.00000000
0.76387078 0.76387078 0.00000000
0.84860218 0.84860218 0.00000000
0.99238765 0.99238765 0.00000000
0.95552576 0.95552576 0.00000000
0.89738202 0.89738202 0.00000000
0.82196593 0.82196593 0.00000000
0.73328727 0.73328727 0.00000000
0.63535559 0.63535559 0.00000000
0.53218055 0.53218055 0.00000000
0.42777175 0.42777175 0.00000000
0.32613885 0.32613885 0.00000000
0.89985168 0.89985168 0.00000000
0.82499999 0.82499999 0.00000000
0.73673820 0.73673820 0.00000000
0.63907588 0.63907588 0.00000000
0.53602266 0.53602266 0.00000000
0.43158823 0.43158823 0.00000000
0.32978219 0.32978219 0.00000000
0.23461415 0.23461415 0.00000000
0.15009378 0.15009378 0.00000000
0.74017638 0.74017638 0.00000000
0.64278889 0.64278889 0.00000000
0.53986299 0.53986299 0.00000000
0.43540829 0.43540829 0.00000000
0.33343449 0.33343449 0.00000000
0.23795122 0.23795122 0.00000000
0.15296808 0.15296808 0.00000000
0.08249474 0.08249474 0.00000000
0.03054080 0.03054080 0.00000000
0.54370117 0.54370117 0.00000000
0.43923169 0.43923169 0.00000000
0.33709559 0.33709559 0.00000000
0.24130249 0.24130249 0.00000000
0.15586202 0.15586202 0.00000000
0.08478382 0.08478382 0.00000000
0.03207753 0.03207753 0.00000000
0.00175278 0.00175278 0.00000000
0.02356750 0.02356750 0.00000000
0.34076527 0.34076527 0.00000000
0.24466778 0.24466778 0.00000000
0.15877540 0.15877540 0.00000000
0.08709778 0.08709778 0.00000000
0.03364456 0.03364456 0.00000000
0.00242536 0.00242536 0.00000000
0.02221097 0.02221097 0.00000000
0.06967990 0.06967990 0.00000000
0.13652651 0.13652651 0.00000000
0.16170801 0.16170801 0.00000000
0.08943640 0.08943640 0.00000000
0.03524167 0.03524167 0.00000000
0.00313346 0.00313346 0.00000000
0.02088610 0.02088610 0.00000000
0.06756567 0.06756567 0.00000000
0.13377042 0.13377042 0.00000000
0.21549071 0.21549071 0.00000000
0.30871692 0.30871692 0.00000000
0.03686869 0.03686869 0.00000000
0.00387688 0.00387688 0.00000000
0.01959308 0.01959308 0.00000000
0.06547786 0.06547786 0.00000000
0.13103534 0.13103534 0.00000000
0.21225587 0.21225587 0.00000000
0.30512983 0.30512983 0.00000000
0.40564758 0.40564758 0.00000000
0.50979948 0.50979948 0.00000000
0.01833211 0.01833211 0.00000000
0.06341668 0.06341668 0.00000000
0.12832145 0.12832145 0.00000000
0.20903680 0.20903680 0.00000000
0.30155307 0.30155307 0.00000000
0.40186065 0.40186065 0.00000000
0.50594985 0.50594985 0.00000000
0.60981113 0.60981113 0.00000000
0.70943481 0.70943481 0.00000000
0.12562898 0.12562898 0.00000000
0.20583370 0.20583370 0.00000000
0.29798687 0.29798687 0.00000000
0.39807883 0.39807883 0.00000000
0.50209999 0.50209999 0.00000000
0.60604066 0.60604066 0.00000000
0.70589125 0.70589125 0.00000000
0.79764217 0.79764217 0.00000000
0.87728363 0.87728363 0.00000000
0.98109871 0.98109871 0.00000000
0.93564975 0.93564975 0.00000000
0.87044758 0.87044758 0.00000000
0.78950197 0.78950197 0.00000000
0.69682240 0.69682240 0.00000000
0.59641868 0.59641868 0.00000000
0.49230027 0.49230027 0.00000000
0.38847691 0.38847691 0.00000000
0.28895819 0.28895819 0.00000000
0.87314981 0.87314981 0.00000000
0.79271233 0.79271233 0.00000000
0.70039344 0.70039344 0.00000000
0.60020280 0.60020280 0.00000000
0.49615005 0.49615005 0.00000000
0.39224479 0.39224479 0.00000000
0.29249665 0.29249665 0.00000000
0.20091534 0.20091534 0.00000000
0.12151042 0.12151042 0.00000000
0.70395380 0.70395380 0.00000000
0.60398173 0.60398173 0.00000000
0.50000000 0.50000000 0.00000000
0.39601827 0.39601827 0.00000000
0.29604617 0.29604617 0.00000000
0.20409335 0.20409335 0.00000000
0.12416944 0.12416944 0.00000000
0.06028406 0.06028406 0.00000000
0.01644685 0.01644685 0.00000000
0.50384998 0.50384998 0.00000000
0.39979720 0.39979720 0.00000000
0.29960656 0.29960656 0.00000000
0.20728765 0.20728765 0.00000000
0.12685017 0.12685017 0.00000000
0.06230370 0.06230370 0.00000000
0.01765789 0.01765789 0.00000000
0.00509482 0.00509482 0.00000000
0.03944149 0.03944149 0.00000000
0.30317757 0.30317757 0.00000000
0.21049805 0.21049805 0.00000000
0.12955239 0.12955239 0.00000000
0.06435027 0.06435027 0.00000000
0.01890129 0.01890129 0.00000000
0.00429720 0.00429720 0.00000000
0.03776867 0.03776867 0.00000000
0.09309869 0.09309869 0.00000000
0.16627762 0.16627762 0.00000000
0.13227594 0.13227594 0.00000000
0.06642358 0.06642358 0.00000000
0.02017685 0.02017685 0.00000000
0.00353460 0.00353460 0.00000000
0.03612544 0.03612544 0.00000000
0.09072234 0.09072234 0.00000000
0.16331567 0.16331567 0.00000000
0.24989577 0.24989577 0.00000000
0.34645304 0.34645304 0.00000000
0.02148438 0.02148438 0.00000000
0.00280721 0.00280721 0.00000000
0.03451199 0.03451199 0.00000000
0.08837035 0.08837035 0.00000000
0.16037263 0.16037263 0.00000000
0.24650922 0.24650922 0.00000000
0.34277046 0.34277046 0.00000000
0.44514674 0.44514674 0.00000000
0.54962844 0.54962844 0.00000000
0.03292853 0.03292853 0.00000000
0.08604291 0.08604291 0.00000000
0.15744874 0.15744874 0.00000000
0.24313638 0.24313638 0.00000000
0.33909619 0.33909619 0.00000000
0.44131854 0.44131854 0.00000000
0.54579377 0.54579377 0.00000000
0.64851230 0.64851230 0.00000000
0.74546450 0.74546450 0.00000000
0.15454417 0.15454417 0.00000000
0.23977743 0.23977743 0.00000000
0.33543038 0.33543038 0.00000000
0.43749338 0.43749338 0.00000000
0.54195678 0.54195678 0.00000000
0.64481097 0.64481097 0.00000000
0.74204636 0.74204636 0.00000000
0.82965320 0.82965320 0.00000000
0.90362191 0.90362191 0.00000000
0.96635544 0.96635544 0.00000000
0.91290224 0.91290224 0.00000000
0.84122461 0.84122461 0.00000000
0.75533223 0.75533223 0.00000000
0.65923470 0.65923470 0.00000000
0.55694175 0.55694175 0.00000000
0.45246288 0.45246288 0.00000000
0.34980783 0.34980783 0.00000000
0.25298616 0.25298616 0.00000000
0.84413797 0.84413797 0.00000000
0.75869751 0.75869751 0.00000000
0.66290438 0.66290438 0.00000000
0.56076831 0.56076831 0.00000000
0.45629883 0.45629883 0.00000000
0.35350561 0.35350561 0.00000000
0.25639832 0.25639832 0.00000000
0.16898656 0.16898656 0.00000000
0.09527998 0.09527998 0.00000000
0.66656548 0.66656548 0.00000000
0.56459171 0.56459171 0.00000000
0.46013704 0.46013704 0.00000000
0.35721111 0.35721111 0.00000000
0.25982359 0.25982359 0.00000000
0.17198411 0.17198411 0.00000000
0.09770227 0.09770227 0.00000000
0.04098774 0.04098774 0.00000000
0.00585013 0.00585013 0.00000000
0.46397731 0.46397731 0.00000000
0.36092412 0.36092412 0.00000000
0.26326180 0.26326180 0.00000000
0.17500000 0.17500000 0.00000000
0.10014835 0.10014835 0.00000000
0.04271648 0.04271648 0.00000000
0.00671403 0.00671403 0.00000000
0.01537416 0.01537416 0.00000000
0.05847156 0.05847156 0.00000000
0.26671273 0.26671273 0.00000000
0.17803404 0.17803404 0.00000000
0.10261799 0.10261799 0.00000000
0.04447423 0.04447423 0.00000000
0.00761236 0.00761236 0.00000000
0.01422546 0.01422546 0.00000000
0.05650390 0.05650390 0.00000000
0.11911213 0.11911213 0.00000000
0.19804052 0.19804052 0.00000000
0.10511103 0.10511103 0.00000000
0.04626077 0.04626077 0.00000000
0.00854492 0.00854492 0.00000000
0.01310970 0.01310970 0.00000000
0.05456375 0.05456375 0.00000000
0.11649511 0.11649511 0.00000000
0.19489412 0.19489412 0.00000000
0.28575116 0.28575116 0.00000000
0.38505661 0.38505661 0.00000000
0.00951151 0.00951151 0.00000000
0.01202708 0.01202708 0.00000000
0.05265132 0.05265132 0.00000000
0.11390037 0.11390037 0.00000000
0.19176459 0.19176459 0.00000000
0.28223437 0.28223437 0.00000000
0.38130003 0.38130003 0.00000000
0.48495197 0.48495197 0.00000000
0.58918059 0.58918059 0.00000000
0.05076680 0.05076680 0.00000000
0.11132812 0.11132812 0.00000000
0.18865213 0.18865213 0.00000000
0.27872920 0.27872920 0.00000000
0.37754968 0.37754968 0.00000000
0.48110393 0.48110393 0.00000000
0.58538234 0.58538234 0.00000000
0.68637526 0.68637526 0.00000000
0.78007305 0.78007305 0.00000000
0.18555693 0.18555693 0.00000000
0.27523586 0.27523586 0.00000000
0.37380570 0.37380570 0.00000000
0.47725686 0.47725686 0.00000000
0.58157969 0.58157969 0.00000000
0.68276453 0.68276453 0.00000000
0.77680176 0.77680176 0.00000000
0.85968173 0.85968173 0.00000000
0.92739481 0.92739481 0.00000000
0.94838005 0.94838005 0.00000000
0.88750547 0.88750547 0.00000000
0.80993521 0.80993521 0.00000000
0.71967900 0.71967900 0.00000000
0.62074637 0.62074637 0.00000000
0.51714706 0.51714706 0.00000000
0.41289061 0.41289061 0.00000000
0.31198671 0.31198671 0.00000000
0.21844500 0.21844500 0.00000000
0.81303829 0.81303829 0.00000000
0.72317773 0.72317773 0.00000000
0.62449330 0.62449330 0.00000000
0.52099460 0.52099460 0.00000000
0.41669130 0.41669130 0.00000000
0.31559303 0.31559303 0.00000000
0.22170940 0.22170940 0.00000000
0.13905008 0.13905008 0.00000000
0.07162470 0.07162470 0.00000000
0.62823367 0.62823367 0.00000000
0.52484107 0.52484107 0.00000000
0.42049631 0.42049631 0.00000000
0.31920907 0.31920907 0.00000000
0.22498900 0.22498900 0.00000000
0.14184570 0.14184570 0.00000000
0.07378883 0.07378883 0.00000000
0.02482800 0.02482800 0.00000000
0.00117233 0.00117233 0.00000000
0.42430547 0.42430547 0.00000000
0.32283470 0.32283470 0.00000000
0.22828358 0.22828358 0.00000000
0.14466174 0.14466174 0.00000000
0.07597880 0.07597880 0.00000000
0.02624440 0.02624440 0.00000000
0.00056812 0.00056812 0.00000000
0.02917022 0.02917022 0.00000000
0.08043548 0.08043548 0.00000000
0.23159297 0.23159297 0.00000000
0.14749800 0.14749800 0.00000000
0.07819442 0.07819442 0.00000000
0.02769188 0.02769188 0.00000000
0.00000000 0.00000000 0.00000000
0.02769188 0.02769188 0.00000000
0.07819442 0.07819442 0.00000000
0.14749800 0.14749800 0.00000000
0.23159297 0.23159297 0.00000000
0.08043548 0.08043548 0.00000000
0.02917022 0.02917022 0.00000000
0.00056812 0.00056812 0.00000000
0.02624440 0.02624440 0.00000000
0.07597880 0.07597880 0.00000000
0.14466174 0.14466174 0.00000000
0.22828358 0.22828358 0.00000000
0.32283470 0.32283470 0.00000000
0.42430547 0.42430547 0.00000000
0.00117233 0.00117233 0.00000000
0.02482800 0.02482800 0.00000000
0.07378883 0.07378883 0.00000000
0.14184570 0.14184570 0.00000000
0.22498900 0.22498900 0.00000000
0.31920907 0.31920907 0.00000000
0.42049631 0.42049631 0.00000000
0.52484107 0.52484107 0.00000000
0.62823367 0.62823367 0.00000000
0.07162470 0.07162470 0.00000000
0.13905008 0.13905008 0.00000000
0.22170940 0.22170940 0.00000000
0.31559303 0.31559303 0.00000000
0.41669130 0.41669130 0.00000000
0.52099460 0.52099460 0.00000000
0.62449330 0.62449330 0.00000000
0.72317773 0.72317773 0.00000000
0.81303829 0.81303829 0.00000000
0.21844500 0.21844500 0.00000000
0.31198671 0.31198671 0.00000000
0.41289061 0.41289061 0.00000000
0.51714706 0.51714706 0.00000000
0.62074637 0.62074637 0.00000000
0.71967900 0.71967900 0.00000000
0.80993521 0.80993521 0.00000000
0.88750547 0.88750547 0.00000000
0.94838005 0.94838005 0.00000000
0.92739481 0.92739481 0.00000000
0.85968173 0.85968173 0.00000000
0.77680176 0.77680176 0.00000000
0.68276453 0.68276453 0.00000000
0.58157969 0.58157969 0.00000000
0.47725686 0.47725686 0.00000000
0.37380570 0.37380570 0.00000000
0.27523586 0.27523586 0.00000000
0.18555693 0.18555693 0.00000000
0.78007305 0.78007305 0.00000000
0.68637526 0.68637526 0.00000000
0.58538234 0.58538234 0.00000000
0.48110393 0.48110393 0.00000000
0.37754968 0.37754968 0.00000000
0.27872920 0.27872920 0.00000000
0.18865213 0.18865213 0.00000000
0.11132812 0.11132812 0.00000000
0.05076680 0.05076680 0.00000000
0.58918059 0.58918059 0.00000000
0.48495197 0.48495197 0.00000000
0.38130003 0.38130003 0.00000000
0.28223437 0.28223437 0.00000000
0.19176459 0.19176459 0.00000000
0.11390037 0.11390037 0.00000000
0.05265132 0.05265132 0.00000000
0.01202708 0.01202708 0.00000000
0.00951151 0.00951151 0.00000000
0.38505661 0.38505661 0.00000000
0.28575116 0.28575116 0.00000000
0.19489412 0.19489412 0.00000000
0.11649511 0.11649511 0.00000000
0.05456375 0.05456375 0.00000000
0.01310970 0.01310970 0.00000000
0.00854492 0.00854492 0.00000000
0.04626077 0.04626077 0.00000000
0.10511103 0.10511103 0.00000000
0.19804052 0.19804052 0.00000000
0.11911213 0.11911213 0.00000000
0.05650390 0.05650390 0.00000000
0.01422546 0.01422546 0.00000000
0.00761236 0.00761236 0.00000000
0.04447423 0.04447423 0.00000000
0.10261799 0.10261799 0.00000000
0.17803404 0.17803404 0.00000000
0.26671273 0.26671273 0.00000000
0.05847156 0.05847156 0.00000000
0.01537416 0.01537416 0.00000000
0.00671403 0.00671403 0.00000000
0.04271648 0.04271648 0.00000000
0.10014835 0.10014835 0.00000000
0.17500000 0.17500000 0.00000000
0.26326180 0.26326180 0.00000000
0.36092412 0.36092412 0.00000000
0.46397731 0.46397731 0.00000000
0.00585013 0.00585013 0.00000000
0.04098774 0.04098774 0.00000000
0.09770227 0.09770227 0.00000000
0.17198411 0.17198411 0.00000000
0.25982359 0.25982359 0.00000000
0.35721111 0.35721111 0.00000000
0.46013704 0.46013704 0.00000000
0.56459171 0.56459171 0.00000000
0.66656548 0.66656548 0.00000000
0.09527998 0.09527998 0.00000000
0.16898656 0.16898656 0.00000000
0.25639832 0.25639832 0.00000000
0.35350561 0.35350561 0.00000000
0.45629883 0.45629883 0.00000000
0.56076831 0.56076831 0.00000000
0.66290438 0.66290438 0.00000000
0.75869751 0.75869751 0.00000000
0.84413797 0.84413797 0.00000000
0.25298616 0.25298616 0.00000000
0.34980783 0.34980783 0.00000000
0.45246288 0.45246288 0.00000000
0.55694175 0.55694175 0.00000000
0.65923470 0.65923470 0.00000000
0.75533223 0.75533223 0.00000000
0.84122461 0.84122461 0.00000000
0.91290224 0.91290224 0.00000000
0.96635544 0.96635544 0.00000000
0.90362191 0.90362191 0.00000000
0.82965320 0.82965320 0.00000000
0.74204636 0.74204636 0.00000000
0.64481097 0.64481097 0.00000000
0.54195678 0.54195678 0.00000000
0.43749338 0.43749338 0.00000000
0.33543038 0.33543038 0.00000000
0.23977743 0.23977743 0.00000000
0.15454417 0.15454417 0.00000000
0.74546450 0.74546450 0.00000000
0.64851230 0.64851230 0.00000000
0.54579377 0.54579377 0.00000000
0.44131854 0.44131854 0.00000000
0.33909619 0.33909619 0.00000000
0.24313638 0.24313638 0.00000000
0.15744874 0.15744874 0.00000000
0.08604291 0.08604291 0.00000000
0.03292853 0.03292853 0.00000000
0.54962844 0.54962844 0.00000000
0.44514674 0.44514674 0.00000000
0.34277046 0.34277046 0.00000000
0.24650922 0.24650922 0.00000000
0.16037263 0.16037263 0.00000000
0.08837035 0.08837035 0.00000000
0.03451199 0.03451199 0.00000000
0.00280721 0.00280721 0.00000000
0.02148438 0.02148438 0.00000000
0.34645304 0.34645304 0.00000000
0.24989577 0.24989577 0.00000000
0.16331567 0.16331567 0.00000000
0.09072234 0.09072234 0.00000000
0.03612544 0.03612544 0.00000000
0.00353460 0.00353460 0.00000000
0.02017685 0.02017685 0.00000000
0.06642358 0.06642358 0.00000000
0.13227594 0.13227594 0.00000000
0.16627762 0.16627762 0.00000000
0.09309869 0.09309869 0.00000000
0.03776867 0.03776867 0.00000000
0.00429720 0.00429720 0.00000000
0.01890129 0.01890129 0.00000000
0.06435027 0.06435027 0.00000000
0.12955239 0.12955239 0.00000000
0.21049805 0.21049805 0.00000000
0.30317757 0.30317757 0.00000000
0.03944149 0.03944149 0.00000000
0.00509482 0.00509482 0.00000000
0.01765789 0.01765789 0.00000000
0.06230370 0.06230370 0.00000000
0.12685017 0.12685017 0.00000000
0.20728765 0.20728765 0.00000000
0.29960656 0.29960656 0.00000000
0.39979720 0.39979720 0.00000000
0.50384998 0.50384998 0.00000000
0.01644685 0.01644685 0.00000000
0.06028406 0.06028406 0.00000000
0.12416944 0.12416944 0.00000000
0.20409335 0.20409335 0.00000000
0.29604617 0.29604617 0.00000000
0.39601827 0.39601827 0.00000000
0.50000000 0.50000000 0.00000000
0.60398173 0.60398173 0.00000000
0.70395380 0.70395380 0.00000000
0.12151042 0.12151042 0.00000000
0.20091534 0.20091534 0.00000000
0.29249665 0.29249665 0.00000000
0.39224479 0.39224479 0.00000000
0.49615005 0.49615005 0.00000000
0.60020280 0.60020280 0.00000000
0.70039344 0.70039344 0.00000000
0.79271233 0.79271233 0.00000000
0.87314981 0.87314981 0.00000000
0.28895819 0.28895819 0.00000000
0.38847691 0.38847691 0.00000000
0.49230027 0.49230027 0.00000000
0.59641868 0.59641868 0.00000000
0.69682240 0.69682240 0.00000000
0.78950197 0.78950197 0.00000000
0.87044758 0.87044758 0.00000000
0.93564975 0.93564975 0.00000000
0.98109871 0.98109871 0.00000000
0.87728363 0.87728363 0.00000000
0.79764217 0.79764217 0.00000000
0.70589125 0.70589125 0.00000000
0.60604066 0.60604066 0.00000000
0.50209999 0.50209999 0.00000000
0.39807883 0.39807883 0.00000000
0.29798687 0.29798687 0.00000000
0.20583370 0.20583370 0.00000000
0.12562898 0.12562898 0.00000000
0.70943481 0.70943481 0.00000000
0.60981113 0.60981113 0.00000000
0.50594985 0.50594985 0.00000000
0.40186065 0.40186065 0.00000000
0.30155307 0.30155307 0.00000000
0.20903680 0.20903680 0.00000000
0.12832145 0.12832145 0.00000000
0.06341668 0.06341668 0.00000000
0.01833211 0.01833211 0.00000000
0.50979948 0.50979948 0.00000000
0.40564758 0.40564758 0.00000000
0.30512983 0.30512983 0.00000000
0.21225587 0.21225587 0.00000000
0.13103534 0.13103534 0.00000000
0.06547786 0.06547786 0.00000000
0.01959308 0.01959308 0.00000000
0.00387688 0.00387688 0.00000000
0.03686869 0.03686869 0.00000000
0.30871692 0.30871692 0.00000000
0.21549071 0.21549071 0.00000000
0.13377042 0.13377042 0.00000000
0.06756567 0.06756567 0.00000000
0.02088610 0.02088610 0.00000000
0.00313346 0.00313346 0.00000000
0.03524167 0.03524167 0.00000000
0.08943640 0.08943640 0.00000000
0.16170801 0.16170801 0.00000000
0.13652651 0.13652651 0.00000000
0.06967990 0.06967990 0.00000000
0.02221097 0.02221097 0.00000000
0.00242536 0.00242536 0.00000000
0.03364456 0.03364456 0.00000000
0.08709778 0.08709778 0.00000000
0.15877540 0.15877540 0.00000000
0.24466778 0.24466778 0.00000000
0.34076527 0.34076527 0.00000000
0.02356750 0.02356750 0.00000000
0.00175278 0.00175278 0.00000000
0.03207753 0.03207753 0.00000000
0.08478382 0.08478382 0.00000000
0.15586202 0.15586202 0.00000000
0.24130249 0.24130249 0.00000000
0.33709559 0.33709559 0.00000000
0.43923169 0.43923169 0.00000000
0.54370117 0.54370117 0.00000000
0.03054080 0.03054080 0.00000000
0.08249474 0.08249474 0.00000000
0.15296808 0.15296808 0.00000000
0.23795122 0.23795122 0.00000000
0.33343449 0.33343449 0.00000000
0.43540829 0.43540829 0.00000000
0.53986299 0.53986299 0.00000000
0.64278889 0.64278889 0.00000000
0.74017638 0.74017638 0.00000000
0.15009378 0.15009378 0.00000000
0.23461415 0.23461415 0.00000000
0.32978219 0.32978219 0.00000000
0.43158823 0.43158823 0.00000000
0.53602266 0.53602266 0.00000000
0.63907588 0.63907588 0.00000000
0.73673820 0.73673820 0.00000000
0.82499999 0.82499999 0.00000000
0.89985168 0.89985168 0.00000000
0.32613885 0.32613885 0.00000000
0.42777175 0.42777175 0.00000000
0.53218055 0.53218055 0.00000000
0.63535559 0.63535559 0.00000000
0.73328727 0.73328727 0.00000000
0.82196593 0.82196593 0.00000000
0.89738202 0.89738202 0.00000000
0.95552576 0.95552576 0.00000000
0.99238765 0.99238765 0.00000000
0.84860218 0.84860218 0.00000000
0.76387078 0.76387078 0.00000000
0.66855878 0.66855878 0.00000000
0.56667578 0.56667578 0.00000000
0.46223149 0.46223149 0.00000000
0.35923547 0.35923547 0.00000000
0.26169738 0.26169738 0.00000000
0.17362688 0.17362688 0.00000000
0.09903356 0.09903356 0.00000000
0.67220622 0.67220622 0.00000000
0.57049394 0.57049394 0.00000000
0.46607283 0.46607283 0.00000000
0.36295247 0.36295247 0.00000000
0.26514256 0.26514256 0.00000000
0.17665270 0.17665270 0.00000000
0.10149252 0.10149252 0.00000000
0.04367167 0.04367167 0.00000000
0.00719977 0.00719977 0.00000000
0.46991590 0.46991590 0.00000000
0.36667666 0.36667666 0.00000000
0.26860034 0.26860034 0.00000000
0.17969655 0.17969655 0.00000000
0.10397495 0.10397495 0.00000000
0.04544515 0.04544515 0.00000000
0.00811680 0.00811680 0.00000000
0.01361277 0.01361277 0.00000000
0.05544222 0.05544222 0.00000000
0.27207053 0.27207053 0.00000000
0.18275826 0.18275826 0.00000000
0.10648064 0.10648064 0.00000000
0.04724732 0.04724732 0.00000000
0.00906795 0.00906795 0.00000000
0.01251506 0.01251506 0.00000000
0.05351716 0.05351716 0.00000000
0.11507703 0.11507703 0.00000000
0.19318502 0.19318502 0.00000000
0.10900940 0.10900940 0.00000000
0.04907800 0.04907800 0.00000000
0.01005302 0.01005302 0.00000000
0.01145060 0.01145060 0.00000000
0.05161993 0.05161993 0.00000000
0.11249453 0.11249453 0.00000000
0.19006476 0.19006476 0.00000000
0.28032100 0.28032100 0.00000000
0.37925360 0.37925360 0.00000000
0.01107181 0.01107181 0.00000000
0.01041960 0.01041960 0.00000000
0.04975072 0.04975072 0.00000000
0.10993463 0.10993463 0.00000000
0.18696168 0.18696168 0.00000000
0.27682227 0.27682227 0.00000000
0.37550670 0.37550670 0.00000000
0.47900540 0.47900540 0.00000000
0.58330870 0.58330870 0.00000000
0.04790974 0.04790974 0.00000000
0.10739753 0.10739753 0.00000000
0.18387598 0.18387598 0.00000000
0.27333546 0.27333546 0.00000000
0.37176633 0.37176633 0.00000000
0.47515896 0.47515896 0.00000000
0.57950372 0.57950372 0.00000000
0.68079090 0.68079090 0.00000000
0.77501100 0.77501100 0.00000000
0.18080784 0.18080784 0.00000000
0.26986080 0.26986080 0.00000000
0.36803266 0.36803266 0.00000000
0.47131377 0.47131377 0.00000000
0.57569456 0.57569456 0.00000000
0.67716527 0.67716527 0.00000000
0.77171642 0.77171642 0.00000000
0.85533828 0.85533828 0.00000000
0.92402118 0.92402118 0.00000000
0.36430591 0.36430591 0.00000000
0.46747011 0.46747011 0.00000000
0.57188147 0.57188147 0.00000000
0.67353028 0.67353028 0.00000000
0.76840705 0.76840705 0.00000000
0.85250199 0.85250199 0.00000000
0.92180556 0.92180556 0.00000000
0.97230810 0.97230810 0.00000000
1.00000000 1.00000000 0.00000000
