(Just For Laugh) Victor Major/Victor Major (JFL).cube
# VEGAS Pro LUT
TITLE "Victor Major (JFL)"
LUT_3D_SIZE 9
0.00000000 0.60784316 0.00000000
0.00000000 0.58571202 0.00000000
0.00000000 0.54475421 0.00000000
0.00000000 0.48899379 0.00000000
0.00000000 0.42245498 0.00000000
0.00000000 0.34916180 0.00000000
0.00000000 0.27313846 0.00000000
0.00000000 0.19840904 0.00000000
0.00000000 0.12899767 0.00000000
0.00000000 0.54654795 0.00000000
0.00000000 0.49126080 0.00000000
0.00000000 0.42504719 0.00000000
0.00000000 0.35193124 0.00000000
0.00000000 0.27593702 0.00000000
0.00000000 0.20108870 0.00000000
0.00000000 0.13141038 0.00000000
0.00000000 0.07092620 0.00000000
0.00000000 0.02366028 0.00000000
0.00000000 0.42763010 0.00000000
0.00000000 0.35469675 0.00000000
0.00000000 0.27873713 0.00000000
0.00000000 0.20377535 0.00000000
0.00000000 0.13383554 0.00000000
0.00000000 0.07294181 0.00000000
0.00000000 0.02511830 0.00000000
0.04677999 0.02380146 0.05017044
0.41053197 0.41532555 0.46516341
0.00000000 0.28153861 0.00000000
0.00000000 0.20646881 0.00000000
0.00000000 0.13627294 0.00000000
0.00000000 0.07497511 0.00000000
0.00000000 0.02659946 0.00000000
0.03824050 0.01772097 0.04070795
0.39428851 0.39625320 0.44696173
0.82619423 0.87805212 0.89028567
1.00000000 0.98990154 0.98990154
0.00000000 0.13872238 0.00000000
0.00000000 0.07702591 0.00000000
0.00000000 0.02810355 0.00000000
0.03017899 0.01248246 0.03185903
0.37814772 0.37732062 0.42881024
0.81217593 0.86451316 0.87814575
1.00000000 0.99090594 0.99090594
1.00000000 0.95493776 0.95493776
1.00000000 0.90302557 0.90302557
0.00000000 0.02963038 0.00000000
0.02260928 0.00811177 0.02364441
0.36212340 0.35855362 0.41072962
0.79789877 0.85043758 0.86551338
1.00000000 0.99188459 0.99188459
1.00000000 0.95656270 0.95656270
1.00000000 0.90518159 0.90518159
1.00000000 0.84087294 0.84087294
1.00000000 0.76676863 0.76676863
0.34622937 0.33997807 0.39274064
0.78337657 0.83585125 0.85240924
1.00000000 0.99283725 0.99283725
1.00000000 0.95816588 0.95816588
1.00000000 0.90732008 0.90732008
1.00000000 0.84343153 0.84343153
1.00000000 0.76963210 0.76963210
1.00000000 0.68905348 0.68905348
1.00000000 0.60482746 0.60482746
1.00000000 0.99376374 0.99376374
1.00000000 0.95974720 0.95974720
1.00000000 0.90944093 0.90944093
1.00000000 0.84597677 0.84597677
1.00000000 0.77248645 0.77248645
1.00000000 0.69210172 0.69210172
1.00000000 0.60795438 0.60795438
1.00000000 0.52317625 0.52317625
1.00000000 0.44089898 0.44089898
1.00000000 0.91154397 0.91154397
1.00000000 0.84850836 0.84850836
1.00000000 0.77533144 0.77533144
1.00000000 0.69514489 0.69514489
1.00000000 0.61108047 0.61108047
1.00000000 0.52627003 0.52627003
1.00000000 0.44384530 0.44384530
1.00000000 0.36693799 0.36693799
1.00000000 0.29867995 0.29867995
0.00000000 0.60188198 0.00000000
0.00000000 0.57209808 0.00000000
0.00000000 0.52502185 0.00000000
0.00000000 0.46467727 0.00000000
0.00000000 0.39508855 0.00000000
0.00000000 0.32027981 0.00000000
0.00000000 0.24427514 0.00000000
0.00000000 0.17109869 0.00000000
0.00000000 0.10477456 0.00000000
0.00000000 0.52701348 0.00000000
0.00000000 0.46708575 0.00000000
0.00000000 0.39776582 0.00000000
0.00000000 0.32307780 0.00000000
0.00000000 0.24704583 0.00000000
0.00000000 0.17369403 0.00000000
0.00000000 0.10704651 0.00000000
0.00000000 0.05112742 0.00000000
0.00000000 0.00996086 0.00000000
0.00000000 0.40043581 0.00000000
0.00000000 0.32587397 0.00000000
0.00000000 0.24982014 0.00000000
0.00000000 0.17629844 0.00000000
0.00000000 0.10933299 0.00000000
0.00000000 0.05294790 0.00000000
0.00000000 0.01116731 0.00000000
0.16007522 0.13012820 0.17933609
0.58156812 0.61494523 0.65172350
0.00000000 0.25259790 0.00000000
0.00000000 0.17891173 0.00000000
0.00000000 0.11163378 0.00000000
0.00000000 0.05478815 0.00000000
0.00000000 0.01239897 0.00000000
0.14739510 0.11684286 0.16473524
0.56507367 0.59594560 0.63422239
0.95288283 0.98049688 0.98206860
1.00000000 0.97800946 0.97800946
0.00000000 0.11394869 0.00000000
0.00000000 0.05664796 0.00000000
0.00000000 0.01365564 0.00000000
0.13504989 0.10413177 0.15053318
0.54853880 0.57681805 0.61655658
0.94236004 0.97404057 0.97625333
1.00000000 0.97927231 0.97927231
1.00000000 0.93685573 0.93685573
1.00000000 0.87968916 0.87968916
0.00000000 0.01493712 0.00000000
0.12305338 0.09202076 0.13675061
0.53197736 0.55758834 0.59874690
0.93143535 0.96677983 0.96973073
1.00000000 0.98051089 0.98051089
1.00000000 0.93869668 0.93869668
1.00000000 0.88201731 0.88201731
1.00000000 0.81360447 0.81360447
1.00000000 0.73658997 0.73658997
0.51540303 0.53828228 0.58081400
0.92012250 0.95874059 0.96252149
1.00000000 0.98172516 0.98172516
1.00000000 0.94051754 0.94051754
1.00000000 0.88432956 0.88432956
1.00000000 0.81629288 0.81629288
1.00000000 0.73953938 0.73953938
1.00000000 0.65720069 0.65720069
1.00000000 0.57240868 0.57240868
1.00000000 0.98291492 0.98291492
1.00000000 0.94231820 0.94231820
1.00000000 0.88662577 0.88662577
1.00000000 0.81896955 0.81896955
1.00000000 0.74248123 0.74248123
1.00000000 0.66029251 0.66029251
1.00000000 0.57553530 0.57553530
1.00000000 0.49134126 0.49134126
1.00000000 0.41084218 0.41084218
1.00000000 0.88890582 0.88890582
1.00000000 0.82163423 0.82163423
1.00000000 0.74541533 0.74541533
1.00000000 0.66338086 0.66338086
1.00000000 0.57866263 0.57866263
1.00000000 0.49439240 0.49439240
1.00000000 0.41370192 0.41370192
1.00000000 0.33972293 0.33972293
1.00000000 0.27558723 0.27558723
0.00000000 0.59282202 0.00000000
0.00000000 0.55597043 0.00000000
0.00000000 0.50336069 0.00000000
0.00000000 0.43901694 0.00000000
0.00000000 0.36696333 0.00000000
0.00000000 0.29122397 0.00000000
0.00000000 0.21582295 0.00000000
0.00000000 0.14478445 0.00000000
0.00000000 0.08213255 0.00000000
0.00000000 0.50552869 0.00000000
0.00000000 0.44154537 0.00000000
0.00000000 0.36970407 0.00000000
0.00000000 0.29402900 0.00000000
0.00000000 0.21854426 0.00000000
0.00000000 0.14727394 0.00000000
0.00000000 0.08424222 0.00000000
0.00000000 0.03347318 0.00000000
0.00620103 0.00122566 0.00630096
0.00000000 0.37243965 0.00000000
0.00000000 0.29683432 0.00000000
0.00000000 0.22127125 0.00000000
0.00000000 0.14977460 0.00000000
0.00000000 0.08636848 0.00000000
0.00000000 0.03507701 0.00000000
0.00043648 0.00005169 0.00043703
0.30785608 0.29535779 0.34910479
0.74677926 0.79804540 0.81837481
0.00000000 0.22400376 0.00000000
0.00000000 0.15228620 0.00000000
0.00000000 0.08851114 0.00000000
0.00000000 0.03670269 0.00000000
0.00000000 0.00088496 0.00000000
0.29251835 0.27764234 0.33159181
0.73151684 0.78189331 0.80380034
1.00000000 0.99592614 0.99592614
1.00000000 0.96353471 0.96353471
0.00000000 0.09067000 0.00000000
0.00000000 0.03835000 0.00000000
0.00000000 0.00187269 0.00000000
0.27737245 0.26023340 0.31426278
0.71607089 0.76534545 0.78884649
1.00000000 0.99676120 0.99676120
1.00000000 0.96503919 0.96503919
1.00000000 0.91662949 0.91662949
1.00000000 0.85466385 0.85466385
0.00000000 0.00288730 0.00000000
0.26243213 0.24315682 0.29713845
0.70045525 0.74842775 0.77353388
1.00000000 0.99756944 0.99756944
1.00000000 0.96652108 0.96652108
1.00000000 0.91866982 0.91866982
1.00000000 0.85714740 0.85714740
1.00000000 0.78508556 0.78508556
1.00000000 0.70561618 0.70561618
0.68468368 0.73116601 0.75788331
1.00000000 0.99835068 0.99835068
1.00000000 0.96798021 0.96798021
1.00000000 0.92069161 0.92069161
1.00000000 0.85961664 0.85961664
1.00000000 0.78788710 0.78788710
1.00000000 0.70863473 0.70863473
1.00000000 0.62499130 0.62499130
1.00000000 0.54008853 0.54008853
1.00000000 0.96941644 0.96941644
1.00000000 0.92269474 0.92269474
1.00000000 0.86207151 0.86207151
1.00000000 0.79067844 0.79067844
1.00000000 0.71164733 0.71164733
1.00000000 0.62810993 0.62810993
1.00000000 0.54319805 0.54319805
1.00000000 0.46004340 0.46004340
1.00000000 0.38177776 0.38177776
1.00000000 0.86451179 0.86451179
1.00000000 0.79345948 0.79345948
1.00000000 0.71465385 0.71465385
1.00000000 0.63122678 0.63122678
1.00000000 0.54630995 0.54630995
1.00000000 0.46303514 0.46303514
1.00000000 0.38453415 0.38453415
1.00000000 0.31393874 0.31393874
1.00000000 0.25438064 0.25438064
0.00000000 0.58088636 0.00000000
0.00000000 0.53755200 0.00000000
0.00000000 0.47999379 0.00000000
0.00000000 0.41223586 0.00000000
0.00000000 0.33830231 0.00000000
0.00000000 0.26221731 0.00000000
0.00000000 0.18800494 0.00000000
0.00000000 0.11968935 0.00000000
0.00000000 0.06129465 0.00000000
0.00000000 0.48231667 0.00000000
0.00000000 0.41486269 0.00000000
0.00000000 0.34108505 0.00000000
0.00000000 0.26500788 0.00000000
0.00000000 0.19065532 0.00000000
0.00000000 0.12205148 0.00000000
0.00000000 0.06322052 0.00000000
0.00000000 0.01818652 0.00000000
0.09517266 0.06500056 0.10482964
0.00000000 0.34386465 0.00000000
0.00000000 0.26780078 0.00000000
0.00000000 0.19331348 0.00000000
0.00000000 0.12442686 0.00000000
0.00000000 0.06516505 0.00000000
0.00000000 0.01955217 0.00000000
0.08448696 0.05516136 0.09265570
0.47475329 0.49073392 0.53640515
0.89079607 0.93586987 0.94204587
0.00000000 0.19597922 0.00000000
0.00000000 0.12681526 0.00000000
0.00000000 0.06712806 0.00000000
0.00000000 0.02094175 0.00000000
0.07421147 0.04603733 0.08099358
0.45824096 0.47136310 0.51820624
0.87824863 0.92533994 0.93262434
1.00000000 0.98573029 0.98573029
1.00000000 0.94665086 0.94665086
0.00000000 0.06910934 0.00000000
0.00000000 0.02235505 0.00000000
0.06435999 0.03765430 0.06986400
0.44177735 0.45203105 0.49997643
0.86537462 0.91414660 0.92260855
1.00000000 0.98683417 0.98683417
1.00000000 0.94838023 0.94838023
1.00000000 0.89443266 0.89443266
1.00000000 0.82812315 0.82812315
0.05494633 0.03003810 0.05928770
0.42537621 0.43276361 0.48173651
0.85218775 0.90231562 0.91201919
1.00000000 0.98791283 0.98791283
1.00000000 0.95008862 0.95008862
1.00000000 0.89665556 0.89665556
1.00000000 0.83074534 0.83074534
1.00000000 0.75548989 0.75548989
1.00000000 0.67402077 0.67402077
0.83870196 0.88987285 0.90087712
1.00000000 0.98896611 0.98896611
1.00000000 0.95177585 0.95177585
1.00000000 0.89886153 0.89886153
1.00000000 0.83335489 0.83335489
1.00000000 0.75838774 0.75838774
1.00000000 0.67709178 0.67709178
1.00000000 0.59259880 0.59259880
1.00000000 0.50804055 0.50804055
1.00000000 0.95344186 0.95344186
1.00000000 0.90105051 0.90105051
1.00000000 0.83595163 0.83595163
1.00000000 0.76127702 0.76127702
1.00000000 0.68015844 0.68015844
1.00000000 0.59572756 0.59572756
1.00000000 0.51111627 0.51111627
1.00000000 0.42945623 0.42945623
1.00000000 0.35387930 0.35387930
1.00000000 0.83853543 0.83853543
1.00000000 0.76415759 0.76415759
1.00000000 0.68322057 0.68322057
1.00000000 0.59885609 0.59885609
1.00000000 0.51419592 0.51419592
1.00000000 0.43237185 0.43237185
1.00000000 0.35651562 0.35651562
1.00000000 0.28975901 0.28975901
1.00000000 0.23523380 0.23523380
0.00000000 0.56629807 0.00000000
0.00000000 0.51706594 0.00000000
0.00000000 0.45514420 0.00000000
0.00000000 0.38455704 0.00000000
0.00000000 0.30932856 0.00000000
0.00000000 0.23348287 0.00000000
0.00000000 0.16104411 0.00000000
0.00000000 0.09603642 0.00000000
0.00000000 0.04248390 0.00000000
0.00000000 0.45760044 0.00000000
0.00000000 0.38726076 0.00000000
0.00000000 0.31213173 0.00000000
0.00000000 0.23623745 0.00000000
0.00000000 0.16360205 0.00000000
0.00000000 0.09824968 0.00000000
0.00000000 0.04420444 0.00000000
0.00000000 0.00549046 0.00000000
0.22671902 0.20281324 0.25610426
0.00000000 0.31493387 0.00000000
0.00000000 0.23899645 0.00000000
0.00000000 0.16616987 0.00000000
0.00000000 0.10047825 0.00000000
0.00000000 0.04594573 0.00000000
0.00000000 0.00659643 0.00000000
0.21259519 0.18708354 0.23984648
0.64539754 0.68750024 0.71816576
0.99824917 0.99966222 0.99966520
0.00000000 0.16874732 0.00000000
0.00000000 0.10272193 0.00000000
0.00000000 0.04770757 0.00000000
0.00000000 0.00772839 0.00000000
0.19873847 0.17180127 0.22388573
0.62919360 0.66924882 0.70150703
0.98989981 0.99752921 0.99762279
1.00000000 0.97284371 0.97284371
1.00000000 0.92753148 0.92753148
0.00000000 0.04948976 0.00000000
0.00000000 0.00888614 0.00000000
0.18516265 0.15699227 0.20824270
0.61289531 0.65076834 0.68460268
0.98108071 0.99446505 0.99477130
1.00000000 0.97419965 0.97419965
1.00000000 0.92946899 0.92946899
1.00000000 0.87043881 0.87043881
1.00000000 0.80024076 0.80024076
0.17188156 0.14268236 0.19293815
0.59651637 0.63208479 0.66747338
0.97180569 0.99049556 0.99113148
1.00000000 0.97553200 0.97553200
1.00000000 0.93138713 0.93138713
1.00000000 0.87282753 0.87282753
1.00000000 0.80298483 0.80298483
1.00000000 0.72499090 0.72499090
1.00000000 0.64197743 0.64197743
0.96208858 0.98564655 0.98672402
1.00000000 0.97684056 0.97684056
1.00000000 0.93328577 0.93328577
1.00000000 0.87520099 0.87520099
1.00000000 0.80571789 0.80571789
1.00000000 0.72796834 0.72796834
1.00000000 0.64508408 0.64508408
1.00000000 0.56019682 0.56019682
1.00000000 0.47643837 0.47643837
1.00000000 0.93516475 0.93516475
1.00000000 0.87755901 0.87755901
1.00000000 0.80843979 0.80843979
1.00000000 0.73093885 0.73093885
1.00000000 0.64818799 0.64818799
1.00000000 0.56331891 0.56331891
1.00000000 0.47946346 0.47946346
1.00000000 0.39975336 0.39975336
1.00000000 0.32732037 0.32732037
1.00000000 0.81115031 0.81115031
1.00000000 0.73390228 0.73390228
1.00000000 0.65128905 0.65128905
1.00000000 0.56644243 0.56644243
1.00000000 0.48249418 0.48249418
1.00000000 0.40257609 0.40257609
1.00000000 0.32981989 0.32981989
1.00000000 0.26735735 0.26735735
1.00000000 0.21832025 0.21832025
0.00000000 0.54928017 0.00000000
0.00000000 0.49473518 0.00000000
0.00000000 0.42903492 0.00000000
0.00000000 0.35620350 0.00000000
0.00000000 0.28026503 0.00000000
0.00000000 0.20524368 0.00000000
0.00000000 0.13516352 0.00000000
0.00000000 0.07404871 0.00000000
0.00000000 0.02592335 0.00000000
0.00000000 0.43160298 0.00000000
0.00000000 0.35896263 0.00000000
0.00000000 0.28306717 0.00000000
0.00000000 0.20794076 0.00000000
0.00000000 0.13760751 0.00000000
0.00000000 0.07609157 0.00000000
0.00000000 0.02741704 0.00000000
0.03378318 0.01475757 0.03580388
0.38547084 0.38590735 0.43705338
0.00000000 0.28587031 0.00000000
0.00000000 0.21064432 0.00000000
0.00000000 0.14006345 0.00000000
0.00000000 0.07815181 0.00000000
0.00000000 0.02893356 0.00000000
0.02598821 0.00998922 0.02729837
0.36939186 0.36706188 0.41893795
0.80441958 0.85690045 0.87131512
1.00000000 0.99144298 0.99144298
0.00000000 0.14253110 0.00000000
0.00000000 0.08022924 0.00000000
0.00000000 0.03047271 0.00000000
0.01869257 0.00610278 0.01943847
0.35343692 0.34839612 0.40090474
0.79000705 0.84254307 0.85842282
1.00000000 0.99240744 0.99240744
1.00000000 0.95743984 0.95743984
1.00000000 0.90635020 0.90635020
0.00000000 0.03203428 0.00000000
0.01191006 0.00312410 0.01224490
0.33761978 0.32993588 0.38297448
0.77535701 0.82768899 0.84507006
1.00000000 0.99334586 0.99334586
1.00000000 0.95903111 0.95903111
1.00000000 0.90847909 0.90847909
1.00000000 0.84482151 0.84482151
1.00000000 0.77119017 0.77119017
0.32195425 0.31170699 0.36516786
0.76048332 0.81236404 0.83127761
1.00000000 0.99425805 0.99425805
1.00000000 0.96060038 0.96060038
1.00000000 0.91059023 0.91059023
1.00000000 0.84735930 0.84735930
1.00000000 0.77403939 0.77403939
1.00000000 0.69376224 0.69376224
1.00000000 0.60965967 0.60965967
1.00000000 0.99514389 0.99514389
1.00000000 0.96214753 0.96214753
1.00000000 0.91268349 0.91268349
1.00000000 0.84988350 0.84988350
1.00000000 0.77687925 0.77687925
1.00000000 0.69680256 0.69680256
1.00000000 0.61278522 0.61278522
1.00000000 0.52795893 0.52795893
1.00000000 0.44545552 0.44545552
1.00000000 0.91475868 0.91475868
1.00000000 0.85239381 0.85239381
1.00000000 0.77970952 0.77970952
1.00000000 0.69983751 0.69983751
1.00000000 0.61590964 0.61590964
1.00000000 0.53105766 0.53105766
1.00000000 0.44841328 0.44841328
1.00000000 0.37110835 0.37110835
1.00000000 0.30227455 0.30227455
1.00000000 0.78253001 0.78253001
1.00000000 0.70286697 0.70286697
1.00000000 0.61903286 0.61903286
1.00000000 0.53415936 0.53415936
1.00000000 0.45137829 0.45137829
1.00000000 0.37382141 0.37382141
1.00000000 0.30462050 0.30462050
1.00000000 0.24690729 0.24690729
1.00000000 0.20381357 0.20381357
0.00000000 0.53005564 0.00000000
0.00000000 0.47078285 0.00000000
0.00000000 0.40188903 0.00000000
0.00000000 0.32739833 0.00000000
0.00000000 0.25133488 0.00000000
0.00000000 0.17772278 0.00000000
0.00000000 0.11058620 0.00000000
0.00000000 0.05394923 0.00000000
0.00000000 0.01183601 0.00000000
0.00000000 0.40454736 0.00000000
0.00000000 0.33019128 0.00000000
0.00000000 0.25411439 0.00000000
0.00000000 0.18034083 0.00000000
0.00000000 0.11289472 0.00000000
0.00000000 0.05580018 0.00000000
0.00000000 0.01308134 0.00000000
0.14061897 0.10983670 0.15693791
0.55605882 0.58552659 0.62460554
0.00000000 0.25689703 0.00000000
0.00000000 0.18296744 0.00000000
0.00000000 0.11521725 0.00000000
0.00000000 0.05767058 0.00000000
0.00000000 0.01435157 0.00000000
0.12846224 0.09744973 0.14296208
0.53950769 0.56634009 0.60685873
0.93645006 0.97017819 0.97278190
1.00000000 0.97995090 0.97995090
0.00000000 0.11755358 0.00000000
0.00000000 0.05956024 0.00000000
0.00000000 0.01564650 0.00000000
0.11666173 0.08567693 0.12941706
0.52293754 0.54706556 0.58897924
0.92531192 0.96248966 0.96588218
1.00000000 0.98117626 0.98117626
1.00000000 0.93969244 0.93969244
1.00000000 0.88328052 0.88328052
0.00000000 0.01696594 0.00000000
0.10523127 0.07454415 0.11632357
0.50636208 0.52772880 0.57098788
0.91379321 0.95403665 0.95830727
1.00000000 0.98237717 0.98237717
1.00000000 0.94150221 0.94150221
1.00000000 0.88558406 0.88558406
1.00000000 0.81775439 0.81775439
1.00000000 0.74114496 0.74114496
0.48979512 0.50835568 0.55290544
0.90190774 0.94484508 0.95007777
1.00000000 0.98355347 0.98355347
1.00000000 0.94329172 0.94329172
1.00000000 0.88787144 0.88787144
1.00000000 0.82042450 0.82042450
1.00000000 0.74408263 0.74408263
1.00000000 0.66197753 0.66197753
1.00000000 0.57724106 0.57724106
1.00000000 0.98470503 0.98470503
1.00000000 0.94506067 0.94506067
1.00000000 0.89014262 0.89014262
1.00000000 0.82308263 0.82308263
1.00000000 0.74701244 0.74701244
1.00000000 0.66506392 0.66506392
1.00000000 0.58036876 0.58036876
1.00000000 0.49605873 0.49605873
1.00000000 0.41526559 0.41526559
1.00000000 0.89239728 0.89239728
1.00000000 0.82572854 0.82572854
1.00000000 0.74993438 0.74993438
1.00000000 0.66814661 0.66814661
1.00000000 0.58349699 0.58349699
1.00000000 0.49911729 0.49911729
1.00000000 0.41813931 0.41813931
1.00000000 0.34369475 0.34369475
1.00000000 0.27891544 0.27891544
1.00000000 0.75284815 0.75284815
1.00000000 0.67122537 0.67122537
1.00000000 0.58662558 0.58662558
1.00000000 0.50218046 0.50218046
1.00000000 0.42102185 0.42102185
1.00000000 0.34628144 0.34628144
1.00000000 0.28109106 0.28109106
1.00000000 0.22858244 0.22858244
1.00000000 0.19188735 0.19188735
0.00000000 0.50884759 0.00000000
0.00000000 0.44543189 0.00000000
0.00000000 0.37392950 0.00000000
0.00000000 0.29836452 0.00000000
0.00000000 0.22276103 0.00000000
0.00000000 0.15114322 0.00000000
0.00000000 0.08753519 0.00000000
0.00000000 0.03596105 0.00000000
0.00000000 0.00044493 0.00000000
0.00000000 0.37665665 0.00000000
0.00000000 0.30116981 0.00000000
0.00000000 0.22549646 0.00000000
0.00000000 0.15366071 0.00000000
0.00000000 0.08968671 0.00000000
0.00000000 0.03759855 0.00000000
0.00000000 0.00142037 0.00000000
0.28423229 0.26810691 0.32211548
0.72311366 0.77291459 0.79568940
0.00000000 0.22823708 0.00000000
0.00000000 0.15618885 0.00000000
0.00000000 0.09185431 0.00000000
0.00000000 0.03925759 0.00000000
0.00000000 0.00242279 0.00000000
0.26919681 0.25087604 0.30489555
0.70757341 0.75616181 0.78053731
1.00000000 0.99720538 0.99720538
1.00000000 0.96585029 0.96585029
0.00000000 0.09403781 0.00000000
0.00000000 0.04093795 0.00000000
0.00000000 0.00345199 0.00000000
0.25437444 0.23399164 0.28789160
0.69187099 0.73905325 0.76503778
1.00000000 0.99799889 0.99799889
1.00000000 0.96731979 0.96731979
1.00000000 0.91977489 0.91977489
1.00000000 0.85849601 0.85849601
0.00000000 0.00450777 0.00000000
0.23977904 0.21747950 0.27112433
0.67602021 0.72161472 0.74921155
1.00000000 0.99876535 0.99876535
1.00000000 0.96876645 0.96876645
1.00000000 0.92178655 0.92178655
1.00000000 0.86095744 0.86095744
1.00000000 0.78941095 0.78941095
1.00000000 0.71027869 0.71027869
0.66003484 0.70387208 0.73307937
1.00000000 0.99950463 0.99950463
1.00000000 0.97019011 0.97019011
1.00000000 0.92377949 0.92377949
1.00000000 0.86340439 0.86340439
1.00000000 0.79219663 0.79219663
1.00000000 0.71328801 0.71328801
1.00000000 0.62981027 0.62981027
1.00000000 0.54489517 0.54489517
1.00000000 0.97159070 0.97159070
1.00000000 0.92575347 0.92575347
1.00000000 0.86583668 0.86583668
1.00000000 0.79497194 0.79497194
1.00000000 0.71629113 0.71629113
1.00000000 0.63292599 0.63292599
1.00000000 0.54800826 0.54800826
1.00000000 0.46466976 0.46466976
1.00000000 0.38604218 0.38604218
1.00000000 0.86825413 0.86825413
1.00000000 0.79773670 0.79773670
1.00000000 0.71928793 0.71928793
1.00000000 0.63603961 0.63603961
1.00000000 0.55112356 0.55112356
1.00000000 0.46767142 0.46767142
1.00000000 0.38881505 0.38881505
1.00000000 0.31768617 0.31768617
1.00000000 0.25741658 0.25741658
1.00000000 0.72227824 0.72227824
1.00000000 0.63915098 0.63915098
1.00000000 0.55424076 0.55424076
1.00000000 0.47067931 0.47067931
1.00000000 0.39159837 0.39159837
1.00000000 0.32012972 0.32012972
1.00000000 0.25940514 0.25940514
1.00000000 0.21255636 0.21255636
1.00000000 0.18271518 0.18271518
0.00000000 0.48587897 0.00000000
0.00000000 0.41890541 0.00000000
0.00000000 0.34537941 0.00000000
0.00000000 0.26932511 0.00000000
0.00000000 0.19476660 0.00000000
0.00000000 0.12572803 0.00000000
0.00000000 0.06623351 0.00000000
0.00000000 0.02030717 0.00000000
0.07883041 0.05009431 0.08622977
0.00000000 0.34815383 0.00000000
0.00000000 0.27212122 0.00000000
0.00000000 0.19743639 0.00000000
0.00000000 0.12812345 0.00000000
0.00000000 0.06820651 0.00000000
0.00000000 0.02170971 0.00000000
0.06878449 0.04137126 0.07485556
0.44925389 0.46081188 0.50826520
0.87126607 0.91931510 0.92723352
0.00000000 0.20011346 0.00000000
0.00000000 0.13053158 0.00000000
0.00000000 0.07019767 0.00000000
0.00000000 0.02313586 0.00000000
0.05917011 0.03340330 0.06402520
0.43282264 0.44151187 0.49002731
0.85821968 0.90777069 0.91690230
1.00000000 0.98742568 0.98742568
1.00000000 0.94931471 0.94931471
0.00000000 0.07220680 0.00000000
0.00000000 0.02458542 0.00000000
0.05000107 0.02621626 0.05375942
0.41646144 0.42229056 0.47179061
0.84486806 0.89560282 0.90600890
1.00000000 0.98849052 0.98849052
1.00000000 0.95101160 0.95101160
1.00000000 0.89786094 0.89786094
1.00000000 0.83217031 0.83217031
0.04129119 0.01983599 0.04407895
0.40018407 0.40317380 0.45357582
0.83122492 0.88283730 0.89457405
1.00000000 0.98952991 0.98952991
1.00000000 0.95268726 0.95268726
1.00000000 0.90005767 0.90005767
1.00000000 0.83477288 0.83477288
1.00000000 0.75996476 0.75996476
1.00000000 0.67876500 0.67876500
0.81730413 0.86949986 0.88261837
1.00000000 0.99054372 0.99054372
1.00000000 0.95434153 0.95434153
1.00000000 0.90223724 0.90223724
1.00000000 0.83736259 0.83736259
1.00000000 0.76284933 0.76284933
1.00000000 0.68182921 0.68182921
1.00000000 0.59743404 0.59743404
1.00000000 0.51279557 0.51279557
1.00000000 0.95597434 0.95597434
1.00000000 0.90439957 0.90439957
1.00000000 0.83993924 0.83993924
1.00000000 0.76572508 0.76572508
1.00000000 0.68488890 0.68488890
1.00000000 0.60056239 0.60056239
1.00000000 0.51587737 0.51587737
1.00000000 0.43396559 0.43396559
1.00000000 0.35795882 0.35795882
1.00000000 0.84250271 0.84250271
1.00000000 0.76859188 0.76859188
1.00000000 0.68794382 0.68794382
1.00000000 0.60369027 0.60369027
1.00000000 0.51896292 0.51896292
1.00000000 0.43689361 0.43689361
1.00000000 0.36061412 0.36061412
1.00000000 0.29325619 0.29325619
1.00000000 0.23795156 0.23795156
1.00000000 0.69099385 0.69099385
1.00000000 0.60681742 0.60681742
1.00000000 0.52205205 0.52205205
1.00000000 0.43982950 0.43982950
1.00000000 0.36328149 0.36328149
1.00000000 0.29553986 0.29553986
1.00000000 0.23973630 0.23973630
1.00000000 0.19900262 0.19900262
1.00000000 0.17647059 0.17647059
