(Just For Laugh) Victor Major/Victor Major (JFL).cube
# VEGAS Pro LUT
TITLE "Victor Major (JFL)"
LUT_3D_SIZE 5
0.00000000 0.60784316 0.00000000
0.00000000 0.54475421 0.00000000
0.00000000 0.42245498 0.00000000
0.00000000 0.27313846 0.00000000
0.00000000 0.12899767 0.00000000
0.00000000 0.42763010 0.00000000
0.00000000 0.27873713 0.00000000
0.00000000 0.13383554 0.00000000
0.00000000 0.02511830 0.00000000
0.41053197 0.41532555 0.46516341
0.00000000 0.13872238 0.00000000
0.00000000 0.02810355 0.00000000
0.37814772 0.37732062 0.42881024
1.00000000 0.99090594 0.99090594
1.00000000 0.90302557 0.90302557
0.34622937 0.33997807 0.39274064
1.00000000 0.99283725 0.99283725
1.00000000 0.90732008 0.90732008
1.00000000 0.76963210 0.76963210
1.00000000 0.60482746 0.60482746
1.00000000 0.91154397 0.91154397
1.00000000 0.77533144 0.77533144
1.00000000 0.61108047 0.61108047
1.00000000 0.44384530 0.44384530
1.00000000 0.29867995 0.29867995
0.00000000 0.59282202 0.00000000
0.00000000 0.50336069 0.00000000
0.00000000 0.36696333 0.00000000
0.00000000 0.21582295 0.00000000
0.00000000 0.08213255 0.00000000
0.00000000 0.37243965 0.00000000
0.00000000 0.22127125 0.00000000
0.00000000 0.08636848 0.00000000
0.00043648 0.00005169 0.00043703
0.74677926 0.79804540 0.81837481
0.00000000 0.09067000 0.00000000
0.00000000 0.00187269 0.00000000
0.71607089 0.76534545 0.78884649
1.00000000 0.96503919 0.96503919
1.00000000 0.85466385 0.85466385
0.68468368 0.73116601 0.75788331
1.00000000 0.96798021 0.96798021
1.00000000 0.85961664 0.85961664
1.00000000 0.70863473 0.70863473
1.00000000 0.54008853 0.54008853
1.00000000 0.86451179 0.86451179
1.00000000 0.71465385 0.71465385
1.00000000 0.54630995 0.54630995
1.00000000 0.38453415 0.38453415
1.00000000 0.25438064 0.25438064
0.00000000 0.56629807 0.00000000
0.00000000 0.45514420 0.00000000
0.00000000 0.30932856 0.00000000
0.00000000 0.16104411 0.00000000
0.00000000 0.04248390 0.00000000
0.00000000 0.31493387 0.00000000
0.00000000 0.16616987 0.00000000
0.00000000 0.04594573 0.00000000
0.21259519 0.18708354 0.23984648
0.99824917 0.99966222 0.99966520
0.00000000 0.04948976 0.00000000
0.18516265 0.15699227 0.20824270
0.98108071 0.99446505 0.99477130
1.00000000 0.92946899 0.92946899
1.00000000 0.80024076 0.80024076
0.96208858 0.98564655 0.98672402
1.00000000 0.93328577 0.93328577
1.00000000 0.80571789 0.80571789
1.00000000 0.64508408 0.64508408
1.00000000 0.47643837 0.47643837
1.00000000 0.81115031 0.81115031
1.00000000 0.65128905 0.65128905
1.00000000 0.48249418 0.48249418
1.00000000 0.32981989 0.32981989
1.00000000 0.21832025 0.21832025
0.00000000 0.53005564 0.00000000
0.00000000 0.40188903 0.00000000
0.00000000 0.25133488 0.00000000
0.00000000 0.11058620 0.00000000
0.00000000 0.01183601 0.00000000
0.00000000 0.25689703 0.00000000
0.00000000 0.11521725 0.00000000
0.00000000 0.01435157 0.00000000
0.53950769 0.56634009 0.60685873
1.00000000 0.97995090 0.97995090
0.00000000 0.01696594 0.00000000
0.50636208 0.52772880 0.57098788
1.00000000 0.98237717 0.98237717
1.00000000 0.88558406 0.88558406
1.00000000 0.74114496 0.74114496
1.00000000 0.98470503 0.98470503
1.00000000 0.89014262 0.89014262
1.00000000 0.74701244 0.74701244
1.00000000 0.58036876 0.58036876
1.00000000 0.41526559 0.41526559
1.00000000 0.75284815 0.75284815
1.00000000 0.58662558 0.58662558
1.00000000 0.42102185 0.42102185
1.00000000 0.28109106 0.28109106
1.00000000 0.19188735 0.19188735
0.00000000 0.48587897 0.00000000
0.00000000 0.34537941 0.00000000
0.00000000 0.19476660 0.00000000
0.00000000 0.06623351 0.00000000
0.07883041 0.05009431 0.08622977
0.00000000 0.20011346 0.00000000
0.00000000 0.07019767 0.00000000
0.05917011 0.03340330 0.06402520
0.85821968 0.90777069 0.91690230
1.00000000 0.94931471 0.94931471
0.04129119 0.01983599 0.04407895
0.83122492 0.88283730 0.89457405
1.00000000 0.95268726 0.95268726
1.00000000 0.83477288 0.83477288
1.00000000 0.67876500 0.67876500
1.00000000 0.95597434 0.95597434
1.00000000 0.83993924 0.83993924
1.00000000 0.68488890 0.68488890
1.00000000 0.51587737 0.51587737
1.00000000 0.35795882 0.35795882
1.00000000 0.69099385 0.69099385
1.00000000 0.52205205 0.52205205
1.00000000 0.36328149 0.36328149
1.00000000 0.23973630 0.23973630
1.00000000 0.17647059 0.17647059
