(Just For Laugh) Victor Major/Victor Major (JFL).cube
# VEGAS Pro LUT
TITLE "Victor Major (JFL)"
LUT_3D_SIZE 33
0.00000000 0.60784316 0.00000000
0.00000000 0.60429543 0.00000000
0.00000000 0.59938246 0.00000000
0.00000000 0.59316701 0.00000000
0.00000000 0.58571202 0.00000000
0.00000000 0.57708037 0.00000000
0.00000000 0.56733495 0.00000000
0.00000000 0.55653858 0.00000000
0.00000000 0.54475421 0.00000000
0.00000000 0.53204465 0.00000000
0.00000000 0.51847279 0.00000000
0.00000000 0.50410157 0.00000000
0.00000000 0.48899379 0.00000000
0.00000000 0.47321239 0.00000000
0.00000000 0.45682019 0.00000000
0.00000000 0.43988010 0.00000000
0.00000000 0.42245498 0.00000000
0.00000000 0.40460771 0.00000000
0.00000000 0.38640118 0.00000000
0.00000000 0.36789826 0.00000000
0.00000000 0.34916180 0.00000000
0.00000000 0.33025473 0.00000000
0.00000000 0.31123990 0.00000000
0.00000000 0.29218018 0.00000000
0.00000000 0.27313846 0.00000000
0.00000000 0.25417760 0.00000000
0.00000000 0.23536050 0.00000000
0.00000000 0.21675001 0.00000000
0.00000000 0.19840904 0.00000000
0.00000000 0.18040043 0.00000000
0.00000000 0.16278709 0.00000000
0.00000000 0.14563188 0.00000000
0.00000000 0.12899767 0.00000000
0.00000000 0.59958667 0.00000000
0.00000000 0.59341800 0.00000000
0.00000000 0.58600754 0.00000000
0.00000000 0.57741803 0.00000000
0.00000000 0.56771249 0.00000000
0.00000000 0.55695367 0.00000000
0.00000000 0.54520452 0.00000000
0.00000000 0.53252786 0.00000000
0.00000000 0.51898664 0.00000000
0.00000000 0.50464374 0.00000000
0.00000000 0.48956195 0.00000000
0.00000000 0.47380418 0.00000000
0.00000000 0.45743334 0.00000000
0.00000000 0.44051227 0.00000000
0.00000000 0.42310390 0.00000000
0.00000000 0.40527105 0.00000000
0.00000000 0.38707662 0.00000000
0.00000000 0.36858347 0.00000000
0.00000000 0.34985453 0.00000000
0.00000000 0.33095261 0.00000000
0.00000000 0.31194061 0.00000000
0.00000000 0.29288146 0.00000000
0.00000000 0.27383795 0.00000000
0.00000000 0.25487301 0.00000000
0.00000000 0.23604949 0.00000000
0.00000000 0.21743029 0.00000000
0.00000000 0.19907829 0.00000000
0.00000000 0.18105634 0.00000000
0.00000000 0.16342734 0.00000000
0.00000000 0.14625415 0.00000000
0.00000000 0.12959968 0.00000000
0.00000000 0.11352675 0.00000000
0.00000000 0.09809829 0.00000000
0.00000000 0.58630145 0.00000000
0.00000000 0.57775420 0.00000000
0.00000000 0.56808859 0.00000000
0.00000000 0.55736738 0.00000000
0.00000000 0.54565358 0.00000000
0.00000000 0.53300995 0.00000000
0.00000000 0.51949942 0.00000000
0.00000000 0.50518489 0.00000000
0.00000000 0.49012914 0.00000000
0.00000000 0.47439516 0.00000000
0.00000000 0.45804575 0.00000000
0.00000000 0.44114381 0.00000000
0.00000000 0.42375225 0.00000000
0.00000000 0.40593389 0.00000000
0.00000000 0.38775164 0.00000000
0.00000000 0.36926839 0.00000000
0.00000000 0.35054699 0.00000000
0.00000000 0.33165035 0.00000000
0.00000000 0.31264129 0.00000000
0.00000000 0.29358274 0.00000000
0.00000000 0.27453753 0.00000000
0.00000000 0.25556859 0.00000000
0.00000000 0.23673876 0.00000000
0.00000000 0.21811093 0.00000000
0.00000000 0.19974798 0.00000000
0.00000000 0.18171278 0.00000000
0.00000000 0.16406821 0.00000000
0.00000000 0.14687714 0.00000000
0.00000000 0.13020246 0.00000000
0.00000000 0.11410704 0.00000000
0.00000000 0.09865375 0.00000000
0.00000000 0.08390547 0.00000000
0.00000000 0.06992509 0.00000000
0.00000000 0.56846327 0.00000000
0.00000000 0.55777979 0.00000000
0.00000000 0.54610139 0.00000000
0.00000000 0.53349084 0.00000000
0.00000000 0.52001113 0.00000000
0.00000000 0.50572503 0.00000000
0.00000000 0.49069545 0.00000000
0.00000000 0.47498527 0.00000000
0.00000000 0.45865741 0.00000000
0.00000000 0.44177470 0.00000000
0.00000000 0.42440000 0.00000000
0.00000000 0.40659624 0.00000000
0.00000000 0.38842627 0.00000000
0.00000000 0.36995298 0.00000000
0.00000000 0.35123923 0.00000000
0.00000000 0.33234790 0.00000000
0.00000000 0.31334189 0.00000000
0.00000000 0.29428402 0.00000000
0.00000000 0.27523723 0.00000000
0.00000000 0.25626436 0.00000000
0.00000000 0.23742831 0.00000000
0.00000000 0.21879193 0.00000000
0.00000000 0.20041811 0.00000000
0.00000000 0.18236974 0.00000000
0.00000000 0.16470969 0.00000000
0.00000000 0.14750083 0.00000000
0.00000000 0.13080603 0.00000000
0.00000000 0.11468818 0.00000000
0.00000000 0.09921016 0.00000000
0.00000000 0.08443483 0.00000000
0.00000000 0.07042509 0.00000000
0.00000000 0.05724379 0.00000000
0.00000000 0.04495383 0.00000000
0.00000000 0.54654795 0.00000000
0.00000000 0.53397059 0.00000000
0.00000000 0.52052170 0.00000000
0.00000000 0.50626415 0.00000000
0.00000000 0.49126080 0.00000000
0.00000000 0.47557458 0.00000000
0.00000000 0.45926830 0.00000000
0.00000000 0.44240490 0.00000000
0.00000000 0.42504719 0.00000000
0.00000000 0.40725812 0.00000000
0.00000000 0.38910049 0.00000000
0.00000000 0.37063724 0.00000000
0.00000000 0.35193124 0.00000000
0.00000000 0.33304533 0.00000000
0.00000000 0.31404239 0.00000000
0.00000000 0.29498532 0.00000000
0.00000000 0.27593702 0.00000000
0.00000000 0.25696033 0.00000000
0.00000000 0.23811811 0.00000000
0.00000000 0.21947329 0.00000000
0.00000000 0.20108870 0.00000000
0.00000000 0.18302724 0.00000000
0.00000000 0.16535178 0.00000000
0.00000000 0.14812520 0.00000000
0.00000000 0.13141038 0.00000000
0.00000000 0.11527019 0.00000000
0.00000000 0.09976751 0.00000000
0.00000000 0.08496522 0.00000000
0.00000000 0.07092620 0.00000000
0.00000000 0.05771331 0.00000000
0.00000000 0.04538945 0.00000000
0.00000000 0.03401748 0.00000000
0.00000000 0.02366028 0.00000000
0.00000000 0.52103120 0.00000000
0.00000000 0.50680226 0.00000000
0.00000000 0.49182525 0.00000000
0.00000000 0.47616303 0.00000000
0.00000000 0.45987844 0.00000000
0.00000000 0.44303444 0.00000000
0.00000000 0.42569381 0.00000000
0.00000000 0.40791947 0.00000000
0.00000000 0.38977432 0.00000000
0.00000000 0.37132120 0.00000000
0.00000000 0.35262299 0.00000000
0.00000000 0.33374259 0.00000000
0.00000000 0.31474283 0.00000000
0.00000000 0.29568666 0.00000000
0.00000000 0.27663690 0.00000000
0.00000000 0.25765646 0.00000000
0.00000000 0.23880820 0.00000000
0.00000000 0.22015499 0.00000000
0.00000000 0.20175971 0.00000000
0.00000000 0.18368524 0.00000000
0.00000000 0.16599448 0.00000000
0.00000000 0.14875028 0.00000000
0.00000000 0.13201551 0.00000000
0.00000000 0.11585307 0.00000000
0.00000000 0.10032582 0.00000000
0.00000000 0.08549665 0.00000000
0.00000000 0.07142843 0.00000000
0.00000000 0.05818404 0.00000000
0.00000000 0.04582635 0.00000000
0.00000000 0.03441825 0.00000000
0.00000000 0.02402260 0.00000000
0.00000000 0.01470229 0.00000000
0.00000000 0.00652019 0.00000000
0.00000000 0.49238878 0.00000000
0.00000000 0.47675064 0.00000000
0.00000000 0.46048784 0.00000000
0.00000000 0.44366330 0.00000000
0.00000000 0.42633983 0.00000000
0.00000000 0.40858033 0.00000000
0.00000000 0.39044771 0.00000000
0.00000000 0.37200478 0.00000000
0.00000000 0.35331449 0.00000000
0.00000000 0.33443967 0.00000000
0.00000000 0.31544322 0.00000000
0.00000000 0.29638800 0.00000000
0.00000000 0.27733690 0.00000000
0.00000000 0.25835279 0.00000000
0.00000000 0.23949854 0.00000000
0.00000000 0.22083704 0.00000000
0.00000000 0.20243116 0.00000000
0.00000000 0.18434379 0.00000000
0.00000000 0.16663778 0.00000000
0.00000000 0.14937603 0.00000000
0.00000000 0.13262142 0.00000000
0.00000000 0.11643680 0.00000000
0.00000000 0.10088508 0.00000000
0.00000000 0.08602911 0.00000000
0.00000000 0.07193178 0.00000000
0.00000000 0.05865597 0.00000000
0.00000000 0.04626454 0.00000000
0.00000000 0.03482039 0.00000000
0.00000000 0.02438638 0.00000000
0.00000000 0.01502540 0.00000000
0.00000000 0.00680031 0.00000000
0.00131691 0.00017338 0.00132186
0.05122466 0.02714938 0.05512530
0.00000000 0.46109650 0.00000000
0.00000000 0.44429147 0.00000000
0.00000000 0.42698526 0.00000000
0.00000000 0.40924069 0.00000000
0.00000000 0.39112067 0.00000000
0.00000000 0.37268806 0.00000000
0.00000000 0.35400575 0.00000000
0.00000000 0.33513659 0.00000000
0.00000000 0.31614351 0.00000000
0.00000000 0.29708934 0.00000000
0.00000000 0.27803698 0.00000000
0.00000000 0.25904927 0.00000000
0.00000000 0.24018914 0.00000000
0.00000000 0.22151944 0.00000000
0.00000000 0.20310304 0.00000000
0.00000000 0.18500283 0.00000000
0.00000000 0.16728169 0.00000000
0.00000000 0.15000248 0.00000000
0.00000000 0.13322809 0.00000000
0.00000000 0.11702140 0.00000000
0.00000000 0.10144527 0.00000000
0.00000000 0.08656260 0.00000000
0.00000000 0.07243624 0.00000000
0.00000000 0.05912909 0.00000000
0.00000000 0.04670402 0.00000000
0.00000000 0.03522390 0.00000000
0.00000000 0.02475161 0.00000000
0.00000000 0.01535004 0.00000000
0.00000000 0.00708205 0.00000000
0.00000000 0.00001053 0.00000000
0.04898793 0.02545012 0.05262950
0.11931167 0.08829729 0.13245657
0.20657803 0.18042798 0.23291668
0.00000000 0.42763010 0.00000000
0.00000000 0.40990055 0.00000000
0.00000000 0.39179322 0.00000000
0.00000000 0.37337101 0.00000000
0.00000000 0.35469675 0.00000000
0.00000000 0.33583337 0.00000000
0.00000000 0.31684372 0.00000000
0.00000000 0.29779068 0.00000000
0.00000000 0.27873713 0.00000000
0.00000000 0.25974596 0.00000000
0.00000000 0.24088000 0.00000000
0.00000000 0.22220218 0.00000000
0.00000000 0.20377535 0.00000000
0.00000000 0.18566240 0.00000000
0.00000000 0.16792619 0.00000000
0.00000000 0.15062961 0.00000000
0.00000000 0.13383554 0.00000000
0.00000000 0.11760684 0.00000000
0.00000000 0.10200641 0.00000000
0.00000000 0.08709710 0.00000000
0.00000000 0.07294181 0.00000000
0.00000000 0.05960341 0.00000000
0.00000000 0.04714477 0.00000000
0.00000000 0.03562877 0.00000000
0.00000000 0.02511830 0.00000000
0.00000000 0.01567622 0.00000000
0.00000000 0.00736541 0.00000000
0.00000000 0.00024875 0.00000000
0.04677999 0.02380146 0.05017044
0.11639779 0.08541670 0.12911439
0.20311761 0.17661370 0.22893067
0.30260661 0.28928560 0.34311509
0.41053197 0.41532555 0.46516341
0.00000000 0.39246532 0.00000000
0.00000000 0.37405360 0.00000000
0.00000000 0.35538751 0.00000000
0.00000000 0.33652997 0.00000000
0.00000000 0.31754383 0.00000000
0.00000000 0.29849201 0.00000000
0.00000000 0.27943739 0.00000000
0.00000000 0.26044279 0.00000000
0.00000000 0.24157111 0.00000000
0.00000000 0.22288527 0.00000000
0.00000000 0.20444809 0.00000000
0.00000000 0.18632247 0.00000000
0.00000000 0.16857129 0.00000000
0.00000000 0.15125743 0.00000000
0.00000000 0.13444375 0.00000000
0.00000000 0.11819313 0.00000000
0.00000000 0.10256847 0.00000000
0.00000000 0.08763263 0.00000000
0.00000000 0.07344849 0.00000000
0.00000000 0.06007892 0.00000000
0.00000000 0.04758680 0.00000000
0.00000000 0.03603501 0.00000000
0.00000000 0.02548643 0.00000000
0.00000000 0.01600393 0.00000000
0.00000000 0.00765039 0.00000000
0.00000000 0.00048868 0.00000000
0.04460106 0.02220381 0.04774843
0.11350705 0.08257616 0.12580046
0.19967447 0.17282851 0.22496410
0.29877049 0.28485399 0.33873516
0.40646222 0.41054577 0.46060944
0.51841688 0.54179698 0.58408272
0.63030159 0.67050076 0.70265090
0.00000000 0.35607800 0.00000000
0.00000000 0.33722639 0.00000000
0.00000000 0.31824389 0.00000000
0.00000000 0.29919335 0.00000000
0.00000000 0.28013772 0.00000000
0.00000000 0.26113978 0.00000000
0.00000000 0.24226248 0.00000000
0.00000000 0.22356868 0.00000000
0.00000000 0.20512123 0.00000000
0.00000000 0.18698305 0.00000000
0.00000000 0.16921698 0.00000000
0.00000000 0.15188591 0.00000000
0.00000000 0.13505271 0.00000000
0.00000000 0.11878028 0.00000000
0.00000000 0.10313147 0.00000000
0.00000000 0.08816917 0.00000000
0.00000000 0.07395626 0.00000000
0.00000000 0.06055561 0.00000000
0.00000000 0.04803010 0.00000000
0.00000000 0.03644260 0.00000000
0.00000000 0.02585600 0.00000000
0.00000000 0.01633316 0.00000000
0.00000000 0.00793698 0.00000000
0.00000000 0.00073031 0.00000000
0.04245136 0.02065758 0.04536380
0.11063968 0.07977605 0.12251510
0.19624884 0.16907276 0.22101730
0.29494599 0.28044087 0.33436620
0.40239826 0.40577352 0.45605761
0.51427287 0.53696382 0.57958734
0.62623692 0.66590500 0.69845116
0.73395759 0.78449011 0.80614495
0.83310205 0.88461232 0.89616448
0.00000000 0.31894383 0.00000000
0.00000000 0.29989469 0.00000000
0.00000000 0.28083810 0.00000000
0.00000000 0.26183695 0.00000000
0.00000000 0.24295411 0.00000000
0.00000000 0.22425243 0.00000000
0.00000000 0.20579481 0.00000000
0.00000000 0.18764414 0.00000000
0.00000000 0.16986325 0.00000000
0.00000000 0.15251507 0.00000000
0.00000000 0.13566245 0.00000000
0.00000000 0.11936827 0.00000000
0.00000000 0.10369541 0.00000000
0.00000000 0.08870673 0.00000000
0.00000000 0.07446514 0.00000000
0.00000000 0.06103349 0.00000000
0.00000000 0.04847467 0.00000000
0.00000000 0.03685155 0.00000000
0.00000000 0.02622701 0.00000000
0.00000000 0.01666392 0.00000000
0.00000000 0.00822517 0.00000000
0.00000000 0.00097363 0.00000000
0.04033110 0.01916316 0.04301686
0.10779589 0.07701679 0.11925863
0.19284092 0.16534691 0.21709059
0.29113331 0.27604666 0.33000854
0.39834028 0.40100920 0.45150825
0.51012897 0.53212768 0.57508558
0.62216645 0.66129518 0.69423634
0.73012000 0.78040493 0.80245626
0.82965678 0.88134998 0.89324129
0.91644382 0.95602357 0.96008706
0.98614836 0.99631882 0.99648947
0.00000000 0.28153861 0.00000000
0.00000000 0.26253429 0.00000000
0.00000000 0.24364597 0.00000000
0.00000000 0.22493652 0.00000000
0.00000000 0.20646881 0.00000000
0.00000000 0.18830572 0.00000000
0.00000000 0.17051013 0.00000000
0.00000000 0.15314491 0.00000000
0.00000000 0.13627294 0.00000000
0.00000000 0.11995710 0.00000000
0.00000000 0.10426026 0.00000000
0.00000000 0.08924530 0.00000000
0.00000000 0.07497511 0.00000000
0.00000000 0.06151255 0.00000000
0.00000000 0.04892050 0.00000000
0.00000000 0.03726185 0.00000000
0.00000000 0.02659946 0.00000000
0.00000000 0.01699621 0.00000000
0.00000000 0.00851498 0.00000000
0.00000000 0.00121865 0.00000000
0.03824050 0.01772097 0.04070795
0.10497589 0.07429877 0.11603139
0.18945092 0.16165131 0.21318430
0.28733274 0.27167174 0.32566249
0.39428851 0.39625320 0.44696173
0.50598538 0.52728879 0.57057786
0.61809051 0.65667176 0.69000673
0.72627109 0.77629513 0.79874402
0.82619423 0.87805212 0.89028567
0.91352713 0.95383584 0.95812744
0.98393691 0.99553949 0.99576509
1.00000000 0.99621385 0.99621385
1.00000000 0.98990154 0.98990154
0.00000000 0.24433807 0.00000000
0.00000000 0.22562093 0.00000000
0.00000000 0.20714320 0.00000000
0.00000000 0.18896779 0.00000000
0.00000000 0.17115757 0.00000000
0.00000000 0.15377541 0.00000000
0.00000000 0.13688417 0.00000000
0.00000000 0.12054676 0.00000000
0.00000000 0.10482604 0.00000000
0.00000000 0.08978488 0.00000000
0.00000000 0.07548618 0.00000000
0.00000000 0.06199279 0.00000000
0.00000000 0.04936760 0.00000000
0.00000000 0.03767350 0.00000000
0.00000000 0.02697334 0.00000000
0.00000000 0.01733001 0.00000000
0.00000000 0.00880639 0.00000000
0.00000000 0.00146535 0.00000000
0.03617977 0.01633139 0.03843739
0.10217991 0.07162241 0.11283370
0.18607907 0.15798642 0.20929876
0.28354442 0.26731655 0.32132837
0.39024314 0.39150596 0.44241834
0.50184238 0.52244776 0.56606448
0.61400926 0.65203512 0.68576258
0.72241098 0.77216119 0.79500854
0.82271469 0.87471914 0.88729799
0.91058749 0.95160204 0.95612687
0.98169667 0.99470305 0.99499100
1.00000000 0.99642283 0.99642283
1.00000000 0.99015504 0.99015504
1.00000000 0.98270047 0.98270047
1.00000000 0.97410792 0.97410792
0.00000000 0.20781802 0.00000000
0.00000000 0.18963037 0.00000000
0.00000000 0.17180559 0.00000000
0.00000000 0.15440656 0.00000000
0.00000000 0.13749616 0.00000000
0.00000000 0.12113726 0.00000000
0.00000000 0.10539274 0.00000000
0.00000000 0.09032547 0.00000000
0.00000000 0.07599834 0.00000000
0.00000000 0.06247421 0.00000000
0.00000000 0.04981596 0.00000000
0.00000000 0.03808649 0.00000000
0.00000000 0.02734865 0.00000000
0.00000000 0.01766533 0.00000000
0.00000000 0.00909940 0.00000000
0.00000000 0.00171374 0.00000000
0.03414914 0.01499485 0.03620550
0.09940814 0.06898810 0.10966587
0.18272558 0.15435259 0.20543428
0.27976862 0.26298144 0.31700653
0.38620442 0.38676783 0.43787840
0.49770012 0.51760483 0.56154573
0.60992289 0.64738572 0.68150437
0.71853989 0.76800346 0.79125005
0.81921828 0.87135136 0.88427860
0.90762520 0.94932246 0.95408583
0.97942787 0.99380994 0.99416751
1.00000000 0.99663013 0.99663013
1.00000000 0.99040699 0.99040699
1.00000000 0.98299515 0.98299515
1.00000000 0.97444361 0.97444361
1.00000000 0.96480137 0.96480137
1.00000000 0.95411724 0.95411724
0.00000000 0.17245419 0.00000000
0.00000000 0.15503839 0.00000000
0.00000000 0.13810889 0.00000000
0.00000000 0.12172859 0.00000000
0.00000000 0.10596035 0.00000000
0.00000000 0.09086706 0.00000000
0.00000000 0.07651158 0.00000000
0.00000000 0.06295680 0.00000000
0.00000000 0.05026558 0.00000000
0.00000000 0.03850082 0.00000000
0.00000000 0.02772539 0.00000000
0.00000000 0.01800216 0.00000000
0.00000000 0.00939401 0.00000000
0.00000000 0.00196382 0.00000000
0.03214880 0.01371174 0.03401260
0.09666082 0.06639626 0.10652824
0.17939067 0.15075025 0.20159119
0.27600554 0.25866687 0.31269726
0.38217252 0.38203925 0.43334228
0.49355885 0.51276052 0.55702204
0.60583168 0.64272386 0.67723233
0.71465808 0.76382238 0.78746891
0.81570530 0.86794925 0.88122773
0.90464044 0.94699758 0.95200449
0.97713071 0.99286056 0.99329501
1.00000000 0.99683577 0.99683577
1.00000000 0.99065727 0.99065727
1.00000000 0.98328835 0.98328835
1.00000000 0.97477788 0.97477788
1.00000000 0.96517485 0.96517485
1.00000000 0.95452815 0.95452815
1.00000000 0.94288683 0.94288683
1.00000000 0.93029970 0.93029970
0.00000000 0.13872238 0.00000000
0.00000000 0.12232076 0.00000000
0.00000000 0.10652889 0.00000000
0.00000000 0.09140964 0.00000000
0.00000000 0.07702591 0.00000000
0.00000000 0.06344055 0.00000000
0.00000000 0.05071645 0.00000000
0.00000000 0.03891649 0.00000000
0.00000000 0.02810355 0.00000000
0.00000000 0.01834050 0.00000000
0.00000000 0.00969021 0.00000000
0.00000000 0.00221557 0.00000000
0.03017899 0.01248246 0.03185903
0.09393816 0.06384727 0.10342112
0.17607455 0.14717981 0.19776981
0.27225536 0.25437319 0.30840090
0.37814772 0.37732062 0.42881024
0.48941880 0.50791520 0.55249357
0.60173577 0.63805002 0.67294675
0.71076572 0.75961834 0.78366554
0.81217593 0.86451316 0.87814575
0.90163344 0.94462776 0.94988328
0.97480547 0.99185520 0.99237382
1.00000000 0.99703974 0.99703974
1.00000000 0.99090594 0.99090594
1.00000000 0.98357993 0.98357993
1.00000000 0.97511059 0.97511059
1.00000000 0.96554691 0.96554691
1.00000000 0.95493776 0.95493776
1.00000000 0.94333214 0.94333214
1.00000000 0.93077892 0.93077892
1.00000000 0.91732711 0.91732711
1.00000000 0.90302557 0.90302557
0.00000000 0.10709832 0.00000000
0.00000000 0.09195322 0.00000000
0.00000000 0.07754131 0.00000000
0.00000000 0.06392547 0.00000000
0.00000000 0.05116858 0.00000000
0.00000000 0.03933350 0.00000000
0.00000000 0.02848313 0.00000000
0.00000000 0.01868034 0.00000000
0.00000000 0.00998800 0.00000000
0.00000000 0.00246899 0.00000000
0.02823992 0.01130742 0.02974510
0.09124036 0.06134155 0.10034484
0.17277744 0.14364165 0.19397047
0.26851833 0.25010088 0.30411780
0.37413019 0.37261233 0.42428261
0.48528016 0.50306922 0.54796076
0.59763539 0.63336462 0.66864800
0.70686311 0.75539166 0.77984017
0.80863035 0.86104357 0.87503302
0.89860439 0.94221348 0.94772249
0.97245228 0.99079448 0.99140424
1.00000000 0.99724203 0.99724203
1.00000000 0.99115306 0.99115306
1.00000000 0.98387003 0.98387003
1.00000000 0.97544187 0.97544187
1.00000000 0.96591759 0.96591759
1.00000000 0.95534605 0.95534605
1.00000000 0.94377619 0.94377619
1.00000000 0.93125701 0.93125701
1.00000000 0.91783732 0.91783732
1.00000000 0.90356618 0.90356618
1.00000000 0.88849247 0.88849247
1.00000000 0.87266517 0.87266517
0.00000000 0.07805780 0.00000000
0.00000000 0.06441155 0.00000000
0.00000000 0.05162194 0.00000000
0.00000000 0.03975185 0.00000000
0.00000000 0.02886413 0.00000000
0.00000000 0.01902169 0.00000000
0.00000000 0.01028738 0.00000000
0.00000000 0.00272410 0.00000000
0.02633180 0.01018702 0.02767114
0.08856766 0.05887951 0.09729973
0.16949956 0.14013620 0.19019349
0.26479468 0.24585025 0.29984823
0.37012014 0.36791480 0.41975975
0.48114315 0.49822301 0.54342389
0.59353083 0.62866795 0.66433638
0.70295030 0.75114286 0.77599311
0.80506885 0.85754085 0.87188983
0.89555347 0.93975502 0.94552243
0.97007143 0.98967862 0.99038661
1.00000000 0.99744266 0.99744266
1.00000000 0.99139851 0.99139851
1.00000000 0.98415852 0.98415852
1.00000000 0.97577167 0.97577167
1.00000000 0.96628684 0.96628684
1.00000000 0.95575297 0.95575297
1.00000000 0.94421899 0.94421899
1.00000000 0.93173379 0.93173379
1.00000000 0.91834641 0.91834641
1.00000000 0.90410572 0.90410572
1.00000000 0.88906068 0.88906068
1.00000000 0.87326020 0.87326020
1.00000000 0.85675323 0.85675323
1.00000000 0.83958864 0.83958864
0.00000000 0.05207656 0.00000000
0.00000000 0.04017152 0.00000000
0.00000000 0.02924655 0.00000000
0.00000000 0.01936454 0.00000000
0.00000000 0.01058835 0.00000000
0.00000000 0.00298087 0.00000000
0.02445485 0.00912168 0.02563747
0.08592026 0.05646154 0.09428611
0.16624111 0.13666385 0.18643920
0.26108459 0.24162178 0.29559255
0.36611781 0.36322844 0.41524199
0.47700796 0.49337700 0.53888327
0.58942223 0.62396055 0.66001230
0.69902766 0.74687231 0.77212477
0.80149156 0.85400540 0.86871654
0.89248097 0.93725294 0.94328344
0.96766311 0.98850805 0.98932123
1.00000000 0.99764156 0.99764156
1.00000000 0.99164236 0.99164236
1.00000000 0.98444551 0.98444551
1.00000000 0.97609997 0.97609997
1.00000000 0.96665466 0.96665466
1.00000000 0.95615852 0.95615852
1.00000000 0.94466043 0.94466043
1.00000000 0.93220943 0.93220943
1.00000000 0.91885436 0.91885436
1.00000000 0.90464419 0.90464419
1.00000000 0.88962787 0.88962787
1.00000000 0.87385428 0.87385428
1.00000000 0.85737246 0.85737246
1.00000000 0.84023124 0.84023124
1.00000000 0.82247955 0.82247955
1.00000000 0.80416638 0.80416638
0.00000000 0.02963038 0.00000000
0.00000000 0.01970888 0.00000000
0.00000000 0.01089090 0.00000000
0.00000000 0.00323930 0.00000000
0.02260928 0.00811177 0.02364441
0.08329838 0.05408804 0.09130429
0.16300233 0.13322501 0.18270792
0.25738829 0.23741582 0.29135108
0.36212340 0.35855362 0.41072962
0.47287485 0.48853156 0.53433931
0.58530980 0.61924279 0.65567595
0.69509536 0.74258041 0.76823539
0.79789877 0.85043758 0.86551338
0.88938707 0.93470752 0.94100583
0.96522754 0.98728329 0.98820841
1.00000000 0.99783880 0.99783880
1.00000000 0.99188459 0.99188459
1.00000000 0.98473096 0.98473096
1.00000000 0.97642678 0.97642678
1.00000000 0.96702105 0.96702105
1.00000000 0.95656270 0.95656270
1.00000000 0.94510061 0.94510061
1.00000000 0.93268383 0.93268383
1.00000000 0.91936111 0.91936111
1.00000000 0.90518159 0.90518159
1.00000000 0.89019400 0.89019400
1.00000000 0.87444746 0.87444746
1.00000000 0.85799080 0.85799080
1.00000000 0.84087294 0.84087294
1.00000000 0.82314289 0.82314289
1.00000000 0.80484951 0.80484951
1.00000000 0.78604180 0.78604180
1.00000000 0.76676863 0.76676863
0.00000000 0.01119502 0.00000000
0.00000000 0.00349941 0.00000000
0.02079531 0.00715773 0.02169230
0.08070223 0.05175943 0.08835462
0.15978341 0.12982008 0.17899996
0.25370601 0.23323281 0.28712416
0.35813716 0.35389078 0.40622297
0.46874404 0.48368713 0.52979225
0.58119380 0.61451501 0.65132773
0.69115365 0.73826754 0.76432532
0.79429066 0.84683788 0.86228079
0.88627201 0.93211919 0.93868989
0.96276492 0.98600459 0.98704851
1.00000000 0.99803436 0.99803436
1.00000000 0.99212521 0.99212521
1.00000000 0.98501480 0.98501480
1.00000000 0.97675210 0.97675210
1.00000000 0.96738607 0.96738607
1.00000000 0.95696557 0.95696557
1.00000000 0.94553953 0.94553953
1.00000000 0.93315697 0.93315697
1.00000000 0.91986674 0.91986674
1.00000000 0.90571785 0.90571785
1.00000000 0.89075917 0.89075917
1.00000000 0.87503964 0.87503964
1.00000000 0.85860825 0.85860825
1.00000000 0.84151387 0.84151387
1.00000000 0.82380545 0.82380545
1.00000000 0.80553192 0.80553192
1.00000000 0.78674227 0.78674227
1.00000000 0.76748532 0.76748532
1.00000000 0.74781013 0.74781013
