Voom Vam Major/Voom Vam Major.cube
# VEGAS Pro LUT
TITLE "Voom Vam Major"
LUT_3D_SIZE 9
0.29019609 0.06666667 0.14509805
0.32029602 0.07424746 0.15689951
0.37794980 0.08874082 0.17944680
0.45476648 0.10901777 0.21154334
0.54235518 0.13394934 0.25199249
0.62581009 0.16030706 0.29624310
0.67932361 0.17564677 0.32717234
0.73163688 0.18751642 0.35666043
0.78240651 0.19822349 0.38589966
0.37543786 0.08809824 0.17844079
0.45169821 0.10818242 0.21020721
0.53903925 0.13296273 0.25037026
0.62382293 0.15964666 0.29506230
0.67737406 0.17515804 0.32606733
0.72973752 0.18711448 0.35558730
0.78057003 0.19782342 0.38481456
0.82952827 0.20959234 0.41494149
0.87626880 0.22472869 0.44716036
0.53572702 0.13198097 0.24875779
0.62183464 0.15897834 0.29387790
0.67542291 0.17466450 0.32496029
0.72783613 0.18671083 0.35451376
0.77873105 0.19742480 0.38373068
0.82776433 0.20911384 0.41380337
0.87459254 0.22408542 0.44592416
0.91887248 0.24464700 0.48128545
0.96026069 0.27310601 0.52107948
0.67347014 0.17416604 0.32385117
0.72593272 0.18630539 0.35343978
0.77688956 0.19702749 0.38264793
0.82599735 0.20863977 0.41266802
0.87291282 0.22344971 0.44469237
0.91729254 0.24376476 0.47991329
0.95879328 0.27189237 0.51952314
0.99707162 0.31013998 0.56471431
1.00000000 0.37284023 0.62175649
0.77504557 0.19663139 0.38156632
0.82422745 0.20817004 0.41153541
0.87122965 0.22282146 0.44346488
0.91570878 0.24289308 0.47854707
0.95732147 0.27069238 0.51797432
0.99572444 0.30852681 0.56293905
1.00000000 0.37033528 0.61961651
1.00000000 0.44149542 0.67770261
1.00000000 0.51669204 0.73450291
0.86954308 0.22220053 0.44224164
0.91412109 0.24203187 0.47718674
0.95584536 0.26950601 0.51643306
0.99437249 0.30693036 0.56117284
1.00000000 0.36784062 0.61747700
1.00000000 0.43878409 0.67557806
1.00000000 0.51389551 0.73245573
1.00000000 0.58960038 0.78641099
0.99768955 0.66232407 0.83574474
0.95436490 0.26833308 0.51489913
0.99301571 0.30535048 0.55941576
1.00000000 0.36535642 0.61533821
1.00000000 0.43607840 0.67345184
1.00000000 0.51109982 0.73040462
1.00000000 0.58684617 0.78449750
0.99821091 0.65974289 0.83403134
0.98518395 0.72621536 0.87730700
0.97726029 0.78268909 0.91262543
1.00000000 0.36288288 0.61320007
1.00000000 0.43337852 0.67132401
1.00000000 0.50830513 0.72834963
1.00000000 0.58408815 0.78257787
0.99873352 0.65715301 0.83230948
0.98559833 0.72392517 0.87584555
0.97741306 0.78083009 0.91148680
0.97778398 0.82441682 0.93565232
0.98138517 0.86446834 0.95336795
1.00000000 0.50551158 0.72629088
1.00000000 0.58132643 0.78065211
0.99925721 0.65455461 0.83057928
0.98601937 0.72162163 0.87437332
0.97757816 0.77895290 0.91033512
0.97767580 0.82293862 0.93494725
0.98123372 0.86301118 0.95276576
0.98567283 0.90153700 0.96778673
0.99037910 0.93649161 0.98000938
0.29788828 0.06866980 0.14825396
0.33948341 0.07901932 0.16429363
0.40543318 0.09585096 0.19062291
0.48734662 0.11803574 0.22604519
0.57683283 0.14444469 0.26936388
0.64633298 0.16671179 0.30828139
0.69942933 0.18045631 0.33852053
0.75119454 0.19161053 0.36777309
0.80128527 0.20248193 0.39723143
0.40267271 0.09512997 0.18948585
0.48414752 0.11713783 0.22459480
0.57350379 0.14341137 0.26764417
0.64435863 0.16612686 0.30713466
0.69749743 0.18001068 0.33743283
0.74931771 0.19121931 0.36670056
0.79947609 0.20206024 0.39613020
0.84762931 0.21484089 0.42691410
0.89343393 0.23186873 0.46024457
0.57017410 0.14238229 0.26593360
0.64238298 0.16553520 0.30598491
0.69556379 0.17956144 0.33634374
0.74743861 0.19082759 0.36562827
0.79766423 0.20164116 0.39503083
0.84589726 0.21430957 0.42574376
0.89179438 0.23114029 0.45895943
0.93501228 0.25444075 0.49587014
0.97520763 0.28651845 0.53766829
0.69362831 0.17910844 0.33525321
0.74555731 0.19043528 0.36455613
0.79584968 0.20122461 0.39393321
0.84416211 0.21378389 0.42457682
0.89015126 0.23042059 0.45767927
0.93347383 0.25344217 0.49443293
0.97378641 0.28515607 0.53603011
1.00000000 0.33219838 0.58589506
1.00000000 0.39936420 0.64394742
0.79403245 0.20081045 0.39283732
0.84242380 0.21326374 0.42341319
0.88850451 0.22970955 0.45640406
0.93193120 0.25245535 0.49300230
0.97236067 0.28380859 0.53440017
1.00000000 0.32989034 0.58377570
1.00000000 0.39676297 0.64180654
1.00000000 0.46988371 0.69960284
1.00000000 0.54567808 0.75546551
0.88685411 0.22900702 0.45513374
0.93038458 0.25148016 0.49157813
0.97093034 0.28247586 0.53277832
1.00000000 0.32759559 0.58165836
1.00000000 0.39417017 0.63966542
1.00000000 0.46712440 0.69750041
1.00000000 0.54288369 0.75346428
1.00000000 0.61787355 0.80585790
0.99241143 0.68851942 0.85298216
0.96949559 0.28115779 0.53116447
1.00000000 0.32531431 0.57954299
1.00000000 0.39158601 0.63752401
1.00000000 0.46436888 0.69539547
1.00000000 0.54008836 0.75145829
1.00000000 0.61516982 0.80401337
0.99290746 0.68603879 0.85136151
0.98133463 0.74912065 0.89180374
0.97645420 0.80084091 0.92364091
1.00000000 0.38901067 0.63538247
1.00000000 0.46161732 0.69328809
1.00000000 0.53729206 0.74944752
1.00000000 0.61246037 0.80216175
0.99340683 0.68354768 0.84973156
0.98166734 0.74697936 0.89045799
0.97646683 0.79918092 0.92264181
0.97901666 0.83974969 0.94273674
0.98301762 0.87942183 0.95938575
1.00000000 0.53449517 0.74743211
1.00000000 0.60974538 0.80030316
0.99390948 0.68104613 0.84809238
0.98200887 0.74482286 0.88910061
0.97649395 0.79750091 0.92162883
0.97888935 0.83827072 0.94207084
0.98285562 0.87799233 0.95882285
0.98746902 0.91539532 0.97277695
0.99211550 0.94845527 0.98393261
0.31034058 0.07177934 0.15307958
0.36221117 0.08473347 0.17318353
0.43523714 0.10373927 0.20312084
0.52102757 0.12766777 0.24169494
0.61119157 0.15538999 0.28770918
0.66671222 0.17240456 0.32000294
0.71934158 0.18488930 0.34972531
0.77050883 0.19566353 0.37891567
0.81987071 0.20703468 0.40876645
0.43227303 0.10294593 0.20185913
0.51774251 0.12671334 0.24013667
0.60789430 0.15431599 0.28589842
0.66475260 0.17188276 0.31888390
0.71742916 0.18447444 0.34864855
0.76865631 0.19527070 0.37783739
0.81809068 0.20657901 0.40764272
0.86538893 0.22070684 0.43925691
0.91020775 0.23996161 0.47387230
0.60459203 0.15324564 0.28409612
0.66279149 0.17135540 0.31776246
0.71551484 0.18405713 0.34757105
0.76680136 0.19487856 0.37675992
0.81630778 0.20612717 0.40652147
0.86369067 0.22011037 0.43804798
0.90860683 0.23913565 0.47253183
0.95071280 0.26551047 0.51116532
0.98966527 0.30154225 0.55514085
0.71359855 0.18363729 0.34649268
0.76494402 0.19448702 0.37568325
0.81452197 0.20567901 0.40540257
0.86198908 0.21952073 0.43684304
0.90700203 0.23831964 0.47119695
0.94921750 0.26438317 0.50965667
0.98829210 0.30001882 0.55341458
1.00000000 0.35685781 0.60795563
1.00000000 0.42677733 0.66609514
0.81273335 0.20523445 0.40428603
0.86028421 0.21893780 0.43564206
0.90539354 0.23751345 0.46986765
0.94771796 0.26326886 0.50815523
0.98691422 0.29851145 0.55169702
1.00000000 0.35442245 0.60582072
1.00000000 0.42409894 0.66396254
1.00000000 0.49866068 0.72122198
1.00000000 0.57453310 0.77590001
0.90378124 0.23671699 0.46854386
0.94621420 0.26216736 0.50666082
0.98553163 0.29702005 0.54998827
1.00000000 0.35199854 0.60368687
1.00000000 0.42142713 0.66182882
1.00000000 0.49587250 0.71915078
1.00000000 0.57176006 0.77395386
1.00000000 0.64551526 0.82453883
0.98752254 0.71356362 0.86920661
0.98414433 0.29554451 0.54828811
1.00000000 0.34958628 0.60155427
1.00000000 0.41876212 0.65969390
1.00000000 0.49308625 0.71707618
1.00000000 0.56898409 0.77200204
1.00000000 0.64288110 0.82277226
0.98797095 0.71120268 0.86768782
0.97845811 0.77037436 0.90504956
0.97721905 0.81636333 0.93176037
1.00000000 0.41610411 0.65755802
1.00000000 0.49030215 0.71499825
1.00000000 0.56620544 0.77004457
1.00000000 0.64023936 0.82099777
0.98842490 0.70882940 0.86615884
0.97868687 0.76840103 0.90382862
0.97712231 0.81488991 0.93103462
0.98042935 0.85502893 0.94941449
0.98474091 0.89402747 0.96499687
1.00000000 0.56342423 0.76808155
1.00000000 0.63759029 0.81921548
0.98888421 0.70644397 0.86461973
0.97892666 0.76641065 0.90259522
0.97702771 0.81341767 0.93030512
0.98028612 0.85356009 0.94878787
0.98457158 0.89263642 0.96447319
0.98927003 0.92862231 0.97736037
0.99376744 0.95949328 0.98744893
0.32708797 0.07593272 0.15950862
0.38801423 0.09132733 0.18350288
0.46689662 0.11234318 0.21687429
0.55534428 0.13785128 0.25842625
0.63356686 0.16281463 0.30082527
0.68692887 0.17751324 0.33147386
0.73904127 0.18907365 0.36085275
0.78956068 0.19980329 0.39015427
0.83814377 0.21200964 0.42057076
0.46377376 0.11148352 0.21549430
0.55201823 0.13684636 0.25676650
0.63158429 0.16218416 0.29965806
0.68498576 0.17704223 0.33037612
0.73715019 0.18867719 0.35978058
0.78773433 0.19939652 0.38906384
0.83639473 0.21150766 0.41941819
0.88278812 0.22731808 0.45203599
0.92657119 0.24913521 0.48810962
0.62960052 0.16154619 0.29848748
0.68304098 0.17656684 0.32927659
0.73525703 0.18827951 0.35870826
0.78590536 0.19899164 0.38797483
0.83464259 0.21101069 0.41826868
0.88112551 0.22664413 0.45078209
0.92501068 0.24819939 0.48670745
0.96595484 0.27798396 0.52723706
1.00000000 0.31977305 0.57436013
0.73336172 0.18788046 0.35763571
0.78407377 0.19858852 0.38688725
0.83288741 0.21051860 0.41712216
0.87945938 0.22597818 0.44953278
0.92344618 0.24727471 0.48531151
0.96450460 0.27671564 0.52565062
1.00000000 0.31753966 0.57225263
1.00000000 0.38272786 0.63012588
1.00000000 0.45488149 0.68810546
0.83112925 0.21003130 0.41597858
0.87778968 0.22532015 0.44828805
0.92187774 0.24636106 0.48392171
0.96304995 0.27546147 0.52407193
1.00000000 0.31532058 0.57014751
1.00000000 0.38018432 0.62798446
1.00000000 0.45214504 0.68599027
1.00000000 0.52762818 0.74246591
1.00000000 0.60305911 0.79571223
0.92030531 0.24545830 0.48253807
0.96159095 0.27422133 0.52250099
0.99963003 0.31326646 0.56812894
1.00000000 0.37765041 0.62584329
1.00000000 0.44941336 0.68387300
1.00000000 0.52483022 0.74043500
1.00000000 0.60032642 0.79383022
0.99566764 0.67232740 0.84235954
0.98325396 0.73725855 0.88432384
0.99829209 0.31162107 0.56633610
1.00000000 0.37512627 0.62370241
1.00000000 0.44668663 0.68175370
1.00000000 0.52203238 0.73839986
1.00000000 0.59758902 0.79194164
0.99618202 0.66978192 0.84068012
0.98363245 0.73503649 0.88291603
0.97678548 0.78977829 0.91695035
0.97834325 0.83167928 0.93905878
1.00000000 0.44396502 0.67963254
1.00000000 0.51923484 0.73636049
1.00000000 0.59484702 0.79004663
0.99669856 0.66722703 0.83899188
0.98401862 0.73280025 0.88149714
0.97688800 0.78799212 0.91586328
0.97822565 0.83019942 0.93837225
0.98198807 0.87014240 0.95568562
0.98652089 0.90817302 0.97020119
1.00000000 0.59210068 0.78814512
0.99721688 0.66466290 0.83729488
0.98441225 0.73054987 0.88006717
0.97700369 0.78618699 0.91476285
0.97810984 0.82871968 0.93768197
0.98183227 0.86869442 0.95509821
0.98634762 0.90683126 0.96971679
0.99104184 0.94110578 0.98153698
0.99530095 0.96949351 0.99055827
0.34766540 0.08106735 0.16747473
0.41642752 0.09873834 0.19518536
0.49994662 0.12160012 0.23181692
0.58983177 0.14852372 0.27617276
0.65403777 0.16893581 0.31273633
0.70696384 0.18216573 0.34276018
0.75850940 0.19313723 0.37196892
0.80833101 0.20415772 0.40155491
0.85608548 0.21753471 0.43271050
0.49670982 0.12068018 0.23032507
0.58650947 0.14747433 0.27441797
0.65206879 0.16837613 0.31160077
0.70503908 0.18173316 0.34167737
0.75664151 0.19274685 0.37089497
0.80653268 0.20372467 0.40044597
0.85436922 0.21697406 0.43152267
0.89980787 0.23480250 0.46531746
0.94250530 0.25951743 0.50302261
0.65009838 0.16781017 0.31046247
0.70311248 0.18129741 0.34059340
0.75477129 0.19235642 0.36982146
0.80473149 0.20329468 0.39933908
0.85264975 0.21641962 0.43033853
0.89818269 0.23403871 0.46401218
0.94098705 0.25845942 0.50155234
0.98071945 0.29198915 0.54415143
1.00000000 0.34371567 0.59632522
0.75289881 0.19196585 0.36874837
0.80292755 0.20286766 0.39823419
0.85092700 0.21587127 0.42915800
0.89655381 0.23328415 0.46271214
0.93946463 0.25741372 0.50008899
0.97931612 0.29056749 0.54248077
1.00000000 0.34134495 0.59419733
1.00000000 0.40961048 0.65231150
1.00000000 0.48347861 0.70988435
0.84920108 0.21532889 0.42798102
0.89492124 0.23253866 0.46141729
0.93793809 0.25638026 0.49863234
0.97790819 0.28916112 0.54081857
1.00000000 0.33898664 0.59207100
1.00000000 0.40697789 0.65017271
1.00000000 0.48070320 0.70779556
1.00000000 0.55658805 0.76324034
1.00000000 0.63105786 0.81480801
0.93640739 0.25535887 0.49718246
0.97649568 0.28777000 0.53916466
1.00000000 0.33664092 0.58994633
1.00000000 0.40435305 0.64803332
1.00000000 0.47793075 0.70570385
1.00000000 0.55379951 0.76125884
1.00000000 0.62838471 0.81299925
0.99050921 0.69811177 0.85922593
0.97983664 0.75940621 0.89823979
1.00000000 0.33430800 0.58782345
1.00000000 0.40173617 0.64589328
1.00000000 0.47516140 0.70360923
1.00000000 0.55100918 0.75927222
1.00000000 0.62570494 0.81118304
0.99098986 0.69567406 0.85764271
0.98012292 0.75734210 0.89695197
0.97663391 0.80687672 0.92700940
0.97966546 0.84700078 0.94595057
1.00000000 0.47239533 0.70151192
1.00000000 0.54821730 0.75728047
1.00000000 0.62301880 0.80935949
0.99147475 0.69322515 0.85604978
0.98041898 0.75526190 0.89565223
0.97655183 0.80541283 0.92625922
0.97953022 0.84552526 0.94530332
0.98365879 0.88497788 0.96155000
0.98832363 0.92174631 0.97499877
1.00000000 0.62032640 0.80752861
0.99196368 0.69076520 0.85444725
0.98072481 0.75316578 0.89434057
0.97647214 0.80395073 0.92550528
0.97939652 0.84404886 0.94465226
0.98349363 0.88356161 0.96100187
0.98814964 0.92046463 0.97455359
0.99275035 0.95273352 0.98530674
0.99668187 0.97834373 0.99326068
0.37160775 0.08712067 0.17691159
0.44698599 0.10690393 0.20816466
0.53392202 0.13144752 0.24788240
0.62074959 0.15861042 0.29323030
0.67435795 0.17439324 0.32435557
0.72679818 0.18648992 0.35392800
0.77772689 0.19720793 0.38313997
0.82680088 0.20885472 0.41318375
0.87367678 0.22373773 0.44525173
0.53061622 0.13047333 0.24628511
0.61875957 0.15792960 0.29204017
0.67240435 0.17389204 0.32324532
0.72489357 0.18608345 0.35285375
0.77588403 0.19681129 0.38205785
0.82503235 0.20838302 0.41204989
0.87199515 0.22310612 0.44402230
0.91642916 0.24328800 0.47916734
0.95799100 0.27123612 0.51867741
0.67044914 0.17338572 0.32213289
0.72298700 0.18567500 0.35177895
0.77403867 0.19641580 0.38097677
0.82326084 0.20791560 0.41091871
0.87031013 0.22248186 0.44279712
0.91484326 0.24242204 0.47780433
0.95651686 0.27004358 0.51713270
0.99498761 0.30765396 0.56197453
1.00000000 0.36897326 0.61844945
0.77219081 0.19602133 0.37989673
0.82148635 0.20745233 0.40979016
0.86862171 0.22186489 0.44157621
0.91325349 0.24156649 0.47644719
0.95503837 0.26886454 0.51559544
0.99363303 0.30606657 0.56021333
1.00000000 0.36648428 0.61631030
1.00000000 0.43730754 0.67441851
1.00000000 0.51237047 0.73133743
0.86692989 0.22125509 0.44035947
0.91165984 0.24072121 0.47509584
0.95355552 0.26769894 0.51406562
0.99227363 0.30449569 0.55846113
1.00000000 0.36400589 0.61417186
1.00000000 0.43460500 0.67229140
1.00000000 0.50957531 0.72928423
1.00000000 0.58534229 0.78345120
0.99849582 0.65833127 0.83309323
0.95206839 0.26654661 0.51254308
0.99090952 0.30294123 0.55671787
1.00000000 0.36153823 0.61203420
1.00000000 0.43190837 0.67016280
1.00000000 0.50678122 0.72722715
1.00000000 0.58258218 0.78152817
0.99901903 0.65573674 0.83136678
0.98582715 0.72267032 0.87504381
0.97750163 0.77980840 0.91086024
1.00000000 0.35908154 0.60989738
1.00000000 0.42921785 0.66803271
1.00000000 0.50398833 0.72516632
1.00000000 0.57981849 0.77959913
0.99954319 0.65313375 0.82963204
0.98625177 0.72035956 0.87356585
0.97767335 0.77792132 0.90970153
0.97761768 0.82213265 0.93456101
0.98115158 0.86221552 0.95243573
1.00000000 0.50119692 0.72310191
1.00000000 0.57705146 0.77766418
1.00000000 0.65052259 0.82788903
0.98668277 0.71803570 0.87207735
0.97785711 0.77601635 0.90853000
0.97751266 0.82065552 0.93385011
0.98100197 0.86075515 0.95182770
0.98540747 0.89942318 0.96700770
0.99011505 0.93463510 0.97938949
1.00000000 0.64790326 0.82613784
0.98711997 0.71569896 0.87057835
0.97805268 0.77409363 0.90734571
0.97740972 0.81917918 0.93313539
0.98085362 0.85929286 0.95121586
0.98523629 0.89804947 0.96649879
0.98994362 0.93342441 0.97898358
0.99436164 0.96339327 0.98866951
0.99787629 0.98593163 0.99555612
0.39844999 0.09403011 0.18775290
0.47922459 0.11576150 0.22237444
0.56835777 0.14182280 0.26500443
0.64130485 0.16520958 0.30535650
0.69450831 0.17931482 0.33574909
0.74641275 0.19061369 0.36504343
0.79667479 0.20141365 0.39443192
0.84495121 0.21402214 0.42510682
0.89089859 0.23074666 0.45826054
0.56502783 0.14080039 0.26330808
0.63932717 0.16460726 0.30420199
0.69257188 0.17885976 0.33465773
0.74453020 0.19022098 0.36397135
0.79485881 0.20099841 0.39333522
0.84321433 0.21349949 0.42394170
0.88925344 0.23003168 0.45698309
0.93263292 0.25290245 0.49365178
0.97300929 0.28441924 0.53514004
0.69063377 0.17840077 0.33356482
0.74264544 0.18982749 0.36289933
0.79304010 0.20058550 0.39224026
0.84147429 0.21298230 0.42277986
0.88760471 0.22932529 0.45571056
0.93108809 0.25192198 0.49222466
0.97158104 0.28307980 0.53351450
1.00000000 0.32863700 0.58262056
1.00000000 0.39534765 0.64063871
0.79121876 0.20017481 0.39114687
0.83973116 0.21247043 0.42162126
0.88595241 0.22862738 0.45444289
0.92953926 0.25095311 0.49080402
0.97014832 0.28175509 0.53189707
1.00000000 0.32634959 0.58050424
1.00000000 0.39275956 0.63849741
1.00000000 0.46562091 0.69635260
1.00000000 0.54135907 0.75237072
0.88429654 0.22793780 0.45317999
0.92798638 0.24999572 0.48938978
0.96871108 0.28044498 0.53028762
1.00000000 0.32407573 0.57839012
1.00000000 0.39018017 0.63635594
1.00000000 0.46286753 0.69424629
1.00000000 0.53856319 0.75036210
1.00000000 0.61369264 0.80300426
0.99317944 0.68468130 0.85047364
0.96726936 0.27914935 0.52868611
1.00000000 0.32181561 0.57627815
1.00000000 0.38760972 0.63421434
1.00000000 0.46011823 0.69213754
1.00000000 0.53576654 0.74834877
1.00000000 0.61098015 0.80114883
0.99368066 0.68218446 0.84883863
0.98185253 0.74580497 0.88971901
0.97647989 0.79826701 0.92209101
1.00000000 0.38504836 0.63207269
1.00000000 0.45737317 0.69002652
1.00000000 0.53296930 0.74633086
1.00000000 0.60826224 0.79928648
0.99418491 0.67967743 0.84719437
0.98219883 0.74364018 0.88835543
0.97651482 0.79657614 0.92107052
0.97882056 0.83746386 0.94170606
0.98276758 0.87721127 0.95851415
1.00000000 0.53017169 0.74430835
1.00000000 0.60553908 0.79741734
0.99469209 0.67716026 0.84554100
0.98255366 0.74146056 0.88698035
0.97656393 0.79486549 0.92003626
0.97869593 0.83598435 0.94103438
0.98260695 0.87577695 0.95794541
0.98720002 0.91336608 0.97205859
0.99186110 0.94672722 0.98337340
0.99520200 0.67463315 0.84387863
0.98291677 0.73926616 0.88559401
0.97662705 0.79313523 0.91898841
0.97857296 0.83450460 0.94035888
0.98244721 0.87433964 0.95737278
0.98702610 0.91204572 0.97158897
0.99169552 0.94559824 0.98300672
0.99584156 0.97297287 0.99162543
0.99885017 0.99214512 0.99744445
0.42772707 0.10173309 0.19993232
0.51267827 0.12524851 0.23774838
0.60278881 0.15266338 0.28311667
0.66172111 0.17106538 0.31714973
0.71446979 0.18382846 0.34698296
0.76578856 0.19466493 0.37617254
0.81533408 0.20588227 0.40591088
0.86276299 0.21978791 0.43739024
0.90773195 0.23868932 0.47180301
0.59947956 0.15159881 0.28132766
0.65975773 0.17052920 0.31602448
0.71255249 0.18340717 0.34590411
0.76392990 0.19427365 0.37509626
0.81354672 0.20543608 0.40479326
0.86105955 0.21920195 0.43618748
0.90612513 0.23787868 0.47047120
0.94840008 0.26377377 0.50883681
0.98754108 0.29919463 0.55247664
0.71063322 0.18298317 0.34482434
0.76206887 0.19388276 0.37402067
0.81175655 0.20499343 0.40367797
0.85935289 0.21862262 0.43498862
0.90451455 0.23707782 0.46914491
0.94689828 0.26266643 0.50733924
0.98616064 0.29769599 0.55076391
1.00000000 0.35309890 0.60465670
1.00000000 0.42264074 0.66279882
0.80996352 0.20455419 0.40256491
0.85764289 0.21804984 0.43379357
0.90290022 0.23628660 0.46782407
0.94539219 0.26157191 0.50584871
0.98477548 0.29621324 0.54905981
1.00000000 0.35068130 0.60252351
1.00000000 0.41997263 0.66066444
1.00000000 0.49435246 0.71801960
1.00000000 0.57024622 0.77288991
0.90128213 0.23550493 0.46650866
0.94388193 0.26049006 0.50436521
0.98338568 0.29474628 0.54736441
1.00000000 0.34827545 0.60039157
1.00000000 0.41731143 0.65852898
1.00000000 0.49156737 0.71594322
1.00000000 0.56746876 0.77093500
1.00000000 0.64144111 0.82180536
0.98821789 0.70990974 0.86685508
0.98199117 0.29329500 0.54567754
1.00000000 0.34588152 0.59826094
1.00000000 0.41465726 0.65639257
1.00000000 0.48878452 0.71386349
1.00000000 0.56468874 0.76897454
1.00000000 0.63879532 0.82002658
0.98867476 0.70752978 0.86532056
0.97881633 0.76731747 0.90315735
0.97707045 0.81408674 0.93063718
1.00000000 0.41201034 0.65425527
1.00000000 0.48600405 0.71178055
1.00000000 0.56190622 0.76700854
1.00000000 0.63614231 0.81824005
0.98913687 0.70513773 0.86377597
0.97906196 0.76531792 0.90191722
0.97697705 0.81261516 0.92990559
0.98020864 0.85275823 0.94844449
0.98447949 0.89187592 0.96418595
1.00000000 0.55912149 0.76503712
1.00000000 0.63348216 0.81644577
0.98960406 0.70273370 0.86222136
0.97931832 0.76330155 0.90066475
0.97688597 0.81114501 0.92917019
0.98006755 0.85128719 0.94781202
0.98431104 0.89047843 0.96365637
0.98900247 0.92669433 0.97670269
0.99352783 0.95791042 0.98695034
0.99007607 0.70031798 0.86065680
0.97958517 0.76126862 0.89940006
0.97679710 0.80967629 0.92843103
0.97992790 0.84981483 0.94717574
0.98414326 0.88907695 0.96312308
0.98882908 0.92543817 0.97627234
0.99337137 0.95687401 0.98662293
0.99715614 0.98136014 0.99417430
0.99956942 0.99687201 0.99892581
0.45897391 0.11016703 0.21338353
0.54688191 0.13530236 0.25422019
0.62851799 0.16119501 0.29784754
0.68197948 0.17630567 0.32867607
0.73422348 0.18806201 0.35812327
0.78490663 0.19877154 0.38738143
0.83368564 0.21074168 0.41764292
0.88021713 0.22627990 0.45010009
0.92415780 0.24769364 0.48594525
0.62653244 0.16054526 0.29667160
0.68003213 0.17582332 0.32757369
0.73232698 0.18766218 0.35705057
0.78307366 0.19836934 0.38629457
0.83192879 0.21025221 0.41649804
0.87854910 0.22561829 0.44885328
0.92259115 0.24677500 0.48455268
0.96371174 0.27602980 0.52478856
1.00000000 0.31632748 0.57110411
0.73042846 0.18726082 0.35597757
0.78123814 0.19796872 0.38520899
0.83016896 0.20976748 0.41535604
0.87687755 0.22496451 0.44761100
0.92102057 0.24586730 0.48316625
0.96225464 0.27478331 0.52321410
1.00000000 0.31411624 0.56900036
1.00000000 0.37880099 0.62681651
1.00000000 0.45065445 0.68483561
0.82840610 0.20928732 0.41421691
0.87520248 0.22431846 0.44637319
0.91944599 0.24497046 0.48178589
0.96079320 0.27355078 0.52164733
0.99890083 0.31236687 0.56714988
1.00000000 0.37627238 0.62467551
1.00000000 0.44792545 0.68271726
1.00000000 0.52330410 0.73932546
1.00000000 0.59883386 0.79280090
0.91786754 0.24408434 0.48041156
0.95932740 0.27233210 0.52008820
0.99756026 0.31073076 0.56536210
1.00000000 0.37375367 0.62253481
1.00000000 0.44520146 0.68059695
1.00000000 0.52050644 0.73728794
1.00000000 0.59609395 0.79090881
0.99646354 0.66838950 0.83976030
0.98384213 0.73381847 0.88214344
0.99621487 0.30911148 0.56358349
1.00000000 0.37124500 0.62039465
1.00000000 0.44248274 0.67847478
1.00000000 0.51770914 0.73524636
1.00000000 0.59334958 0.78901023
0.99698102 0.66582954 0.83806729
0.98423243 0.73157448 0.88071853
0.97694951 0.78700984 0.91526467
0.97816223 0.82939225 0.93799621
1.00000000 0.43976939 0.67635083
1.00000000 0.51491237 0.73320061
1.00000000 0.59060091 0.78710526
0.99750036 0.66326052 0.83636564
0.98463011 0.72931653 0.87928259
0.97707224 0.78519452 0.91415709
0.97804749 0.82791269 0.93730384
0.98174775 0.86790353 0.95477623
0.98625320 0.90609717 0.96945095
1.00000000 0.58784819 0.78519404
0.99802119 0.66068250 0.83465540
0.98503500 0.72704482 0.87783581
0.97720784 0.78336060 0.91303629
0.97793466 0.82643336 0.93660772
0.98159355 0.86645180 0.95418298
0.98608029 0.90474737 0.96896064
0.99078077 0.93929577 0.98093998
0.99508113 0.96807247 0.99012041
0.98544687 0.72475952 0.87637824
0.97735608 0.78150821 0.91190237
0.97782379 0.82495445 0.93590778
0.98144054 0.86499763 0.95358598
0.98590767 0.90339249 0.96846658
0.99061120 0.93811464 0.98054886
0.99493712 0.96713954 0.98983228
0.99827141 0.98844284 0.99631619
1.00000000 1.00000000 1.00000000
