Voom Vam Major/Voom Vam Major.cube
# VEGAS Pro LUT
TITLE "Voom Vam Major"
LUT_3D_SIZE 33
0.29019609 0.06666667 0.14509805
0.29467902 0.06785207 0.14697555
0.30127740 0.06952243 0.14958076
0.30986011 0.07166011 0.15289499
0.32029602 0.07424746 0.15689951
0.33245409 0.07726685 0.16157566
0.34620312 0.08070063 0.16690472
0.36141208 0.08453117 0.17286800
0.37794980 0.08874082 0.17944680
0.39568523 0.09331194 0.18662244
0.41448721 0.09822690 0.19437620
0.43422467 0.10346806 0.20268939
0.45476648 0.10901777 0.21154334
0.47598156 0.11485839 0.22091930
0.49773875 0.12097228 0.23079862
0.51990700 0.12734182 0.24116257
0.54235518 0.13394934 0.25199249
0.56495214 0.14077720 0.26326963
0.58756679 0.14780779 0.27497536
0.61006808 0.15502346 0.28709093
0.62581009 0.16030706 0.29624310
0.63928223 0.16459349 0.30417573
0.65269542 0.16855489 0.31196240
0.66604435 0.17222729 0.31962171
0.67932361 0.17564677 0.32717234
0.69252789 0.17884937 0.33463290
0.70565170 0.18187113 0.34202200
0.71868986 0.18474814 0.34935832
0.73163688 0.18751642 0.35666043
0.74448740 0.19021204 0.36394700
0.75723606 0.19287106 0.37123662
0.76987755 0.19552952 0.37854800
0.78240651 0.19822349 0.38589966
0.30099869 0.06945259 0.14947224
0.30951071 0.07157339 0.15276071
0.31988078 0.07414451 0.15674017
0.33197778 0.07714832 0.16139194
0.34567064 0.08056717 0.16669731
0.36082819 0.08438342 0.17263760
0.37731937 0.08857944 0.17919409
0.39501306 0.09313758 0.18634810
0.41377813 0.09804020 0.19408092
0.43348348 0.10326967 0.20237386
0.45399803 0.10880834 0.21120824
0.47519067 0.11463857 0.22056533
0.49693024 0.12074272 0.23042646
0.51908571 0.12710316 0.24077292
0.54152584 0.13370223 0.25158602
0.56411970 0.14052232 0.26284707
0.58673602 0.14754575 0.27453732
0.60924381 0.15475492 0.28663814
0.62531340 0.16014270 0.29594824
0.63878763 0.16444178 0.30388659
0.65220308 0.16841449 0.31167829
0.66555446 0.17209689 0.31934199
0.67883641 0.17552502 0.32689628
0.69204348 0.17873496 0.33435982
0.70517039 0.18176275 0.34175122
0.71821177 0.18464445 0.34908915
0.73116225 0.18741609 0.35639217
0.74401641 0.19011374 0.36367899
0.75676894 0.19277346 0.37096819
0.76941448 0.19543131 0.37827840
0.78194761 0.19812332 0.38562828
0.79436302 0.20088556 0.39303643
0.80665535 0.20375410 0.40052152
0.31946787 0.07404215 0.15658174
0.33150369 0.07703035 0.16120911
0.34514013 0.08043424 0.16649076
0.36024612 0.08423619 0.17240803
0.37669057 0.08841854 0.17894217
0.39434233 0.09296367 0.18607454
0.41307032 0.09785394 0.19378640
0.43274340 0.10307170 0.20205908
0.45323050 0.10859930 0.21087386
0.47440049 0.11441912 0.22021204
0.49612227 0.12051351 0.23005496
0.51826477 0.12686482 0.24038389
0.54069680 0.13345544 0.25118017
0.56328726 0.14026770 0.26242504
0.58590513 0.14728397 0.27409986
0.60841924 0.15448661 0.28618592
0.62481666 0.15997785 0.29565316
0.63829291 0.16428962 0.30359727
0.65171063 0.16827370 0.31139404
0.66506445 0.17196614 0.31906208
0.67834902 0.17540300 0.32662007
0.69155896 0.17862032 0.33408663
0.70468897 0.18165417 0.34148037
0.71773356 0.18454060 0.34881991
0.73068744 0.18731566 0.35612389
0.74354529 0.19001539 0.36341098
0.75630164 0.19267587 0.37069976
0.76895118 0.19533314 0.37800887
0.78148860 0.19802326 0.38535696
0.79390842 0.20078228 0.39276266
0.80620539 0.20364626 0.40024456
0.81837404 0.20665126 0.40782133
0.83040911 0.20983329 0.41551161
0.34461161 0.08030185 0.16628508
0.35966587 0.08408947 0.17217928
0.37606341 0.08825814 0.17869107
0.39367306 0.09279024 0.18580176
0.41236377 0.09766812 0.19349264
0.43200442 0.10287414 0.20174500
0.45246390 0.10839066 0.21054018
0.47361109 0.11420004 0.21985945
0.49531490 0.12028464 0.22968413
0.51744419 0.12662682 0.23999551
0.53986794 0.13320895 0.25077492
0.56245488 0.14001335 0.26200363
0.58507407 0.14702244 0.27366295
0.60759431 0.15421854 0.28573421
0.62431985 0.15981251 0.29535785
0.63779813 0.16413702 0.30330771
0.65121812 0.16813251 0.31110957
0.66457438 0.17183505 0.31878206
0.67786157 0.17528068 0.32634377
0.69107437 0.17850544 0.33381334
0.70420736 0.18154539 0.34120944
0.71725523 0.18443660 0.34855065
0.73021257 0.18721512 0.35585561
0.74307400 0.18991698 0.36314297
0.75583422 0.19257827 0.37043136
0.76848781 0.19523503 0.37773940
0.78102940 0.19792330 0.38508573
0.79345369 0.20067914 0.39248896
0.80575520 0.20353863 0.39996773
0.81792873 0.20653778 0.40754068
0.82996875 0.20971267 0.41522646
0.84187001 0.21309936 0.42304364
0.85362715 0.21673389 0.43101090
0.37543786 0.08809824 0.17844079
0.39300525 0.09261727 0.18552977
0.41165853 0.09748274 0.19319963
0.43126655 0.10267700 0.20143168
0.45169821 0.10818242 0.21020721
0.47282243 0.11398133 0.21950753
0.49450809 0.12005612 0.22931394
0.51662409 0.12638913 0.23960775
0.53903925 0.13296273 0.25037026
0.56162256 0.13975929 0.26158279
0.58424288 0.14676115 0.27322662
0.60676908 0.15395069 0.28528303
0.62382293 0.15964666 0.29506230
0.63730329 0.16398397 0.30301800
0.65072548 0.16799094 0.31082496
0.66408420 0.17170361 0.31850186
0.67737406 0.17515804 0.32606733
0.69058967 0.17839029 0.33353996
0.70372570 0.18143640 0.34093842
0.71677679 0.18433245 0.34828132
0.72973752 0.18711448 0.35558730
0.74260259 0.18981853 0.36287498
0.75536662 0.19248067 0.37016299
0.76802421 0.19513695 0.37746999
0.78057003 0.19782342 0.38481456
0.79299873 0.20057614 0.39221537
0.80530488 0.20343117 0.39969105
0.81748319 0.20642455 0.40726021
0.82952827 0.20959234 0.41494149
0.84143472 0.21297060 0.42275351
0.85319722 0.21659537 0.43071491
0.86481035 0.22050272 0.43884432
0.87626880 0.22472869 0.44716036
0.41095456 0.09729781 0.19290738
0.43052977 0.10248029 0.20111908
0.45093349 0.10797457 0.20987494
0.47203454 0.11376300 0.21915630
0.49370188 0.11982795 0.22894442
0.51580435 0.12615177 0.23922063
0.53821087 0.13271685 0.24996623
0.56079030 0.13950551 0.26116252
0.58341157 0.14650013 0.27279082
0.60594356 0.15368307 0.28483239
0.62332594 0.15948033 0.29476655
0.63680834 0.16383049 0.30272806
0.65023279 0.16784896 0.31054017
0.66359395 0.17157182 0.31822154
0.67688644 0.17503510 0.32579076
0.69010484 0.17827490 0.33326647
0.70324391 0.18132722 0.34066734
0.71629822 0.18422815 0.34801194
0.72926241 0.18701373 0.35531896
0.74213105 0.18972000 0.36260697
0.75489891 0.19238305 0.36989465
0.76756048 0.19503891 0.37720060
0.78011054 0.19772364 0.38454348
0.79254365 0.20047328 0.39194191
0.80485439 0.20332390 0.39941448
0.81703746 0.20631155 0.40697986
0.82908756 0.20947230 0.41465670
0.84099919 0.21284217 0.42246357
0.85276705 0.21645723 0.43041915
0.86438584 0.22035354 0.43854207
0.87585008 0.22456716 0.44685093
0.88715446 0.22913413 0.45536435
0.89829361 0.23409049 0.46410102
0.45016968 0.10776711 0.20954339
0.47124740 0.11354504 0.21880575
0.49289623 0.11960012 0.22857556
0.51498502 0.12591475 0.23883414
0.53738266 0.13247125 0.24956281
0.55995804 0.13925201 0.26074284
0.58258009 0.14623936 0.27235559
0.60511768 0.15341568 0.28438228
0.62282890 0.15931350 0.29447055
0.63631332 0.16367655 0.30243793
0.64973998 0.16770658 0.31025520
0.66310358 0.17143968 0.31794104
0.67639869 0.17491189 0.32551405
0.68961996 0.17815925 0.33299288
0.70276201 0.18121783 0.34039617
0.71581954 0.18412369 0.34774253
0.72878712 0.18691288 0.35505059
0.74165940 0.18962143 0.36233896
0.75443101 0.19228543 0.36962634
0.76709664 0.19494091 0.37693128
0.77965087 0.19762394 0.38427249
0.79208833 0.20037055 0.39166850
0.80440372 0.20321682 0.39913803
0.81659162 0.20619880 0.40669969
0.82864666 0.20935252 0.41437209
0.84056348 0.21271408 0.42217383
0.85233676 0.21631947 0.43012363
0.86396110 0.22020480 0.43824005
0.87543112 0.22440611 0.44654173
0.88674146 0.22895943 0.45504731
0.89788681 0.23390085 0.46377543
0.90886176 0.23926638 0.47274470
0.91966093 0.24509212 0.48197377
0.49209118 0.11937266 0.22820736
0.51416612 0.12567805 0.23844829
0.53655469 0.13222596 0.24916001
0.55912590 0.13899878 0.26032376
0.58174855 0.14597884 0.27192089
0.60429156 0.15314852 0.28393272
0.62233180 0.15914617 0.29417434
0.63581824 0.16352215 0.30214757
0.64924711 0.16756380 0.30997005
0.66261309 0.17130718 0.31766039
0.67591083 0.17478834 0.32523724
0.68913490 0.17804335 0.33271921
0.70227998 0.18110824 0.34012493
0.71534067 0.18401907 0.34747306
0.72831166 0.18681191 0.35478219
0.74118757 0.18952280 0.36207098
0.75396299 0.19218780 0.36935803
0.76663262 0.19484295 0.37666202
0.77919102 0.19752432 0.38400152
0.79163289 0.20026797 0.39139524
0.80395287 0.20310993 0.39886174
0.81614554 0.20608626 0.40641963
0.82820559 0.20923305 0.41408762
0.84012759 0.21258630 0.42188430
0.85190624 0.21618210 0.42982832
0.86353612 0.22005649 0.43793827
0.87501192 0.22424552 0.44623283
0.88632828 0.22878526 0.45473057
0.89747977 0.23371175 0.46345016
0.90846109 0.23906106 0.47241023
0.91926682 0.24486922 0.48162943
0.92989165 0.25117230 0.49112633
0.94033015 0.25800636 0.50091958
0.53572702 0.13198097 0.24875779
0.55829382 0.13874583 0.25990528
0.58091688 0.14571857 0.27148679
0.60346514 0.15288161 0.28348368
0.62183464 0.15897834 0.29387790
0.63532305 0.16336730 0.30185702
0.64875418 0.16742061 0.30968472
0.66212255 0.17117433 0.31737959
0.67542291 0.17466450 0.32496029
0.68864977 0.17792718 0.33244541
0.70179784 0.18099843 0.33985361
0.71486175 0.18391430 0.34720352
0.72783613 0.18671083 0.35451376
0.74071562 0.18942410 0.36180297
0.75349486 0.19209015 0.36908978
0.76616848 0.19474503 0.37639278
0.77873105 0.19742480 0.38373068
0.79117733 0.20016551 0.39112204
0.80350184 0.20300321 0.39858553
0.81569928 0.20597397 0.40613976
0.82776433 0.20911384 0.41380337
0.83969152 0.21245886 0.42159498
0.85147548 0.21604510 0.42953324
0.86311096 0.21990860 0.43763676
0.87459254 0.22408542 0.44592416
0.88591486 0.22861162 0.45441413
0.89707249 0.23352323 0.46312523
0.90806013 0.23885635 0.47207612
0.91887248 0.24464700 0.48128545
0.92950404 0.25093123 0.49077180
0.93994951 0.25774512 0.50055385
0.95020348 0.26512468 0.51065022
0.96026069 0.27310601 0.52107948
0.58008510 0.14545858 0.27105325
0.60263848 0.15261491 0.28303519
0.62133735 0.15881000 0.29358122
0.63482779 0.16321200 0.30156627
0.64826113 0.16727702 0.30939922
0.66163194 0.17104113 0.31709865
0.67493486 0.17454036 0.32468319
0.68816453 0.17781077 0.33217153
0.70131558 0.18088841 0.33958220
0.71438271 0.18380935 0.34693393
0.72736049 0.18660966 0.35424531
0.74024355 0.18932533 0.36153495
0.75302655 0.19199248 0.36882153
0.76570415 0.19464713 0.37612361
0.77827090 0.19732535 0.38345990
0.79072154 0.20006318 0.39084896
0.80305064 0.20289668 0.39830947
0.81525290 0.20586191 0.40586001
0.82732284 0.20899491 0.41351926
0.83925521 0.21233174 0.42130584
0.85104460 0.21590847 0.42923838
0.86268562 0.21976113 0.43733549
0.87417293 0.22392578 0.44561580
0.88550121 0.22843850 0.45409799
0.89666498 0.23333530 0.46280062
0.90765899 0.23865226 0.47174236
0.91847783 0.24442543 0.48094183
0.92911613 0.25069088 0.49041769
0.93956858 0.25748464 0.50018853
0.94982970 0.26484275 0.51027298
0.95989424 0.27280131 0.52068973
0.96975678 0.28139636 0.53145730
0.97941196 0.29066393 0.54259443
0.62084001 0.15864116 0.29328430
0.63433248 0.16305625 0.30127534
0.64776802 0.16713303 0.30911353
0.66114122 0.17090756 0.31681755
0.67444670 0.17441590 0.32440600
0.68767917 0.17769408 0.33189753
0.70083326 0.18077819 0.33931074
0.71390355 0.18370426 0.34666431
0.72688466 0.18650834 0.35397682
0.73977131 0.18922651 0.36126694
0.75255811 0.19189480 0.36855328
0.76523966 0.19454928 0.37585449
0.77781063 0.19722599 0.38318917
0.79026562 0.19996098 0.39057598
0.80259931 0.20279032 0.39803350
0.81480628 0.20575006 0.40558043
0.82688123 0.20887625 0.41323537
0.83881873 0.21220496 0.42101690
0.85061347 0.21577221 0.42894375
0.86226004 0.21961409 0.43703446
0.87375313 0.22376662 0.44530773
0.88508731 0.22826588 0.45378214
0.89625728 0.23314792 0.46247634
0.90725762 0.23844880 0.47140896
0.91808301 0.24420455 0.48059863
0.92872804 0.25045124 0.49006397
0.93918741 0.25722492 0.49982363
0.94945568 0.26456165 0.50989622
0.95952749 0.27249748 0.52030039
0.96939760 0.28106844 0.53105474
0.97906047 0.29031065 0.54217798
0.98851085 0.30026010 0.55368859
0.99774337 0.31095287 0.56560534
0.64727479 0.16698863 0.30882767
0.66065037 0.17077364 0.31653628
0.67395848 0.17429112 0.32412866
0.68719369 0.17757714 0.33162341
0.70035076 0.18066774 0.33903918
0.71342421 0.18359900 0.34639460
0.72640878 0.18640693 0.35370833
0.73929900 0.18912762 0.36099893
0.75208950 0.19179711 0.36828509
0.76477504 0.19445145 0.37558541
0.77735019 0.19712670 0.38291854
0.78980953 0.19985892 0.39030308
0.80214775 0.20268415 0.39775768
0.81435949 0.20563845 0.40530097
0.82643938 0.20875788 0.41295162
0.83838207 0.21207850 0.42072818
0.85018212 0.21563633 0.42864934
0.86183423 0.21946746 0.43673369
0.87333310 0.22360793 0.44499990
0.88467318 0.22809380 0.45346659
0.89584929 0.23296112 0.46215236
0.90685600 0.23824593 0.47107589
0.91768789 0.24398431 0.48025575
0.92833966 0.25021231 0.48971063
0.93880594 0.25696597 0.49945915
0.94908136 0.26428133 0.50951988
0.95916051 0.27219447 0.51991153
0.96903813 0.28074145 0.53065270
0.97870874 0.28995833 0.54176199
0.98816705 0.29988110 0.55325806
0.99740762 0.31054589 0.56515956
1.00000000 0.32459131 0.57887042
1.00000000 0.34032506 0.59327894
0.67347014 0.17416604 0.32385117
0.68670815 0.17745994 0.33134919
0.69986814 0.18055709 0.33876756
0.71294481 0.18349355 0.34612486
0.72593272 0.18630539 0.35343978
0.73882645 0.18902865 0.36073092
0.75162077 0.19169939 0.36801690
0.76431030 0.19435364 0.37531635
0.77688956 0.19702749 0.38264793
0.78935325 0.19975697 0.39003026
0.80169606 0.20257814 0.39748198
0.81391251 0.20552705 0.40502170
0.82599735 0.20863977 0.41266802
0.83794516 0.21195234 0.42043963
0.84975058 0.21550082 0.42835513
0.86140823 0.21932125 0.43643317
0.87291282 0.22344971 0.44469237
0.88425887 0.22792223 0.45315135
0.89544111 0.23277488 0.46182874
0.90645409 0.23804370 0.47074318
0.91729254 0.24376476 0.47991329
0.92795104 0.24997409 0.48935771
0.93842423 0.25670776 0.49909508
0.94870675 0.26400185 0.50914401
0.95879328 0.27189237 0.51952314
0.96867836 0.28041539 0.53025109
0.97835666 0.28960696 0.54134655
0.98782289 0.29950312 0.55282807
0.99707162 0.31013998 0.56471431
1.00000000 0.32402420 0.57834208
1.00000000 0.33973566 0.59274739
1.00000000 0.35602629 0.60722774
1.00000000 0.37284023 0.62175649
0.69938546 0.18044622 0.33849582
0.71246529 0.18338796 0.34585506
0.72545654 0.18620375 0.35317120
0.73835385 0.18892962 0.36046287
0.75115192 0.19160165 0.36774871
0.76384538 0.19425587 0.37504736
0.77642876 0.19692835 0.38237745
0.78889686 0.19965515 0.38975757
0.80124420 0.20247231 0.39720640
0.81346542 0.20541589 0.40474254
0.82555515 0.20852195 0.41238463
0.83750814 0.21182652 0.42015129
0.84931886 0.21536568 0.42806116
0.86098206 0.21917547 0.43613288
0.87249237 0.22329195 0.44438508
0.88384432 0.22775118 0.45283639
0.89503270 0.23258920 0.46150541
0.90605199 0.23784207 0.47041079
0.91689700 0.24354585 0.47957119
0.92756218 0.24973658 0.48900518
0.93804228 0.25645033 0.49873143
0.94833189 0.26372313 0.50876856
0.95842570 0.27159110 0.51913524
0.96831834 0.28009018 0.52985007
0.97800434 0.28925654 0.54093164
0.98747844 0.29912615 0.55239862
0.99673527 0.30973512 0.56426960
1.00000000 0.32345796 0.57781392
1.00000000 0.33914703 0.59221596
1.00000000 0.35541734 0.60669398
1.00000000 0.37221304 0.62122148
1.00000000 0.38947827 0.63577187
1.00000000 0.40715715 0.65031856
0.72498024 0.18610196 0.35290259
0.73788112 0.18883051 0.36019483
0.75068289 0.19150388 0.36748058
0.76338029 0.19415812 0.37477842
0.77596784 0.19682929 0.38210699
0.78844029 0.19955346 0.38948494
0.80079210 0.20236665 0.39693090
0.81301808 0.20530494 0.40446353
0.82511282 0.20840438 0.41210139
0.83707088 0.21170101 0.41986313
0.84888697 0.21523090 0.42776743
0.86055565 0.21903010 0.43583286
0.87207168 0.22313465 0.44407809
0.88342959 0.22758064 0.45252171
0.89462405 0.23240408 0.46118242
0.90564966 0.23764105 0.47007877
0.91650116 0.24332760 0.47922945
0.92717308 0.24949978 0.48865306
0.93766010 0.25619367 0.49836823
0.94795680 0.26344526 0.50839359
0.95805788 0.27129066 0.51874781
0.96795803 0.27976590 0.52944946
0.97765172 0.28890708 0.54051721
0.98713374 0.29875019 0.55196971
0.99639863 0.30933130 0.56382549
1.00000000 0.32289258 0.57728583
1.00000000 0.33855921 0.59168458
1.00000000 0.35480914 0.60616028
1.00000000 0.37158647 0.62068641
1.00000000 0.38883540 0.63523644
1.00000000 0.40650007 0.64978379
1.00000000 0.42452461 0.66430193
1.00000000 0.44285315 0.67876428
0.75021374 0.19140609 0.36721244
0.76291507 0.19406040 0.37450948
0.77550679 0.19673030 0.38183662
0.78798354 0.19945188 0.38921243
0.80033988 0.20226116 0.39665556
0.81257057 0.20519421 0.40418464
0.82467020 0.20828708 0.41181830
0.83663344 0.21157582 0.41957518
0.84845483 0.21509649 0.42747387
0.86012906 0.21888514 0.43553305
0.87165076 0.22297783 0.44377133
0.88301456 0.22741060 0.45220736
0.89421517 0.23221952 0.46085972
0.90524709 0.23744065 0.46974710
0.91610509 0.24311002 0.47888806
0.92678368 0.24926369 0.48830131
0.93727762 0.25593773 0.49800542
0.94758141 0.26316819 0.50801909
0.95768982 0.27099109 0.51836085
0.96759742 0.27944255 0.52904940
0.97729880 0.28855854 0.54010332
0.98678869 0.29837519 0.55154133
0.99606168 0.30892852 0.56338197
1.00000000 0.32232806 0.57675797
1.00000000 0.33797216 0.59115332
1.00000000 0.35420161 0.60562670
1.00000000 0.37096056 0.62015146
1.00000000 0.38819313 0.63470107
1.00000000 0.40584347 0.64924896
1.00000000 0.42385575 0.66376865
1.00000000 0.44217411 0.67823350
1.00000000 0.46074271 0.69261700
1.00000000 0.47950566 0.70689267
0.77504557 0.19663139 0.38156632
0.78752661 0.19935042 0.38894001
0.79988754 0.20215583 0.39638034
0.81212294 0.20508370 0.40390593
0.82422745 0.20817004 0.41153541
0.83619577 0.21145093 0.41928741
0.84802246 0.21496244 0.42718056
0.85970223 0.21874060 0.43523350
0.87122965 0.22282146 0.44346488
0.88259935 0.22724108 0.45189327
0.89380604 0.23203552 0.46053737
0.90484428 0.23724084 0.46941575
0.91570878 0.24289308 0.47854707
0.92639405 0.24902831 0.48794997
0.93689489 0.25568256 0.49764305
0.94720578 0.26289189 0.50764495
0.95732147 0.27069238 0.51797432
0.96723652 0.27912006 0.52864981
0.97694564 0.28821099 0.53968996
0.98644340 0.29800123 0.55111349
0.99572444 0.30852681 0.56293905
1.00000000 0.32176441 0.57623017
1.00000000 0.33738592 0.59062219
1.00000000 0.35359481 0.60509318
1.00000000 0.37033528 0.61961651
1.00000000 0.38755140 0.63416564
1.00000000 0.40518737 0.64871407
1.00000000 0.42318735 0.66323525
1.00000000 0.44149542 0.67770261
1.00000000 0.46005580 0.69208962
1.00000000 0.47881258 0.70636970
1.00000000 0.49770996 0.72051632
1.00000000 0.51669204 0.73450291
0.79943496 0.20205067 0.39610520
0.81167507 0.20497338 0.40362734
0.82378453 0.20805328 0.41125265
0.83575797 0.21132638 0.41899982
0.84758997 0.21482874 0.42688745
0.85927522 0.21859646 0.43493420
0.87080830 0.22266553 0.44315866
0.88218397 0.22707206 0.45157948
0.89339674 0.23185208 0.46021530
0.90444124 0.23704164 0.46908474
0.91531223 0.24267681 0.47820643
0.92600423 0.24879362 0.48759902
0.93651187 0.25542814 0.49728110
0.94682992 0.26261643 0.50727129
0.95695287 0.27039450 0.51758832
0.96687537 0.27879849 0.52825069
0.97659212 0.28786439 0.53927714
0.98609775 0.29762825 0.55068624
0.99538690 0.30812615 0.56249666
1.00000000 0.32120162 0.57570255
1.00000000 0.33680046 0.59009117
1.00000000 0.35298875 0.60455966
1.00000000 0.36971062 0.61908156
1.00000000 0.38691026 0.63363022
1.00000000 0.40453178 0.64817917
1.00000000 0.42251933 0.66270185
1.00000000 0.44081706 0.67717165
1.00000000 0.45936915 0.69156206
1.00000000 0.47811970 0.70584655
1.00000000 0.49701288 0.71999854
1.00000000 0.51599282 0.73399150
1.00000000 0.53500372 0.74779886
1.00000000 0.55398971 0.76139414
0.82334143 0.20793676 0.41097009
0.83531994 0.21120211 0.41871244
0.84715724 0.21469542 0.42659459
0.85884798 0.21845272 0.43463513
0.87038678 0.22251008 0.44285274
0.88176829 0.22690356 0.45126599
0.89298713 0.23166919 0.45989358
0.90403795 0.23684305 0.46875408
0.91491538 0.24246117 0.47786617
0.92561406 0.24855964 0.48724845
0.93612862 0.25517446 0.49691954
0.94645369 0.26234174 0.50689811
0.95658392 0.27009749 0.51720273
0.96651393 0.27847779 0.52785212
0.97623837 0.28751871 0.53886485
0.98575187 0.29725626 0.55025953
0.99504906 0.30772650 0.56205481
1.00000000 0.32063973 0.57517505
1.00000000 0.33621579 0.58956027
1.00000000 0.35238340 0.60402632
1.00000000 0.36908665 0.61854666
1.00000000 0.38626969 0.63309485
1.00000000 0.40387666 0.64764422
1.00000000 0.42185175 0.66216832
1.00000000 0.44013906 0.67664057
1.00000000 0.45868278 0.69103438
1.00000000 0.47742701 0.70532322
1.00000000 0.49631593 0.71948057
1.00000000 0.51529372 0.73347986
1.00000000 0.53430444 0.74729449
1.00000000 0.55329227 0.76089805
1.00000000 0.57220143 0.77426386
1.00000000 0.59097600 0.78736544
0.84672433 0.21456245 0.42630190
0.85842055 0.21830940 0.43433630
0.86996502 0.22235508 0.44254705
0.88135242 0.22673555 0.45095280
0.89257735 0.23148686 0.45957217
0.90363449 0.23664506 0.46842378
0.91451836 0.24224620 0.47752628
0.92522371 0.24832635 0.48689827
0.93574512 0.25492156 0.49655843
0.94607729 0.26206785 0.50652534
0.95621479 0.26980132 0.51681769
0.96615225 0.27815801 0.52745402
0.97588432 0.28717396 0.53845304
0.98540568 0.29688525 0.54983336
0.99471092 0.30732790 0.56161356
1.00000000 0.32007870 0.57464772
1.00000000 0.33563194 0.58902943
1.00000000 0.35177878 0.60349298
1.00000000 0.36846331 0.61801183
1.00000000 0.38562968 0.63255942
1.00000000 0.40322205 0.64710927
1.00000000 0.42118457 0.66163474
1.00000000 0.43946141 0.67610937
1.00000000 0.45799667 0.69050652
1.00000000 0.47673452 0.70479971
1.00000000 0.49561912 0.71896237
1.00000000 0.51459461 0.73296791
1.00000000 0.53360510 0.74678987
1.00000000 0.55259478 0.76040161
1.00000000 0.57150781 0.77377665
1.00000000 0.59028828 0.78688842
1.00000000 0.60888040 0.79971033
1.00000000 0.62722832 0.81221592
0.86954308 0.22220053 0.44224164
0.88093632 0.22656804 0.45063990
0.89216733 0.23130508 0.45925108
0.90323073 0.23644766 0.46809381
0.91412109 0.24203187 0.47718674
0.92483312 0.24809375 0.48654848
0.93536139 0.25466937 0.49619770
0.94570059 0.26179478 0.50615299
0.95584536 0.26950601 0.51643306
0.96579027 0.27783912 0.52705640
0.97553003 0.28683019 0.53804171
0.98505920 0.29651526 0.54940766
0.99437249 0.30693036 0.56117284
1.00000000 0.31951854 0.57412052
1.00000000 0.33504888 0.58849871
1.00000000 0.35117486 0.60295975
1.00000000 0.36784062 0.61747700
1.00000000 0.38499025 0.63202405
1.00000000 0.40256795 0.64657426
1.00000000 0.42051783 0.66110110
1.00000000 0.43878409 0.67557806
1.00000000 0.45731083 0.68997854
1.00000000 0.47604221 0.70427603
1.00000000 0.49492240 0.71844393
1.00000000 0.51389551 0.73245573
1.00000000 0.53290576 0.74628490
1.00000000 0.55189717 0.75990486
1.00000000 0.57081401 0.77328908
1.00000000 0.58960038 0.78641099
1.00000000 0.60820043 0.79924411
1.00000000 0.62655830 0.81176174
1.00000000 0.64461809 0.82393748
0.99768955 0.66232407 0.83574474
0.89175713 0.23112383 0.45893028
0.90282673 0.23625086 0.46776417
0.91372359 0.24181819 0.47684756
0.92444223 0.24786186 0.48619911
0.93497735 0.25441793 0.49583742
0.94532365 0.26152247 0.50578111
0.95547563 0.26921150 0.51604885
0.96542799 0.27752110 0.52665925
0.97517538 0.28648734 0.53763098
0.98471242 0.29614621 0.54898256
0.99403375 0.30653384 0.56073272
1.00000000 0.31895927 0.57359350
1.00000000 0.33446667 0.58796811
1.00000000 0.35057169 0.60242653
1.00000000 0.36721855 0.61694223
1.00000000 0.38435140 0.63148862
1.00000000 0.40191433 0.64603919
1.00000000 0.41985151 0.66056740
1.00000000 0.43810713 0.67504662
1.00000000 0.45662528 0.68945044
1.00000000 0.47535014 0.70375216
1.00000000 0.49422583 0.71792531
1.00000000 0.51319653 0.73194337
1.00000000 0.53220636 0.74577969
1.00000000 0.55119950 0.75940782
1.00000000 0.57012004 0.77280116
1.00000000 0.58891219 0.78593320
1.00000000 0.60752010 0.79877740
1.00000000 0.62588787 0.81130713
1.00000000 0.64395964 0.82349592
0.99781978 0.66167963 0.83531719
0.99432296 0.67899191 0.84674436
