Voom Vam Major/Voom Vam Major.cube
# VEGAS Pro LUT
TITLE "Voom Vam Major"
LUT_3D_SIZE 5
0.29019609 0.06666667 0.14509805
0.37794980 0.08874082 0.17944680
0.54235518 0.13394934 0.25199249
0.67932361 0.17564677 0.32717234
0.78240651 0.19822349 0.38589966
0.53572702 0.13198097 0.24875779
0.67542291 0.17466450 0.32496029
0.77873105 0.19742480 0.38373068
0.87459254 0.22408542 0.44592416
0.96026069 0.27310601 0.52107948
0.77504557 0.19663139 0.38156632
0.87122965 0.22282146 0.44346488
0.95732147 0.27069238 0.51797432
1.00000000 0.37033528 0.61961651
1.00000000 0.51669204 0.73450291
0.95436490 0.26833308 0.51489913
1.00000000 0.36535642 0.61533821
1.00000000 0.51109982 0.73040462
0.99821091 0.65974289 0.83403134
0.97726029 0.78268909 0.91262543
1.00000000 0.50551158 0.72629088
0.99925721 0.65455461 0.83057928
0.97757816 0.77895290 0.91033512
0.98123372 0.86301118 0.95276576
0.99037910 0.93649161 0.98000938
0.31034058 0.07177934 0.15307958
0.43523714 0.10373927 0.20312084
0.61119157 0.15538999 0.28770918
0.71934158 0.18488930 0.34972531
0.81987071 0.20703468 0.40876645
0.60459203 0.15324564 0.28409612
0.71551484 0.18405713 0.34757105
0.81630778 0.20612717 0.40652147
0.90860683 0.23913565 0.47253183
0.98966527 0.30154225 0.55514085
0.81273335 0.20523445 0.40428603
0.90539354 0.23751345 0.46986765
0.98691422 0.29851145 0.55169702
1.00000000 0.42409894 0.66396254
1.00000000 0.57453310 0.77590001
0.98414433 0.29554451 0.54828811
1.00000000 0.41876212 0.65969390
1.00000000 0.56898409 0.77200204
0.98797095 0.71120268 0.86768782
0.97721905 0.81636333 0.93176037
1.00000000 0.56342423 0.76808155
0.98888421 0.70644397 0.86461973
0.97702771 0.81341767 0.93030512
0.98457158 0.89263642 0.96447319
0.99376744 0.95949328 0.98744893
0.34766540 0.08106735 0.16747473
0.49994662 0.12160012 0.23181692
0.65403777 0.16893581 0.31273633
0.75850940 0.19313723 0.37196892
0.85608548 0.21753471 0.43271050
0.65009838 0.16781017 0.31046247
0.75477129 0.19235642 0.36982146
0.85264975 0.21641962 0.43033853
0.94098705 0.25845942 0.50155234
1.00000000 0.34371567 0.59632522
0.84920108 0.21532889 0.42798102
0.93793809 0.25638026 0.49863234
1.00000000 0.33898664 0.59207100
1.00000000 0.48070320 0.70779556
1.00000000 0.63105786 0.81480801
1.00000000 0.33430800 0.58782345
1.00000000 0.47516140 0.70360923
1.00000000 0.62570494 0.81118304
0.98012292 0.75734210 0.89695197
0.97966546 0.84700078 0.94595057
1.00000000 0.62032640 0.80752861
0.98072481 0.75316578 0.89434057
0.97939652 0.84404886 0.94465226
0.98814964 0.92046463 0.97455359
0.99668187 0.97834373 0.99326068
0.39844999 0.09403011 0.18775290
0.56835777 0.14182280 0.26500443
0.69450831 0.17931482 0.33574909
0.79667479 0.20141365 0.39443192
0.89089859 0.23074666 0.45826054
0.69063377 0.17840077 0.33356482
0.79304010 0.20058550 0.39224026
0.88760471 0.22932529 0.45571056
0.97158104 0.28307980 0.53351450
1.00000000 0.39534765 0.64063871
0.88429654 0.22793780 0.45317999
0.96871108 0.28044498 0.53028762
1.00000000 0.39018017 0.63635594
1.00000000 0.53856319 0.75036210
0.99317944 0.68468130 0.85047364
1.00000000 0.38504836 0.63207269
1.00000000 0.53296930 0.74633086
0.99418491 0.67967743 0.84719437
0.97651482 0.79657614 0.92107052
0.98276758 0.87721127 0.95851415
0.99520200 0.67463315 0.84387863
0.97662705 0.79313523 0.91898841
0.98244721 0.87433964 0.95737278
0.99169552 0.94559824 0.98300672
0.99885017 0.99214512 0.99744445
0.45897391 0.11016703 0.21338353
0.62851799 0.16119501 0.29784754
0.73422348 0.18806201 0.35812327
0.83368564 0.21074168 0.41764292
0.92415780 0.24769364 0.48594525
0.73042846 0.18726082 0.35597757
0.83016896 0.20976748 0.41535604
0.92102057 0.24586730 0.48316625
1.00000000 0.31411624 0.56900036
1.00000000 0.45065445 0.68483561
0.91786754 0.24408434 0.48041156
0.99756026 0.31073076 0.56536210
1.00000000 0.44520146 0.68059695
1.00000000 0.59609395 0.79090881
0.98384213 0.73381847 0.88214344
1.00000000 0.43976939 0.67635083
1.00000000 0.59060091 0.78710526
0.98463011 0.72931653 0.87928259
0.97804749 0.82791269 0.93730384
0.98625320 0.90609717 0.96945095
0.98544687 0.72475952 0.87637824
0.97782379 0.82495445 0.93590778
0.98590767 0.90339249 0.96846658
0.99493712 0.96713954 0.98983228
1.00000000 1.00000000 1.00000000
