Light Blue Major/Light Blue Major.cube
# VEGAS Pro LUT
TITLE "Light Blue Major"
LUT_3D_SIZE 9
0.00000000 0.88235295 0.72549021
0.00000000 0.87287295 0.71769553
0.00000000 0.85791892 0.70540005
0.00000000 0.83793318 0.68896729
0.00000000 0.81335789 0.66876096
0.00000000 0.78463531 0.64514458
0.00000000 0.75220764 0.61848187
0.00000000 0.71651721 0.58913636
0.00000000 0.67800623 0.55747181
0.00000000 0.85856092 0.70592791
0.00000000 0.83875245 0.68964094
0.00000000 0.81433815 0.66956693
0.00000000 0.78576034 0.64606959
0.00000000 0.75346118 0.61951250
0.00000000 0.71788293 0.59025931
0.00000000 0.67946786 0.55867356
0.00000000 0.63865817 0.52511895
0.00000000 0.59589612 0.48995906
0.00000000 0.81531280 0.67036831
0.00000000 0.78688031 0.64699048
0.00000000 0.75471026 0.62053955
0.00000000 0.71924478 0.59137905
0.00000000 0.68092626 0.55987269
0.00000000 0.64019686 0.52638406
0.00000000 0.59749877 0.49127680
0.00000000 0.55327433 0.45491448
0.00000000 0.50796580 0.41766074
0.00000000 0.75595486 0.62156290
0.00000000 0.72060281 0.59249568
0.00000000 0.68238139 0.56106913
0.00000000 0.64173281 0.52764702
0.00000000 0.59909940 0.49259284
0.00000000 0.55492324 0.45627025
0.00000000 0.50964671 0.41904289
0.00000000 0.46371201 0.38127431
0.00000000 0.41756135 0.34332824
0.00000000 0.68383324 0.56226289
0.00000000 0.64326614 0.52890772
0.00000000 0.60069788 0.49390715
0.00000000 0.55657065 0.45762479
0.00000000 0.51132679 0.42042425
0.00000000 0.46540844 0.38266918
0.00000000 0.41925791 0.34472317
0.00000000 0.37331736 0.30694985
0.00000000 0.32802913 0.26971284
0.00000000 0.60229427 0.49521974
0.00000000 0.55821657 0.45897809
0.00000000 0.51300591 0.42180488
0.00000000 0.46710458 0.38406378
0.00000000 0.42095473 0.34611833
0.00000000 0.37499863 0.30833223
0.00000000 0.32967857 0.27106905
0.00000000 0.28543669 0.23469239
0.00000000 0.24271531 0.19956593
0.00000000 0.51468414 0.42318475
0.00000000 0.46880037 0.38545808
0.00000000 0.42265183 0.34751374
0.00000000 0.37668076 0.30971530
0.00000000 0.33132944 0.27242643
0.00000000 0.28704008 0.23601075
0.00000000 0.24425493 0.20083185
0.00000000 0.20341623 0.16725335
0.00000000 0.16496620 0.13563888
0.00000000 0.42434916 0.34890932
0.00000000 0.37836376 0.31109908
0.00000000 0.33298180 0.27378502
0.00000000 0.28864554 0.23733076
0.00000000 0.24579719 0.20209992
0.00000000 0.20487903 0.16845609
0.00000000 0.16633330 0.13676293
0.00000000 0.13060221 0.10738404
0.00000000 0.09812801 0.08068303
0.00000000 0.33463553 0.27514479
0.00000000 0.29025295 0.23865244
0.00000000 0.24734206 0.20337014
0.00000000 0.20634507 0.16966149
0.00000000 0.16770421 0.13789013
0.00000000 0.13186173 0.10841965
0.00000000 0.09925988 0.08161368
0.00000000 0.07034089 0.05783584
0.00000000 0.04554700 0.03744975
0.00000000 0.87941229 0.72307235
0.00000000 0.86779308 0.71351874
0.00000000 0.85086840 0.69960296
0.00000000 0.82908064 0.68168855
0.00000000 0.80287194 0.66013914
0.00000000 0.77268457 0.63531846
0.00000000 0.73896074 0.60758996
0.00000000 0.70214278 0.57731742
0.00000000 0.66267282 0.54486430
0.00000000 0.85157996 0.70018798
0.00000000 0.82996327 0.68241423
0.00000000 0.80390936 0.66099215
0.00000000 0.77386051 0.63628531
0.00000000 0.74025899 0.60865736
0.00000000 0.70354700 0.57847196
0.00000000 0.66416675 0.54609269
0.00000000 0.62256050 0.51188308
0.00000000 0.57917058 0.47620693
0.00000000 0.80494136 0.66184068
0.00000000 0.77503163 0.63724828
0.00000000 0.74155295 0.60972136
0.00000000 0.70494759 0.57962358
0.00000000 0.66565764 0.54731852
0.00000000 0.62412548 0.51316988
0.00000000 0.58079332 0.47754118
0.00000000 0.53610337 0.44079611
0.00000000 0.49049789 0.40329826
0.00000000 0.74284273 0.61078179
0.00000000 0.70634454 0.58077216
0.00000000 0.66714555 0.54854190
0.00000000 0.62568802 0.51445460
0.00000000 0.58241427 0.47887394
0.00000000 0.53776640 0.44216350
0.00000000 0.49218678 0.40468690
0.00000000 0.44611755 0.36680779
0.00000000 0.40000102 0.32888973
0.00000000 0.66863036 0.54976279
0.00000000 0.62724811 0.51573735
0.00000000 0.58403331 0.48020518
0.00000000 0.53942817 0.44352984
0.00000000 0.49387500 0.40607500
0.00000000 0.44781595 0.36820424
0.00000000 0.40169331 0.33028117
0.00000000 0.35594931 0.29266945
0.00000000 0.31102622 0.25573266
0.00000000 0.58565050 0.48153487
0.00000000 0.54108870 0.44489515
0.00000000 0.49556255 0.40746254
0.00000000 0.44951427 0.36960062
0.00000000 0.40338615 0.33167306
0.00000000 0.35762039 0.29404342
0.00000000 0.31265923 0.25707537
0.00000000 0.26894492 0.22113249
0.00000000 0.22691970 0.18657842
0.00000000 0.49724936 0.40884948
0.00000000 0.45121250 0.37099692
0.00000000 0.40507945 0.33306533
0.00000000 0.35929251 0.29541829
0.00000000 0.31429392 0.25841945
0.00000000 0.27052590 0.22243242
0.00000000 0.22843072 0.18782082
0.00000000 0.18845057 0.15494826
0.00000000 0.15102774 0.12417836
0.00000000 0.40677324 0.33445799
0.00000000 0.36096573 0.29679406
0.00000000 0.31593031 0.25976491
0.00000000 0.27210918 0.22373421
0.00000000 0.22994460 0.18906556
0.00000000 0.18987882 0.15612260
0.00000000 0.15235406 0.12526889
0.00000000 0.11781257 0.09686811
0.00000000 0.08669658 0.07128385
0.00000000 0.31756830 0.26111174
0.00000000 0.27369469 0.22503786
0.00000000 0.23146133 0.19031265
0.00000000 0.19131050 0.15729974
0.00000000 0.15368442 0.12636274
0.00000000 0.11902534 0.09786528
0.00000000 0.08777549 0.07217096
0.00000000 0.06037712 0.04964341
0.00000000 0.03727246 0.03064624
0.00000000 0.87563616 0.71996754
0.00000000 0.86194193 0.70870787
0.00000000 0.84311098 0.69322461
0.00000000 0.81958544 0.67388141
0.00000000 0.79180765 0.65104187
0.00000000 0.76021975 0.62506962
0.00000000 0.72526407 0.59632826
0.00000000 0.68738282 0.56518143
0.00000000 0.64701819 0.53199273
0.00000000 0.84388965 0.69386482
0.00000000 0.82052898 0.67465717
0.00000000 0.79289979 0.65193987
0.00000000 0.76144427 0.62607640
0.00000000 0.72660464 0.59743047
0.00000000 0.68882316 0.56636572
0.00000000 0.64854205 0.53324568
0.00000000 0.60620356 0.49843407
0.00000000 0.56224996 0.46229443
0.00000000 0.79398674 0.65283358
0.00000000 0.76266414 0.62707943
0.00000000 0.72794116 0.59852940
0.00000000 0.69026011 0.56754720
0.00000000 0.65006310 0.53449637
0.00000000 0.60779250 0.49974051
0.00000000 0.56389046 0.46364328
0.00000000 0.51879930 0.42656833
0.00000000 0.47296119 0.38887921
0.00000000 0.72927374 0.59962505
0.00000000 0.69169366 0.56872588
0.00000000 0.65158141 0.53574473
0.00000000 0.60937923 0.50104517
0.00000000 0.56552941 0.46499082
0.00000000 0.52047414 0.42794541
0.00000000 0.47465566 0.39027244
0.00000000 0.42851624 0.35233557
0.00000000 0.38249809 0.31449842
0.00000000 0.65309685 0.53699070
0.00000000 0.61096370 0.50234795
0.00000000 0.56716669 0.46633703
0.00000000 0.52214789 0.42932162
0.00000000 0.47634968 0.39166528
0.00000000 0.43021423 0.35373169
0.00000000 0.38418379 0.31588444
0.00000000 0.33870059 0.27848718
0.00000000 0.29420692 0.24190347
0.00000000 0.56880230 0.46768188
0.00000000 0.52382064 0.43069696
0.00000000 0.47804323 0.39305779
0.00000000 0.43191236 0.35512796
0.00000000 0.38587022 0.31727108
0.00000000 0.34035906 0.27985081
0.00000000 0.29582113 0.24323072
0.00000000 0.25269866 0.20777448
0.00000000 0.21143390 0.17384566
0.00000000 0.47973633 0.39444989
0.00000000 0.43361062 0.35652429
0.00000000 0.38755739 0.31865829
0.00000000 0.34201887 0.28121552
0.00000000 0.29743728 0.24455956
0.00000000 0.25425491 0.20905404
0.00000000 0.21291396 0.17506260
0.00000000 0.17385669 0.14294884
0.00000000 0.13752532 0.11307637
0.00000000 0.38924524 0.32004610
0.00000000 0.34367993 0.28258130
0.00000000 0.29905534 0.24588995
0.00000000 0.25581366 0.21033567
0.00000000 0.21439712 0.17628208
0.00000000 0.17524798 0.14409278
0.00000000 0.13880849 0.11413143
0.00000000 0.10552088 0.08676162
0.00000000 0.07582739 0.06234697
0.00000000 0.30067524 0.24722187
0.00000000 0.25737485 0.21161932
0.00000000 0.21588333 0.17750408
0.00000000 0.17664295 0.14523977
0.00000000 0.14009595 0.11519000
0.00000000 0.10668454 0.08771840
0.00000000 0.07685099 0.06318859
0.00000000 0.05103752 0.04196418
0.00000000 0.02968637 0.02440880
0.00000000 0.87104899 0.71619588
0.00000000 0.85534412 0.70328295
0.00000000 0.83467108 0.68628514
0.00000000 0.80947214 0.66556597
0.00000000 0.78018951 0.64148915
0.00000000 0.74726540 0.61441827
0.00000000 0.71114212 0.58471686
0.00000000 0.67226183 0.55274862
0.00000000 0.63106686 0.51887721
0.00000000 0.83551455 0.68697864
0.00000000 0.81047428 0.66638994
0.00000000 0.78133404 0.64243019
0.00000000 0.74853605 0.61546302
0.00000000 0.71252263 0.58585197
0.00000000 0.67373598 0.55396068
0.00000000 0.63261825 0.52015281
0.00000000 0.58961183 0.48479196
0.00000000 0.54515886 0.44824174
0.00000000 0.78247356 0.64336717
0.00000000 0.74980235 0.61650419
0.00000000 0.71389937 0.58698392
0.00000000 0.67520690 0.55517012
0.00000000 0.63416713 0.52142632
0.00000000 0.59122235 0.48611617
0.00000000 0.54681480 0.44960326
0.00000000 0.50138664 0.41225126
0.00000000 0.45538020 0.37442374
0.00000000 0.71527237 0.58811283
0.00000000 0.67667466 0.55637693
0.00000000 0.63571340 0.52269769
0.00000000 0.59283090 0.48743874
0.00000000 0.54846931 0.45096365
0.00000000 0.50307089 0.41363606
0.00000000 0.45707786 0.37581959
0.00000000 0.41093254 0.33787787
0.00000000 0.36507708 0.30017450
0.00000000 0.63725710 0.52396697
0.00000000 0.59443742 0.48875967
0.00000000 0.55012238 0.45232287
0.00000000 0.50475430 0.41502020
0.00000000 0.45877534 0.37721527
0.00000000 0.41262776 0.33927172
0.00000000 0.36675382 0.30155313
0.00000000 0.32159573 0.26442316
0.00000000 0.27759576 0.22824539
0.00000000 0.55177408 0.45368093
0.00000000 0.50643688 0.41640365
0.00000000 0.46047255 0.37861079
0.00000000 0.41432336 0.34066588
0.00000000 0.36843151 0.30293256
0.00000000 0.32323924 0.26577449
0.00000000 0.27918884 0.22955526
0.00000000 0.23672248 0.19463849
0.00000000 0.19628245 0.16138780
0.00000000 0.46216953 0.38000607
0.00000000 0.41601929 0.34206033
0.00000000 0.37011015 0.30431280
0.00000000 0.32488433 0.26712710
0.00000000 0.28078404 0.23086689
0.00000000 0.23825160 0.19589576
0.00000000 0.19772919 0.16257733
0.00000000 0.15965904 0.13127522
0.00000000 0.12448344 0.10235305
0.00000000 0.37178972 0.30569378
0.00000000 0.32653090 0.26848099
0.00000000 0.28238142 0.23218027
0.00000000 0.23978344 0.19715527
0.00000000 0.19917923 0.16376959
0.00000000 0.16101104 0.13238686
0.00000000 0.12572111 0.10337070
0.00000000 0.09375167 0.07708471
0.00000000 0.06554496 0.05389252
0.00000000 0.28398085 0.23349537
0.00000000 0.24131796 0.19841699
0.00000000 0.20063257 0.16496457
0.00000000 0.16236694 0.13350171
0.00000000 0.12696327 0.10439203
0.00000000 0.09486384 0.07799916
0.00000000 0.06651087 0.05468671
0.00000000 0.04234659 0.03481831
0.00000000 0.02281325 0.01875756
0.00000000 0.86567533 0.71177751
0.00000000 0.84802407 0.69726425
0.00000000 0.82557333 0.67880470
0.00000000 0.79876518 0.65676248
0.00000000 0.76804203 0.63150120
0.00000000 0.73384601 0.60338449
0.00000000 0.69661939 0.57277596
0.00000000 0.65680438 0.54003918
0.00000000 0.61484331 0.50553787
0.00000000 0.82647914 0.67954952
0.00000000 0.79982352 0.65763265
0.00000000 0.76923651 0.63248336
0.00000000 0.73516041 0.60446525
0.00000000 0.69803751 0.57394195
0.00000000 0.65830988 0.54127705
0.00000000 0.61641991 0.50683415
0.00000000 0.57280982 0.47097698
0.00000000 0.52792180 0.43406904
0.00000000 0.77042633 0.63346165
0.00000000 0.73647076 0.60554266
0.00000000 0.69945204 0.57510507
0.00000000 0.65981245 0.54251248
0.00000000 0.61799425 0.50812858
0.00000000 0.57443959 0.47231698
0.00000000 0.52959073 0.43544126
0.00000000 0.48388994 0.39786506
0.00000000 0.43777946 0.35995200
0.00000000 0.70086312 0.57626522
0.00000000 0.66131210 0.54374552
0.00000000 0.61956614 0.50942105
0.00000000 0.57606757 0.47365555
0.00000000 0.53125846 0.43681252
0.00000000 0.48558119 0.39925566
0.00000000 0.43947795 0.36134854
0.00000000 0.39339098 0.32345480
0.00000000 0.34776250 0.28593805
0.00000000 0.62113571 0.51071161
0.00000000 0.57769376 0.47499263
0.00000000 0.53292507 0.43818283
0.00000000 0.48727188 0.40064579
0.00000000 0.44117647 0.36274511
0.00000000 0.39508107 0.32484442
0.00000000 0.34942788 0.28730738
0.00000000 0.30465919 0.25049758
0.00000000 0.26121721 0.21477860
0.00000000 0.53459042 0.43955216
0.00000000 0.48896196 0.40203542
0.00000000 0.44287500 0.36414167
0.00000000 0.39677176 0.32623455
0.00000000 0.35109448 0.28867769
0.00000000 0.30628541 0.25183466
0.00000000 0.26278678 0.21606913
0.00000000 0.22104084 0.18174471
0.00000000 0.18148984 0.14922498
0.00000000 0.44457349 0.36553821
0.00000000 0.39846301 0.32762516
0.00000000 0.35276222 0.29004896
0.00000000 0.30791339 0.25317323
0.00000000 0.26435873 0.21736161
0.00000000 0.22254047 0.18297772
0.00000000 0.18290088 0.15038517
0.00000000 0.14588217 0.11994758
0.00000000 0.11192662 0.09202855
0.00000000 0.35443115 0.29142118
0.00000000 0.30954313 0.25451323
0.00000000 0.26593301 0.21865603
0.00000000 0.22404304 0.18421318
0.00000000 0.18431546 0.15154827
0.00000000 0.14719251 0.12102495
0.00000000 0.11311642 0.09300683
0.00000000 0.08252943 0.06785753
0.00000000 0.05587379 0.04594067
0.00000000 0.26750964 0.21995236
0.00000000 0.22554854 0.18545103
0.00000000 0.18573357 0.15271427
0.00000000 0.14850695 0.12210573
0.00000000 0.11431094 0.09398900
0.00000000 0.08358776 0.06872772
0.00000000 0.05677965 0.04668549
0.00000000 0.03432886 0.02822595
0.00000000 0.01667761 0.01371270
0.00000000 0.85953969 0.70673263
0.00000000 0.84000635 0.69067192
0.00000000 0.81584209 0.67080349
0.00000000 0.78748912 0.64749104
0.00000000 0.75538969 0.62109816
0.00000000 0.71998602 0.59198850
0.00000000 0.68172038 0.56052566
0.00000000 0.64103496 0.52707320
0.00000000 0.59837210 0.49199486
0.00000000 0.81680799 0.67159772
0.00000000 0.78860128 0.64840549
0.00000000 0.75663185 0.62211955
0.00000000 0.72134191 0.59310335
0.00000000 0.68317372 0.56172061
0.00000000 0.64256954 0.52833498
0.00000000 0.59997153 0.49330994
0.00000000 0.55582201 0.45700923
0.00000000 0.51056325 0.41979644
0.00000000 0.75786948 0.62313718
0.00000000 0.72269392 0.59421498
0.00000000 0.68462378 0.56291288
0.00000000 0.64410138 0.52959448
0.00000000 0.60156888 0.49462333
0.00000000 0.55746865 0.45836312
0.00000000 0.51224279 0.42117742
0.00000000 0.46633366 0.38342988
0.00000000 0.42018342 0.34548414
0.00000000 0.68607050 0.56410241
0.00000000 0.64563048 0.53085172
0.00000000 0.60316414 0.49593496
0.00000000 0.55911368 0.45971572
0.00000000 0.51392144 0.42255765
0.00000000 0.46802959 0.38482434
0.00000000 0.42188039 0.34687942
0.00000000 0.37591606 0.30908656
0.00000000 0.33057886 0.27180928
0.00000000 0.60475719 0.49724481
0.00000000 0.56075722 0.46106705
0.00000000 0.51559913 0.42393708
0.00000000 0.46972519 0.38621849
0.00000000 0.42357761 0.34827495
0.00000000 0.37759864 0.31047001
0.00000000 0.33223054 0.27316734
0.00000000 0.28791553 0.23673055
0.00000000 0.24509583 0.20152324
0.00000000 0.51727587 0.42531571
0.00000000 0.47142041 0.38761234
0.00000000 0.42527509 0.34967062
0.00000000 0.37928209 0.31185415
0.00000000 0.33388364 0.27452657
0.00000000 0.28952205 0.23805147
0.00000000 0.24663952 0.20279250
0.00000000 0.20567828 0.16911326
0.00000000 0.16708060 0.13737738
0.00000000 0.42697275 0.35106647
0.00000000 0.38096631 0.31323895
0.00000000 0.33553818 0.27588695
0.00000000 0.29113060 0.23937404
0.00000000 0.24818581 0.20406389
0.00000000 0.20714605 0.17032009
0.00000000 0.16845357 0.13850628
0.00000000 0.13255060 0.10898604
0.00000000 0.09987936 0.08212303
0.00000000 0.33719406 0.27724847
0.00000000 0.29274112 0.24069825
0.00000000 0.24973467 0.20533741
0.00000000 0.20861700 0.17152953
0.00000000 0.16983032 0.13963827
0.00000000 0.13381688 0.11002722
0.00000000 0.10101893 0.08306001
0.00000000 0.07187869 0.05910026
0.00000000 0.04683840 0.03851157
0.00000000 0.25128609 0.20661302
0.00000000 0.21009110 0.17274158
0.00000000 0.17121083 0.14077336
0.00000000 0.13508753 0.11107197
0.00000000 0.10216344 0.08400106
0.00000000 0.07288080 0.05992422
0.00000000 0.04768185 0.03920507
0.00000000 0.02700882 0.02220725
0.00000000 0.01130395 0.00929436
0.00000000 0.85266656 0.70108140
0.00000000 0.83131546 0.68352604
0.00000000 0.80550194 0.66230160
0.00000000 0.77566838 0.63777179
0.00000000 0.74225700 0.61030024
0.00000000 0.70570999 0.58025044
0.00000000 0.66646963 0.54798615
0.00000000 0.62497813 0.51387089
0.00000000 0.58167768 0.47826833
0.00000000 0.80652559 0.66314322
0.00000000 0.77683204 0.63872862
0.00000000 0.74354446 0.61135876
0.00000000 0.70710498 0.58139741
0.00000000 0.66795582 0.54920816
0.00000000 0.62653929 0.51515454
0.00000000 0.58329761 0.47960028
0.00000000 0.53867298 0.44290891
0.00000000 0.49310771 0.40544412
0.00000000 0.74482763 0.61241382
0.00000000 0.70849627 0.58254141
0.00000000 0.66943896 0.55042762
0.00000000 0.62809801 0.51643616
0.00000000 0.58491564 0.48093066
0.00000000 0.54033411 0.44427469
0.00000000 0.49479556 0.40683192
0.00000000 0.44874233 0.36896592
0.00000000 0.40261662 0.33104032
0.00000000 0.67091906 0.55164456
0.00000000 0.62965429 0.51771575
0.00000000 0.58653182 0.48225948
0.00000000 0.54199386 0.44563940
0.00000000 0.49648273 0.40821913
0.00000000 0.45044059 0.37036225
0.00000000 0.40430972 0.33243242
0.00000000 0.35853231 0.29479325
0.00000000 0.31355068 0.25780833
0.00000000 0.58814603 0.48358676
0.00000000 0.54365236 0.44700304
0.00000000 0.49816915 0.40960577
0.00000000 0.45213872 0.37175852
0.00000000 0.40600327 0.33382493
0.00000000 0.36020505 0.29616860
0.00000000 0.31518629 0.25915319
0.00000000 0.27138925 0.22314227
0.00000000 0.22925612 0.18849948
0.00000000 0.49985486 0.41099179
0.00000000 0.45383671 0.37315464
0.00000000 0.40769729 0.33521777
0.00000000 0.36187884 0.29754481
0.00000000 0.31682357 0.26049939
0.00000000 0.27297372 0.22444506
0.00000000 0.23077156 0.18974552
0.00000000 0.19065931 0.15676433
0.00000000 0.15307921 0.12586513
0.00000000 0.40939176 0.33661100
0.00000000 0.36355364 0.29892188
0.00000000 0.31846246 0.26184693
0.00000000 0.27456045 0.22574970
0.00000000 0.23228982 0.19099386
0.00000000 0.19209285 0.15794301
0.00000000 0.15441176 0.12696078
0.00000000 0.11968879 0.09841079
0.00000000 0.08836619 0.07265665
0.00000000 0.32010296 0.26319578
0.00000000 0.27614936 0.22705615
0.00000000 0.23381090 0.19224451
0.00000000 0.19352980 0.15912451
0.00000000 0.15574832 0.12805973
0.00000000 0.12090869 0.09941381
0.00000000 0.08945315 0.07355037
0.00000000 0.06182394 0.05083302
0.00000000 0.03846330 0.03162538
0.00000000 0.23533475 0.19349748
0.00000000 0.19497015 0.16030878
0.00000000 0.15708886 0.12916195
0.00000000 0.12213317 0.10042060
0.00000000 0.09054529 0.07444835
0.00000000 0.06276748 0.05160882
0.00000000 0.03924196 0.03226561
0.00000000 0.02041099 0.01678237
0.00000000 0.00671679 0.00552269
0.00000000 0.84508049 0.69484395
0.00000000 0.82197583 0.67584682
0.00000000 0.79457748 0.65331924
0.00000000 0.76332760 0.62762493
0.00000000 0.72866851 0.59912747
0.00000000 0.69104242 0.56819046
0.00000000 0.65089160 0.53517753
0.00000000 0.60865825 0.50045234
0.00000000 0.56478465 0.46437848
0.00000000 0.79565638 0.65420634
0.00000000 0.76454037 0.62862211
0.00000000 0.72999889 0.60022134
0.00000000 0.69247413 0.56936765
0.00000000 0.65240836 0.53642464
0.00000000 0.61024380 0.50175601
0.00000000 0.56642264 0.46572530
0.00000000 0.52138722 0.42869616
0.00000000 0.47557971 0.39103222
0.00000000 0.73132521 0.60131186
0.00000000 0.69390237 0.57054198
0.00000000 0.65392220 0.53766942
0.00000000 0.61182702 0.50305778
0.00000000 0.56805903 0.46707076
0.00000000 0.52306044 0.43007192
0.00000000 0.47727349 0.39242488
0.00000000 0.43114045 0.35449329
0.00000000 0.38510358 0.31664073
0.00000000 0.65543324 0.53891182
0.00000000 0.61340803 0.50435770
0.00000000 0.56969374 0.46841484
0.00000000 0.52473259 0.43144679
0.00000000 0.47896680 0.39381716
0.00000000 0.43283868 0.35588959
0.00000000 0.38679039 0.31802768
0.00000000 0.34126425 0.28059506
0.00000000 0.29670244 0.24395534
0.00000000 0.57132673 0.46975756
0.00000000 0.52640361 0.43282077
0.00000000 0.48065963 0.39520904
0.00000000 0.43453699 0.35728598
0.00000000 0.38847795 0.31941521
0.00000000 0.34292474 0.28196037
0.00000000 0.29831964 0.24528503
0.00000000 0.25510481 0.20975286
0.00000000 0.21372257 0.17572746
0.00000000 0.48235193 0.39660048
0.00000000 0.43623540 0.35868242
0.00000000 0.39016616 0.32080331
0.00000000 0.34458652 0.28332672
0.00000000 0.29993868 0.24661626
0.00000000 0.25666490 0.21103559
0.00000000 0.21520740 0.17694831
0.00000000 0.17600842 0.14471804
0.00000000 0.13951021 0.11470840
0.00000000 0.39185506 0.32219195
0.00000000 0.34624958 0.28469411
0.00000000 0.30155963 0.24794902
0.00000000 0.25822744 0.21232034
0.00000000 0.21669528 0.17817168
0.00000000 0.17740539 0.14586665
0.00000000 0.14079997 0.11576887
0.00000000 0.10732130 0.08824196
0.00000000 0.07741161 0.06364954
0.00000000 0.30318239 0.24928330
0.00000000 0.25979242 0.21360710
0.00000000 0.21818620 0.17939755
0.00000000 0.17880598 0.14701825
0.00000000 0.14209397 0.11683282
0.00000000 0.10849243 0.08920489
0.00000000 0.07844360 0.06449807
0.00000000 0.05238971 0.04307598
0.00000000 0.03077300 0.02530224
0.00000000 0.21968013 0.18062589
0.00000000 0.18021017 0.14817281
0.00000000 0.14339218 0.11790024
0.00000000 0.10966837 0.09017178
0.00000000 0.07948100 0.06535105
0.00000000 0.05327230 0.04380167
0.00000000 0.03148451 0.02588727
0.00000000 0.01455988 0.01197146
0.00000000 0.00294064 0.00241786
0.00000000 0.83680594 0.68804044
0.00000000 0.81201208 0.66765440
0.00000000 0.78309309 0.64387655
0.00000000 0.75049120 0.61707056
0.00000000 0.71464872 0.58760011
0.00000000 0.67600787 0.55582869
0.00000000 0.63501090 0.52212006
0.00000000 0.59209996 0.48683777
0.00000000 0.54771739 0.45034543
0.00000000 0.78422493 0.64480716
0.00000000 0.75175077 0.61810619
0.00000000 0.71601963 0.58872730
0.00000000 0.67747390 0.55703413
0.00000000 0.63655573 0.52339029
0.00000000 0.59370744 0.48815945
0.00000000 0.54937118 0.45170519
0.00000000 0.50398922 0.41439113
0.00000000 0.45800379 0.37658089
0.00000000 0.71738672 0.58985132
0.00000000 0.67893672 0.55823690
0.00000000 0.63809800 0.52465838
0.00000000 0.59531283 0.48947948
0.00000000 0.55102348 0.45306379
0.00000000 0.50567216 0.41577491
0.00000000 0.45970112 0.37797648
0.00000000 0.41355258 0.34003213
0.00000000 0.36766881 0.30230546
0.00000000 0.63963765 0.52592427
0.00000000 0.59691626 0.49079782
0.00000000 0.55267441 0.45442116
0.00000000 0.50735432 0.41715798
0.00000000 0.46139821 0.37937188
0.00000000 0.41524836 0.34142643
0.00000000 0.36934701 0.30368534
0.00000000 0.32413638 0.26651213
0.00000000 0.28005868 0.23027048
0.00000000 0.55432385 0.45577738
0.00000000 0.50903559 0.41854036
0.00000000 0.46309504 0.38076705
0.00000000 0.41694450 0.34282103
0.00000000 0.37102616 0.30506596
0.00000000 0.32578227 0.26786542
0.00000000 0.28165507 0.23158306
0.00000000 0.23908681 0.19658248
0.00000000 0.19851971 0.16322732
0.00000000 0.46479160 0.38216197
0.00000000 0.41864094 0.34421590
0.00000000 0.37270620 0.30644733
0.00000000 0.32742968 0.26921996
0.00000000 0.28325358 0.23289739
0.00000000 0.24062011 0.19784321
0.00000000 0.19997156 0.16442107
0.00000000 0.16175014 0.13299456
0.00000000 0.12639810 0.10392733
0.00000000 0.37438717 0.30782947
0.00000000 0.32907858 0.27057573
0.00000000 0.28485414 0.23421341
0.00000000 0.24215610 0.19910614
0.00000000 0.20142670 0.16561751
0.00000000 0.16310816 0.13411115
0.00000000 0.12764271 0.10495067
0.00000000 0.09547262 0.07849971
0.00000000 0.06704012 0.05512188
0.00000000 0.28645679 0.23553115
0.00000000 0.24369477 0.20037125
0.00000000 0.20288509 0.16681664
0.00000000 0.16447002 0.13523090
0.00000000 0.12889178 0.10597769
0.00000000 0.09659262 0.07942060
0.00000000 0.06801478 0.05592326
0.00000000 0.04360049 0.03584930
0.00000000 0.02379200 0.01956231
0.00000000 0.20434673 0.16801843
0.00000000 0.16583572 0.13635382
0.00000000 0.13014530 0.10700835
0.00000000 0.09771766 0.08034563
0.00000000 0.06899508 0.05672929
0.00000000 0.04441978 0.03652293
0.00000000 0.02443401 0.02009019
0.00000000 0.00948000 0.00779467
0.00000000 0.00000000 0.00000000
