Light Blue Major/Light Blue Major.cube
# VEGAS Pro LUT
TITLE "Light Blue Major"
LUT_3D_SIZE 5
0.00000000 0.88235295 0.72549021
0.00000000 0.85791892 0.70540005
0.00000000 0.81335789 0.66876096
0.00000000 0.75220764 0.61848187
0.00000000 0.67800623 0.55747181
0.00000000 0.81531280 0.67036831
0.00000000 0.75471026 0.62053955
0.00000000 0.68092626 0.55987269
0.00000000 0.59749877 0.49127680
0.00000000 0.50796580 0.41766074
0.00000000 0.68383324 0.56226289
0.00000000 0.60069788 0.49390715
0.00000000 0.51132679 0.42042425
0.00000000 0.41925791 0.34472317
0.00000000 0.32802913 0.26971284
0.00000000 0.51468414 0.42318475
0.00000000 0.42265183 0.34751374
0.00000000 0.33132944 0.27242643
0.00000000 0.24425493 0.20083185
0.00000000 0.16496620 0.13563888
0.00000000 0.33463553 0.27514479
0.00000000 0.24734206 0.20337014
0.00000000 0.16770421 0.13789013
0.00000000 0.09925988 0.08161368
0.00000000 0.04554700 0.03744975
0.00000000 0.87563616 0.71996754
0.00000000 0.84311098 0.69322461
0.00000000 0.79180765 0.65104187
0.00000000 0.72526407 0.59632826
0.00000000 0.64701819 0.53199273
0.00000000 0.79398674 0.65283358
0.00000000 0.72794116 0.59852940
0.00000000 0.65006310 0.53449637
0.00000000 0.56389046 0.46364328
0.00000000 0.47296119 0.38887921
0.00000000 0.65309685 0.53699070
0.00000000 0.56716669 0.46633703
0.00000000 0.47634968 0.39166528
0.00000000 0.38418379 0.31588444
0.00000000 0.29420692 0.24190347
0.00000000 0.47973633 0.39444989
0.00000000 0.38755739 0.31865829
0.00000000 0.29743728 0.24455956
0.00000000 0.21291396 0.17506260
0.00000000 0.13752532 0.11307637
0.00000000 0.30067524 0.24722187
0.00000000 0.21588333 0.17750408
0.00000000 0.14009595 0.11519000
0.00000000 0.07685099 0.06318859
0.00000000 0.02968637 0.02440880
0.00000000 0.86567533 0.71177751
0.00000000 0.82557333 0.67880470
0.00000000 0.76804203 0.63150120
0.00000000 0.69661939 0.57277596
0.00000000 0.61484331 0.50553787
0.00000000 0.77042633 0.63346165
0.00000000 0.69945204 0.57510507
0.00000000 0.61799425 0.50812858
0.00000000 0.52959073 0.43544126
0.00000000 0.43777946 0.35995200
0.00000000 0.62113571 0.51071161
0.00000000 0.53292507 0.43818283
0.00000000 0.44117647 0.36274511
0.00000000 0.34942788 0.28730738
0.00000000 0.26121721 0.21477860
0.00000000 0.44457349 0.36553821
0.00000000 0.35276222 0.29004896
0.00000000 0.26435873 0.21736161
0.00000000 0.18290088 0.15038517
0.00000000 0.11192662 0.09202855
0.00000000 0.26750964 0.21995236
0.00000000 0.18573357 0.15271427
0.00000000 0.11431094 0.09398900
0.00000000 0.05677965 0.04668549
0.00000000 0.01667761 0.01371270
0.00000000 0.85266656 0.70108140
0.00000000 0.80550194 0.66230160
0.00000000 0.74225700 0.61030024
0.00000000 0.66646963 0.54798615
0.00000000 0.58167768 0.47826833
0.00000000 0.74482763 0.61241382
0.00000000 0.66943896 0.55042762
0.00000000 0.58491564 0.48093066
0.00000000 0.49479556 0.40683192
0.00000000 0.40261662 0.33104032
0.00000000 0.58814603 0.48358676
0.00000000 0.49816915 0.40960577
0.00000000 0.40600327 0.33382493
0.00000000 0.31518629 0.25915319
0.00000000 0.22925612 0.18849948
0.00000000 0.40939176 0.33661100
0.00000000 0.31846246 0.26184693
0.00000000 0.23228982 0.19099386
0.00000000 0.15441176 0.12696078
0.00000000 0.08836619 0.07265665
0.00000000 0.23533475 0.19349748
0.00000000 0.15708886 0.12916195
0.00000000 0.09054529 0.07444835
0.00000000 0.03924196 0.03226561
0.00000000 0.00671679 0.00552269
0.00000000 0.83680594 0.68804044
0.00000000 0.78309309 0.64387655
0.00000000 0.71464872 0.58760011
0.00000000 0.63501090 0.52212006
0.00000000 0.54771739 0.45034543
0.00000000 0.71738672 0.58985132
0.00000000 0.63809800 0.52465838
0.00000000 0.55102348 0.45306379
0.00000000 0.45970112 0.37797648
0.00000000 0.36766881 0.30230546
0.00000000 0.55432385 0.45577738
0.00000000 0.46309504 0.38076705
0.00000000 0.37102616 0.30506596
0.00000000 0.28165507 0.23158306
0.00000000 0.19851971 0.16322732
0.00000000 0.37438717 0.30782947
0.00000000 0.28485414 0.23421341
0.00000000 0.20142670 0.16561751
0.00000000 0.12764271 0.10495067
0.00000000 0.06704012 0.05512188
0.00000000 0.20434673 0.16801843
0.00000000 0.13014530 0.10700835
0.00000000 0.06899508 0.05672929
0.00000000 0.02443401 0.02009019
0.00000000 0.00000000 0.00000000
