Light Blue Major/Light Blue Major.cube
# VEGAS Pro LUT
TITLE "Light Blue Major"
LUT_3D_SIZE 33
0.00000000 0.88235295 0.72549021
0.00000000 0.88052034 0.72398341
0.00000000 0.87832487 0.72217822
0.00000000 0.87577343 0.72008038
0.00000000 0.87287295 0.71769553
0.00000000 0.86963034 0.71502942
0.00000000 0.86605257 0.71208769
0.00000000 0.86214644 0.70887595
0.00000000 0.85791892 0.70540005
0.00000000 0.85337692 0.70166552
0.00000000 0.84852737 0.69767809
0.00000000 0.84337717 0.69344342
0.00000000 0.83793318 0.68896729
0.00000000 0.83220232 0.68425524
0.00000000 0.82619154 0.67931306
0.00000000 0.81990778 0.67414641
0.00000000 0.81335789 0.66876096
0.00000000 0.80654877 0.66316235
0.00000000 0.79948735 0.65735626
0.00000000 0.79218054 0.65134847
0.00000000 0.78463531 0.64514458
0.00000000 0.77685845 0.63875031
0.00000000 0.76885694 0.63217127
0.00000000 0.76063770 0.62541324
0.00000000 0.75220764 0.61848187
0.00000000 0.74357367 0.61138278
0.00000000 0.73474264 0.60412174
0.00000000 0.72572154 0.59670436
0.00000000 0.71651721 0.58913636
0.00000000 0.70713663 0.58142346
0.00000000 0.69758666 0.57357126
0.00000000 0.68787420 0.56558549
0.00000000 0.67800623 0.55747181
0.00000000 0.87841195 0.72224987
0.00000000 0.87587351 0.72016269
0.00000000 0.87298578 0.71778828
0.00000000 0.86975563 0.71513242
0.00000000 0.86619002 0.71220070
0.00000000 0.86229587 0.70899886
0.00000000 0.85808009 0.70553249
0.00000000 0.85354954 0.70180738
0.00000000 0.84871119 0.69782919
0.00000000 0.84357190 0.69360358
0.00000000 0.83813858 0.68913615
0.00000000 0.83241814 0.68443274
0.00000000 0.82641757 0.67949891
0.00000000 0.82014370 0.67434037
0.00000000 0.81360346 0.66896284
0.00000000 0.80680376 0.66337198
0.00000000 0.79975152 0.65757346
0.00000000 0.79245365 0.65157300
0.00000000 0.78491700 0.64537621
0.00000000 0.77714860 0.63898885
0.00000000 0.76915526 0.63241655
0.00000000 0.76094389 0.62566501
0.00000000 0.75252146 0.61873984
0.00000000 0.74389482 0.61164689
0.00000000 0.73507094 0.60439169
0.00000000 0.72605669 0.59697998
0.00000000 0.71685898 0.58941740
0.00000000 0.70748478 0.58170968
0.00000000 0.69794089 0.57386255
0.00000000 0.68823433 0.56588155
0.00000000 0.67837191 0.55777246
0.00000000 0.66836065 0.54954100
0.00000000 0.65820736 0.54119271
0.00000000 0.87309808 0.71788067
0.00000000 0.86988044 0.71523505
0.00000000 0.86632705 0.71231335
0.00000000 0.86244488 0.70912135
0.00000000 0.85824078 0.70566463
0.00000000 0.85372174 0.70194900
0.00000000 0.84889454 0.69797999
0.00000000 0.84376621 0.69376332
0.00000000 0.83834356 0.68930471
0.00000000 0.83263361 0.68460989
0.00000000 0.82664323 0.67968446
0.00000000 0.82037926 0.67453408
0.00000000 0.81384873 0.66916454
0.00000000 0.80705845 0.66358137
0.00000000 0.80001539 0.65779042
0.00000000 0.79272640 0.65179729
0.00000000 0.78519845 0.64560759
0.00000000 0.77743840 0.63922715
0.00000000 0.76945323 0.63266152
0.00000000 0.76124978 0.62591648
0.00000000 0.75283498 0.61899763
0.00000000 0.74421573 0.61191070
0.00000000 0.73539901 0.60466141
0.00000000 0.72639161 0.59725535
0.00000000 0.71720058 0.58969826
0.00000000 0.70783269 0.58199579
0.00000000 0.69829494 0.57415360
0.00000000 0.68859422 0.56617749
0.00000000 0.67873746 0.55807298
0.00000000 0.66873151 0.54984593
0.00000000 0.65858334 0.54150182
0.00000000 0.64829981 0.53304648
0.00000000 0.63788784 0.52448559
0.00000000 0.86646366 0.71242571
0.00000000 0.86259347 0.70924354
0.00000000 0.85840106 0.70579648
0.00000000 0.85389346 0.70209020
0.00000000 0.84907752 0.69813043
0.00000000 0.84396011 0.69392276
0.00000000 0.83854824 0.68947297
0.00000000 0.83284873 0.68478674
0.00000000 0.82686847 0.67986965
0.00000000 0.82061452 0.67472750
0.00000000 0.81409365 0.66936588
0.00000000 0.80731279 0.66379052
0.00000000 0.80027890 0.65800709
0.00000000 0.79299885 0.65202129
0.00000000 0.78547955 0.64583874
0.00000000 0.77772790 0.63946521
0.00000000 0.76975089 0.63290632
0.00000000 0.76155537 0.62616771
0.00000000 0.75314820 0.61925519
0.00000000 0.74453640 0.61217439
0.00000000 0.73572677 0.60493094
0.00000000 0.72672629 0.59753054
0.00000000 0.71754187 0.58997887
0.00000000 0.70818037 0.58228165
0.00000000 0.69864875 0.57444453
0.00000000 0.68895394 0.56647325
0.00000000 0.67910272 0.55837339
0.00000000 0.66910219 0.55015069
0.00000000 0.65895909 0.54181081
0.00000000 0.64868045 0.53335947
0.00000000 0.63827312 0.52480233
0.00000000 0.62774402 0.51614505
0.00000000 0.61710006 0.50739336
0.00000000 0.85856092 0.70592791
0.00000000 0.85406482 0.70223105
0.00000000 0.84926009 0.69828051
0.00000000 0.84415364 0.69408190
0.00000000 0.83875245 0.68964094
0.00000000 0.83306342 0.68496323
0.00000000 0.82709342 0.68005461
0.00000000 0.82084936 0.67492056
0.00000000 0.81433815 0.66956693
0.00000000 0.80756676 0.66399938
0.00000000 0.80054206 0.65822345
0.00000000 0.79327095 0.65224499
0.00000000 0.78576034 0.64606959
0.00000000 0.77801716 0.63970298
0.00000000 0.77004826 0.63315082
0.00000000 0.76186067 0.62641877
0.00000000 0.75346118 0.61951250
0.00000000 0.74485677 0.61243778
0.00000000 0.73605430 0.60520023
0.00000000 0.72706074 0.59780550
0.00000000 0.71788293 0.59025931
0.00000000 0.70852786 0.58256733
0.00000000 0.69900239 0.57473528
0.00000000 0.68931341 0.56676883
0.00000000 0.67946786 0.55867356
0.00000000 0.66947263 0.55045533
0.00000000 0.65933472 0.54211968
0.00000000 0.64906090 0.53367233
0.00000000 0.63865817 0.52511895
0.00000000 0.62813342 0.51646525
0.00000000 0.61749357 0.50771695
0.00000000 0.60674548 0.49887964
0.00000000 0.59589612 0.48995906
0.00000000 0.84944224 0.69843030
0.00000000 0.84434676 0.69424069
0.00000000 0.83895630 0.68980855
0.00000000 0.83327770 0.68513948
0.00000000 0.82731795 0.68023920
0.00000000 0.82108384 0.67511338
0.00000000 0.81458235 0.66976774
0.00000000 0.80782044 0.66420788
0.00000000 0.80080491 0.65843958
0.00000000 0.79354274 0.65246844
0.00000000 0.78604078 0.64630020
0.00000000 0.77830607 0.63994056
0.00000000 0.77034533 0.63339508
0.00000000 0.76216567 0.62666953
0.00000000 0.75377387 0.61976963
0.00000000 0.74517685 0.61270100
0.00000000 0.73638153 0.60546929
0.00000000 0.72739488 0.59808028
0.00000000 0.71822375 0.59053952
0.00000000 0.70887506 0.58285284
0.00000000 0.69935572 0.57502586
0.00000000 0.68967265 0.56706417
0.00000000 0.67983276 0.55897361
0.00000000 0.66984296 0.55075973
0.00000000 0.65971011 0.54242831
0.00000000 0.64944118 0.53398502
0.00000000 0.63904309 0.52543545
0.00000000 0.62852269 0.51678532
0.00000000 0.61788696 0.50804043
0.00000000 0.60714275 0.49920627
0.00000000 0.59629703 0.49028865
0.00000000 0.58535659 0.48129323
0.00000000 0.57432848 0.47222567
0.00000000 0.83915979 0.68997580
0.00000000 0.83349168 0.68531537
0.00000000 0.82754207 0.68042350
0.00000000 0.82131797 0.67530590
0.00000000 0.81482619 0.66996825
0.00000000 0.80807370 0.66441619
0.00000000 0.80106741 0.65865541
0.00000000 0.79381418 0.65269166
0.00000000 0.78632098 0.64653057
0.00000000 0.77859467 0.64017785
0.00000000 0.77064216 0.63363910
0.00000000 0.76247036 0.62692010
0.00000000 0.75408626 0.62002647
0.00000000 0.74549669 0.61296397
0.00000000 0.73670858 0.60573816
0.00000000 0.72772884 0.59835482
0.00000000 0.71856433 0.59081960
0.00000000 0.70922208 0.58313817
0.00000000 0.69970888 0.57531619
0.00000000 0.69003171 0.56735939
0.00000000 0.68019748 0.55927348
0.00000000 0.67021304 0.55106407
0.00000000 0.66008538 0.54273683
0.00000000 0.64982134 0.53429753
0.00000000 0.63942784 0.52575177
0.00000000 0.62891185 0.51710528
0.00000000 0.61828023 0.50836372
0.00000000 0.60753989 0.49953279
0.00000000 0.59669775 0.49061814
0.00000000 0.58576071 0.48162547
0.00000000 0.57473570 0.47256047
0.00000000 0.56362963 0.46342880
0.00000000 0.55244935 0.45423615
0.00000000 0.82776588 0.68060750
0.00000000 0.82155174 0.67549813
0.00000000 0.81506968 0.67016840
0.00000000 0.80832666 0.66462415
0.00000000 0.80132955 0.65887100
0.00000000 0.79408532 0.65291458
0.00000000 0.78660083 0.64676064
0.00000000 0.77888292 0.64041489
0.00000000 0.77093863 0.63388288
0.00000000 0.76277483 0.62717044
0.00000000 0.75439841 0.62028313
0.00000000 0.74581623 0.61322671
0.00000000 0.73703533 0.60600680
0.00000000 0.72806251 0.59862918
0.00000000 0.71890467 0.59109944
0.00000000 0.70956886 0.58342326
0.00000000 0.70006180 0.57560641
0.00000000 0.69039053 0.56765449
0.00000000 0.68056196 0.55957317
0.00000000 0.67058295 0.55136818
0.00000000 0.66046041 0.54304522
0.00000000 0.65020126 0.53460991
0.00000000 0.63981241 0.52606797
0.00000000 0.62930083 0.51742512
0.00000000 0.61867332 0.50868696
0.00000000 0.60793686 0.49985918
0.00000000 0.59709835 0.49094751
0.00000000 0.58616465 0.48195761
0.00000000 0.57514274 0.47289518
0.00000000 0.56403953 0.46376586
0.00000000 0.55286193 0.45457536
0.00000000 0.54161674 0.44532934
0.00000000 0.53031105 0.43603352
0.00000000 0.81531280 0.67036831
0.00000000 0.80857927 0.66483188
0.00000000 0.80159140 0.65908629
0.00000000 0.79435611 0.65313727
0.00000000 0.78688031 0.64699048
0.00000000 0.77917093 0.64065164
0.00000000 0.77123481 0.63412642
0.00000000 0.76307899 0.62742049
0.00000000 0.75471026 0.62053955
0.00000000 0.74613553 0.61348921
0.00000000 0.73736179 0.60627526
0.00000000 0.72839594 0.59890330
0.00000000 0.71924478 0.59137905
0.00000000 0.70991534 0.58370823
0.00000000 0.70041454 0.57589638
0.00000000 0.69074917 0.56794935
0.00000000 0.68092626 0.55987269
0.00000000 0.67095262 0.55167216
0.00000000 0.66083527 0.54335344
0.00000000 0.65058100 0.53492218
0.00000000 0.64019686 0.52638406
0.00000000 0.62968963 0.51774478
0.00000000 0.61906624 0.50901002
0.00000000 0.60833371 0.50018549
0.00000000 0.59749877 0.49127680
0.00000000 0.58656853 0.48228967
0.00000000 0.57554972 0.47322980
0.00000000 0.56444937 0.46410283
0.00000000 0.55327433 0.45491448
0.00000000 0.54203159 0.44567043
0.00000000 0.53072792 0.43637633
0.00000000 0.51937038 0.42703786
0.00000000 0.50796580 0.41766074
0.00000000 0.80185294 0.65930128
0.00000000 0.79462659 0.65335965
0.00000000 0.78715956 0.64722008
0.00000000 0.77945858 0.64088821
0.00000000 0.77153075 0.63436973
0.00000000 0.76338285 0.62767035
0.00000000 0.75502181 0.62079573
0.00000000 0.74645460 0.61375153
0.00000000 0.73768800 0.60654348
0.00000000 0.72872907 0.59917724
0.00000000 0.71958464 0.59165853
0.00000000 0.71026164 0.58399296
0.00000000 0.70076704 0.57618624
0.00000000 0.69110757 0.56824404
0.00000000 0.68129033 0.56017208
0.00000000 0.67132217 0.55197603
0.00000000 0.66120994 0.54366153
0.00000000 0.65096062 0.53523427
0.00000000 0.64058107 0.52670002
0.00000000 0.63007826 0.51806438
0.00000000 0.61945903 0.50933301
0.00000000 0.60873038 0.50051165
0.00000000 0.59789914 0.49160597
0.00000000 0.58697224 0.48262164
0.00000000 0.57595658 0.47356433
0.00000000 0.56485915 0.46443972
0.00000000 0.55368674 0.45525354
0.00000000 0.54244632 0.44601142
0.00000000 0.53114480 0.43671906
0.00000000 0.51978910 0.42738214
0.00000000 0.50838608 0.41800636
0.00000000 0.49694273 0.40859735
0.00000000 0.48546591 0.39916086
0.00000000 0.78743845 0.64744937
0.00000000 0.77974600 0.64112449
0.00000000 0.77182633 0.63461280
0.00000000 0.76368642 0.62791997
0.00000000 0.75533313 0.62105167
0.00000000 0.74677330 0.61401361
0.00000000 0.73801398 0.60681152
0.00000000 0.72906202 0.59945101
0.00000000 0.71992427 0.59193778
0.00000000 0.71060777 0.58427751
0.00000000 0.70111930 0.57647586
0.00000000 0.69146580 0.56853855
0.00000000 0.68165421 0.56047124
0.00000000 0.67169148 0.55227965
0.00000000 0.66158444 0.54396945
0.00000000 0.65134001 0.53554624
0.00000000 0.64096516 0.52701581
0.00000000 0.63046676 0.51838380
0.00000000 0.61985171 0.50965583
0.00000000 0.60912693 0.50083774
0.00000000 0.59829932 0.49193501
0.00000000 0.58737582 0.48295349
0.00000000 0.57636333 0.47389877
0.00000000 0.56526875 0.46477655
0.00000000 0.55409902 0.45559251
0.00000000 0.54286098 0.44635236
0.00000000 0.53156155 0.43706176
0.00000000 0.52020776 0.42772636
0.00000000 0.50880635 0.41835192
0.00000000 0.49736437 0.40894404
0.00000000 0.48588863 0.39950845
0.00000000 0.47438610 0.39005080
0.00000000 0.46286368 0.38057682
0.00000000 0.77212167 0.63485557
0.00000000 0.76398969 0.62816930
0.00000000 0.75564414 0.62130737
0.00000000 0.74709183 0.61427552
0.00000000 0.73833972 0.60707933
0.00000000 0.72939467 0.59972453
0.00000000 0.72026366 0.59221679
0.00000000 0.71095359 0.58456182
0.00000000 0.70147133 0.57676530
0.00000000 0.69182378 0.56883287
0.00000000 0.68201792 0.56077027
0.00000000 0.67206061 0.55258316
0.00000000 0.66195875 0.54427719
0.00000000 0.65171927 0.53585809
0.00000000 0.64134908 0.52733147
0.00000000 0.63085508 0.51870310
0.00000000 0.62024420 0.50997859
0.00000000 0.60952336 0.50116366
0.00000000 0.59869945 0.49226397
0.00000000 0.58777934 0.48328525
0.00000000 0.57677001 0.47423312
0.00000000 0.56567830 0.46511328
0.00000000 0.55451119 0.45593143
0.00000000 0.54327554 0.44669321
0.00000000 0.53197831 0.43740436
0.00000000 0.52062631 0.42807055
0.00000000 0.50922656 0.41869742
0.00000000 0.49778596 0.40929067
0.00000000 0.48631135 0.39985600
0.00000000 0.47480968 0.39039907
0.00000000 0.46328786 0.38092557
0.00000000 0.45175278 0.37144119
0.00000000 0.44021142 0.36195159
0.00000000 0.75595486 0.62156290
0.00000000 0.74741000 0.61453712
0.00000000 0.73866516 0.60734689
0.00000000 0.72972709 0.59999782
0.00000000 0.72060281 0.59249568
0.00000000 0.71129918 0.58484602
0.00000000 0.70182312 0.57705456
0.00000000 0.69218159 0.56912708
0.00000000 0.68238139 0.56106913
0.00000000 0.67242950 0.55288649
0.00000000 0.66233289 0.54458481
0.00000000 0.65209836 0.53616977
0.00000000 0.64173281 0.52764702
0.00000000 0.63124329 0.51902229
0.00000000 0.62063658 0.51030117
0.00000000 0.60991967 0.50148952
0.00000000 0.59909940 0.49259284
0.00000000 0.58818269 0.48361689
0.00000000 0.57717651 0.47456735
0.00000000 0.56608772 0.46544993
0.00000000 0.55492324 0.45627025
0.00000000 0.54369003 0.44703403
0.00000000 0.53239489 0.43774694
0.00000000 0.52104485 0.42841464
0.00000000 0.50964671 0.41904289
0.00000000 0.49820748 0.40963727
0.00000000 0.48673400 0.40020353
0.00000000 0.47523320 0.39074731
0.00000000 0.46371201 0.38127431
0.00000000 0.45217732 0.37179023
0.00000000 0.44063604 0.36230075
0.00000000 0.42909509 0.35281152
0.00000000 0.41756135 0.34332824
0.00000000 0.73899031 0.60761428
0.00000000 0.73005927 0.60027099
0.00000000 0.72094172 0.59277427
0.00000000 0.71164453 0.58512998
0.00000000 0.70217472 0.57734364
0.00000000 0.69253910 0.56942105
0.00000000 0.68274468 0.56136787
0.00000000 0.67279828 0.55318969
0.00000000 0.66270679 0.54489225
0.00000000 0.65247720 0.53648126
0.00000000 0.64211643 0.52796239
0.00000000 0.63163131 0.51934129
0.00000000 0.62102878 0.51062369
0.00000000 0.61031580 0.50181520
0.00000000 0.59949923 0.49292156
0.00000000 0.58858597 0.48394844
0.00000000 0.57758296 0.47490153
0.00000000 0.56649709 0.46578649
0.00000000 0.55533528 0.45660901
0.00000000 0.54410440 0.44737476
0.00000000 0.53281146 0.43808943
0.00000000 0.52146327 0.42875871
0.00000000 0.51006681 0.41938829
0.00000000 0.49862897 0.40998381
0.00000000 0.48715663 0.40055102
0.00000000 0.47565672 0.39109552
0.00000000 0.46413615 0.38162306
0.00000000 0.45260182 0.37213928
0.00000000 0.44106066 0.36264989
0.00000000 0.42951956 0.35316053
0.00000000 0.41798547 0.34367692
0.00000000 0.40646523 0.33420476
0.00000000 0.39496580 0.32474968
0.00000000 0.72128034 0.59305274
0.00000000 0.71198970 0.58541375
0.00000000 0.70252609 0.57763255
0.00000000 0.69289649 0.56971490
0.00000000 0.68310773 0.56166637
0.00000000 0.67316681 0.55349272
0.00000000 0.66308057 0.54519957
0.00000000 0.65285593 0.53679264
0.00000000 0.64249980 0.52827764
0.00000000 0.63201916 0.51966023
0.00000000 0.62142086 0.51094604
0.00000000 0.61071181 0.50214082
0.00000000 0.59989887 0.49325019
0.00000000 0.58898908 0.48427990
0.00000000 0.57798922 0.47523561
0.00000000 0.56690627 0.46612296
0.00000000 0.55574715 0.45694768
0.00000000 0.54451877 0.44771540
0.00000000 0.53322792 0.43843186
0.00000000 0.52188170 0.42910272
0.00000000 0.51048690 0.41973364
0.00000000 0.49905041 0.41033036
0.00000000 0.48757923 0.40089849
0.00000000 0.47608021 0.39144373
0.00000000 0.46456027 0.38197178
0.00000000 0.45302632 0.37248832
0.00000000 0.44148529 0.36299902
0.00000000 0.42994407 0.35350958
0.00000000 0.41840959 0.34402567
0.00000000 0.40688872 0.33455297
0.00000000 0.39538842 0.32509714
0.00000000 0.38391557 0.31566390
0.00000000 0.37247705 0.30625892
0.00000000 0.70287722 0.57792127
0.00000000 0.69325358 0.57000852
0.00000000 0.68347061 0.56196469
0.00000000 0.67353511 0.55379558
0.00000000 0.66345412 0.54550672
0.00000000 0.65323442 0.53710389
0.00000000 0.64288306 0.52859277
0.00000000 0.63240689 0.51997900
0.00000000 0.62181276 0.51126826
0.00000000 0.61110765 0.50246632
0.00000000 0.60029846 0.49357873
0.00000000 0.58939207 0.48461127
0.00000000 0.57839543 0.47556958
0.00000000 0.56731540 0.46645936
0.00000000 0.55615896 0.45728627
0.00000000 0.54493296 0.44805601
0.00000000 0.53364438 0.43877426
0.00000000 0.52230000 0.42944667
0.00000000 0.51090688 0.42007899
0.00000000 0.49947181 0.41067684
0.00000000 0.48800176 0.40124592
0.00000000 0.47650367 0.39179191
0.00000000 0.46498436 0.38232049
0.00000000 0.45345083 0.37283733
0.00000000 0.44190994 0.36334816
0.00000000 0.43036860 0.35385862
0.00000000 0.41883373 0.34437442
0.00000000 0.40731224 0.33490118
0.00000000 0.39581105 0.32544467
0.00000000 0.38433707 0.31601048
0.00000000 0.37289718 0.30660436
0.00000000 0.36149833 0.29723197
0.00000000 0.35014740 0.28789899
0.00000000 0.68383324 0.56226289
0.00000000 0.67390329 0.55409825
0.00000000 0.66382748 0.54581374
0.00000000 0.65361279 0.53741497
0.00000000 0.64326614 0.52890772
0.00000000 0.63279444 0.52029765
0.00000000 0.62220454 0.51159036
0.00000000 0.61150336 0.50279164
0.00000000 0.60069788 0.49390715
0.00000000 0.58979493 0.48494253
0.00000000 0.57880151 0.47590345
0.00000000 0.56772447 0.46679565
0.00000000 0.55657065 0.45762479
0.00000000 0.54534709 0.44839653
0.00000000 0.53406066 0.43911657
0.00000000 0.52271825 0.42979059
0.00000000 0.51132679 0.42042425
0.00000000 0.49989316 0.41102326
0.00000000 0.48842430 0.40159330
0.00000000 0.47692707 0.39214006
0.00000000 0.46540844 0.38266918
0.00000000 0.45387530 0.37318638
0.00000000 0.44233456 0.36369732
0.00000000 0.43079314 0.35420769
0.00000000 0.41925791 0.34472317
0.00000000 0.40773579 0.33524945
0.00000000 0.39623374 0.32579219
0.00000000 0.38475862 0.31635711
0.00000000 0.37331736 0.30694985
0.00000000 0.36191687 0.29757610
0.00000000 0.35056406 0.28824157
0.00000000 0.33926585 0.27895191
0.00000000 0.32802913 0.26971284
0.00000000 0.66420066 0.54612052
0.00000000 0.65399098 0.53772593
0.00000000 0.64364904 0.52922255
0.00000000 0.63318181 0.52061617
0.00000000 0.62259614 0.51191241
0.00000000 0.61189896 0.50311691
0.00000000 0.60109717 0.49423546
0.00000000 0.59019768 0.48527369
0.00000000 0.57920748 0.47623727
0.00000000 0.56813335 0.46713188
0.00000000 0.55698228 0.45796323
0.00000000 0.54576117 0.44873697
0.00000000 0.53447694 0.43945882
0.00000000 0.52313644 0.43013442
0.00000000 0.51174664 0.42076948
0.00000000 0.50031447 0.41136968
0.00000000 0.48884675 0.40194067
0.00000000 0.47735047 0.39248818
0.00000000 0.46583250 0.38301784
0.00000000 0.45429978 0.37353539
0.00000000 0.44275919 0.36404645
0.00000000 0.43121764 0.35455674
0.00000000 0.41968209 0.34507194
0.00000000 0.40815938 0.33559772
0.00000000 0.39665645 0.32613975
0.00000000 0.38518023 0.31670377
0.00000000 0.37373760 0.30729538
0.00000000 0.36233550 0.29792029
0.00000000 0.35098082 0.28858423
0.00000000 0.33968046 0.27929282
0.00000000 0.32844132 0.27005178
0.00000000 0.31727037 0.26086676
0.00000000 0.30617446 0.25174347
0.00000000 0.64403176 0.52953726
0.00000000 0.63356900 0.52093452
0.00000000 0.62298757 0.51223427
0.00000000 0.61229438 0.50344205
0.00000000 0.60149634 0.49456367
0.00000000 0.59060037 0.48560473
0.00000000 0.57961333 0.47657096
0.00000000 0.56854218 0.46746802
0.00000000 0.55739385 0.45830160
0.00000000 0.54617518 0.44907737
0.00000000 0.53489310 0.43980101
0.00000000 0.52355456 0.43047822
0.00000000 0.51216650 0.42111465
0.00000000 0.50073570 0.41171604
0.00000000 0.48926920 0.40228802
0.00000000 0.47777385 0.39283627
0.00000000 0.46625656 0.38336650
0.00000000 0.45472425 0.37388438
0.00000000 0.44318381 0.36439559
0.00000000 0.43164220 0.35490581
0.00000000 0.42010629 0.34542072
0.00000000 0.40858299 0.33594602
0.00000000 0.39707920 0.32648736
0.00000000 0.38560188 0.31705043
0.00000000 0.37415791 0.30764094
0.00000000 0.36275417 0.29826453
0.00000000 0.35139760 0.28892693
0.00000000 0.34009513 0.27963379
0.00000000 0.32885364 0.27039078
0.00000000 0.31768006 0.26120362
0.00000000 0.30658126 0.25207794
0.00000000 0.29556420 0.24301946
0.00000000 0.28463578 0.23403385
0.00000000 0.62337887 0.51255596
0.00000000 0.61268967 0.50376707
0.00000000 0.60189539 0.49489176
0.00000000 0.59100288 0.48593569
0.00000000 0.58001906 0.47690457
0.00000000 0.56895089 0.46780407
0.00000000 0.55780524 0.45863989
0.00000000 0.54658908 0.44941768
0.00000000 0.53530920 0.44014314
0.00000000 0.52397263 0.43082196
0.00000000 0.51258624 0.42145979
0.00000000 0.50115693 0.41206238
0.00000000 0.48969159 0.40263531
0.00000000 0.47819719 0.39318436
0.00000000 0.46668059 0.38371515
0.00000000 0.45514870 0.37423337
0.00000000 0.44360846 0.36474472
0.00000000 0.43206674 0.35525489
0.00000000 0.42053050 0.34576952
0.00000000 0.40900663 0.33629432
0.00000000 0.39750201 0.32683498
0.00000000 0.38602358 0.31739718
0.00000000 0.37457824 0.30798656
0.00000000 0.36317292 0.29860884
0.00000000 0.35181451 0.28926972
0.00000000 0.34050992 0.27997482
0.00000000 0.32926604 0.27072987
0.00000000 0.31808984 0.26154053
0.00000000 0.30698818 0.25241250
0.00000000 0.29596800 0.24335146
0.00000000 0.28503618 0.23436308
0.00000000 0.27419963 0.22545303
0.00000000 0.26346529 0.21662702
0.00000000 0.60229427 0.49521974
0.00000000 0.59140521 0.48626655
0.00000000 0.58042467 0.47723809
0.00000000 0.56935948 0.46814004
0.00000000 0.55821657 0.45897809
0.00000000 0.54700285 0.44975790
0.00000000 0.53572524 0.44048521
0.00000000 0.52439064 0.43116564
0.00000000 0.51300591 0.42180488
0.00000000 0.50157809 0.41240865
0.00000000 0.49011394 0.40298259
0.00000000 0.47862050 0.39353240
0.00000000 0.46710458 0.38406378
0.00000000 0.45557314 0.37458235
0.00000000 0.44403309 0.36509386
0.00000000 0.43249130 0.35560396
0.00000000 0.42095473 0.34611833
0.00000000 0.40943027 0.33664268
0.00000000 0.39792484 0.32718265
0.00000000 0.38644531 0.31774393
0.00000000 0.37499863 0.30833223
0.00000000 0.36359173 0.29895321
0.00000000 0.35223147 0.28961253
0.00000000 0.34092477 0.28031594
0.00000000 0.32967857 0.27106905
0.00000000 0.31849971 0.26187757
0.00000000 0.30739519 0.25274718
0.00000000 0.29637188 0.24368356
0.00000000 0.28543669 0.23469239
0.00000000 0.27459654 0.22577937
0.00000000 0.26385832 0.21695016
0.00000000 0.25322893 0.20821045
0.00000000 0.24271531 0.19956593
0.00000000 0.58083022 0.47757149
0.00000000 0.56976801 0.46847591
0.00000000 0.55862784 0.45931622
0.00000000 0.54741657 0.45009810
0.00000000 0.53614122 0.44082719
0.00000000 0.52480853 0.43150926
0.00000000 0.51342559 0.42214993
0.00000000 0.50199920 0.41275489
0.00000000 0.49053627 0.40332982
0.00000000 0.47904375 0.39388043
0.00000000 0.46752855 0.38441238
0.00000000 0.45599756 0.37493134
0.00000000 0.44445771 0.36544299
0.00000000 0.43291587 0.35595304
0.00000000 0.42137897 0.34646717
0.00000000 0.40985397 0.33699104
0.00000000 0.39834768 0.32753032
0.00000000 0.38686711 0.31809074
0.00000000 0.37541911 0.30867794
0.00000000 0.36401060 0.29929760
0.00000000 0.35264850 0.28995544
0.00000000 0.34133971 0.28065708
0.00000000 0.33009115 0.27140829
0.00000000 0.31890970 0.26221466
0.00000000 0.30780235 0.25308192
0.00000000 0.29677591 0.24401575
0.00000000 0.28583735 0.23502183
0.00000000 0.27499357 0.22610582
0.00000000 0.26425147 0.21727343
0.00000000 0.25361797 0.20853034
0.00000000 0.24309997 0.19988219
0.00000000 0.23270439 0.19133472
